/* XPM */
static char *_fa2f1deb92d42b5ba89d9cc58b2e0d7[] = {
/* columns rows colors chars-per-pixel */
"500 500 256 2 ",
"   c None",
".  c #040301",
"X  c #0B0402",
"o  c #0D0804",
"O  c #080708",
"+  c #130502",
"@  c #1B0401",
"#  c #130904",
"$  c #1C0A03",
"%  c #1C0C09",
"&  c #150909",
"*  c #1C110A",
"=  c #230401",
"-  c #2B0401",
";  c #240A03",
":  c #2C0C02",
">  c #230D09",
",  c #2B0C09",
"<  c #330400",
"1  c #3B0401",
"2  c #330C02",
"3  c #3B0C02",
"4  c #370C09",
"5  c #2C1105",
"6  c #2C130A",
"7  c #251208",
"8  c #341204",
"9  c #3C1303",
"0  c #34140A",
"q  c #3B140A",
"w  c #3C1A0B",
"e  c #391908",
"r  c #391912",
"t  c #2B1612",
"y  c #3C2316",
"u  c #430401",
"i  c #4C0400",
"p  c #430C01",
"a  c #4B0C01",
"s  c #460C0A",
"d  c #530C01",
"f  c #5B0C01",
"g  c #560501",
"h  c #441403",
"j  c #4B1402",
"k  c #451A04",
"l  c #4C1A04",
"z  c #43140A",
"x  c #4B140A",
"c  c #441B0B",
"v  c #4C1C0B",
"b  c #531402",
"n  c #5B1401",
"m  c #541B03",
"M  c #5B1C02",
"N  c #541C0A",
"B  c #5B1C0A",
"V  c #56150B",
"C  c #471A12",
"Z  c #571C12",
"A  c #4B0F10",
"S  c #660C01",
"D  c #631401",
"F  c #6B1401",
"G  c #631C02",
"H  c #6B1C01",
"J  c #631C0B",
"K  c #691A0A",
"L  c #731C01",
"P  c #7B1C01",
"I  c #751603",
"U  c #6E150A",
"Y  c #4B220A",
"T  c #552204",
"R  c #5C2204",
"E  c #54220B",
"W  c #5C230B",
"Q  c #5A2A09",
"!  c #492415",
"~  c #582614",
"^  c #5C3215",
"/  c #642303",
"(  c #6B2402",
")  c #6C2A04",
"_  c #64240A",
"`  c #6B240B",
"'  c #642A0B",
"]  c #6C2B0B",
"[  c #652904",
"{  c #732402",
"}  c #7B2401",
"|  c #742C03",
" . c #7B2C02",
".. c #73240B",
"X. c #732C0B",
"o. c #7B2C0B",
"O. c #7B240B",
"+. c #6A3409",
"@. c #753105",
"#. c #7C3304",
"$. c #74320B",
"%. c #7C330B",
"&. c #7B3A0A",
"*. c #6C2B12",
"=. c #662815",
"-. c #762A14",
";. c #6A3417",
":. c #7B3413",
">. c #773617",
",. c #713724",
"<. c #542F23",
"1. c #7B430E",
"2. c #78452A",
"3. c #744F42",
"4. c #851C02",
"5. c #8B1808",
"6. c #832401",
"7. c #8B2401",
"8. c #832C01",
"9. c #8B2C01",
"0. c #862A0B",
"q. c #932C02",
"w. c #972A04",
"e. c #833403",
"r. c #8B3302",
"t. c #843A04",
"y. c #8C3B03",
"u. c #83340B",
"i. c #8B340B",
"p. c #843B0B",
"a. c #8B3C0B",
"s. c #933401",
"d. c #9B3401",
"f. c #943B02",
"g. c #9B3C02",
"h. c #933C0B",
"j. c #9B3C0B",
"k. c #96340B",
"l. c #862B14",
"z. c #8B3C13",
"x. c #863815",
"c. c #963A15",
"v. c #932C14",
"b. c #A33C02",
"n. c #A63A05",
"m. c #A73A13",
"M. c #8C3A24",
"N. c #A23D24",
"B. c #8A430A",
"V. c #9C4302",
"C. c #94430C",
"Z. c #9C430B",
"A. c #984705",
"S. c #8A4416",
"D. c #984616",
"F. c #995716",
"G. c #95540B",
"H. c #A34402",
"J. c #AB4402",
"K. c #A44B02",
"L. c #AB4B02",
"P. c #A3440B",
"I. c #A44B0B",
"U. c #AB4C0B",
"Y. c #AB440B",
"T. c #B34C02",
"R. c #B54A07",
"E. c #AC5302",
"W. c #AC530C",
"Q. c #A85706",
"!. c #B45302",
"~. c #BB5402",
"^. c #B45B02",
"/. c #BC5B02",
"(. c #B3540C",
"). c #BB540B",
"_. c #BC5B0C",
"`. c #B45B0C",
"'. c #A74915",
"]. c #B54B15",
"[. c #AA5516",
"{. c #B75816",
"}. c #BA6508",
"|. c #A76718",
" X c #BA6516",
".X c #BA7518",
"XX c #B06C0B",
"oX c #984825",
"OX c #904E2B",
"+X c #A95726",
"@X c #B75925",
"#X c #AB4F2C",
"$X c #B96626",
"%X c #B46F2B",
"&X c #9B621B",
"*X c #C35C03",
"=X c #C45909",
"-X c #C45B16",
";X c #C7540E",
":X c #C46303",
">X c #C4630C",
",X c #CC6B0C",
"<X c #C96708",
"1X c #D36A0A",
"2X c #C9730B",
"3X c #D6760B",
"4X c #C76816",
"5X c #D46B16",
"6X c #C97618",
"7X c #DC7B14",
"8X c #D77618",
"9X c #E37B19",
"0X c #E27A0E",
"qX c #C55B27",
"wX c #C76826",
"eX c #CA7726",
"rX c #D77926",
"tX c #D07131",
"yX c #E37C29",
"uX c #AC6649",
"iX c #CF7549",
"pX c #D27656",
"aX c #BB8426",
"sX c #D98419",
"dX c #CC8419",
"fX c #E5861A",
"gX c #E98F1C",
"hX c #C98626",
"jX c #D88727",
"kX c #D9952A",
"lX c #D98736",
"zX c #DA9835",
"xX c #CA9031",
"cX c #E78827",
"vX c #E89629",
"bX c #F4972A",
"nX c #E68936",
"mX c #E79737",
"MX c #F69937",
"NX c #F28C2B",
"BX c #E6A639",
"VX c #F6A536",
"CX c #DBA436",
"ZX c #D78A48",
"AX c #ED9547",
"SX c #F8A847",
"DX c #F7B64A",
"FX c #FCB856",
"GX c #EEAE4A",
"HX c #E6A362",
"JX c #F6C756",
"KX c #FBCF6A",
"LX c #FAE171",
"PX c #BB8254",
"IX c #FDE89E",
"UX c #FBE1BD",
/* pixels */
"                                                                                                                                                                                                                                    $ $ @ $ $ $ ; ; 6 6 ; ; ; ; $ 7 6 : : ! 8 9 Y k E k ^ k h h l l T T Q l m ' M $.X.@.| | e.#.B.t.t.t.D.| e.S.S.a. .e.f.y.f.I.C.C.h.e.D.r.f.f.K.V.V.{. XW.[.$XI.V.W.y.r.f.V.V.W.V.K.{.K.`.W.L.V.f.(.(._.E._.4X4X^.L.^.}.^.8X^.<X2X8X2X<X2XcXsXMX<XjXvXvXdXBXzXmXGXBXkXhXJXKXkXjXnXcX<XmXjXkXkXFXmXBXGXxXxXLXCXBXJXdXkX2XvX8XmX4XH.W.{.d.b.d.=XT.>X^.^.:X1X<X7X7X2X2X:X2X:X1XsX3X7X7XfX7X1X<X1XcX3X8X,X5X,X/./.8X4X}.>XeX`.L.H.H.L.(.E.L.!._.!././.:X:X~.!.*X4X_.!.!.-X>X-XJ._.!.L.V.V.f.f.f.r.8.8.S.{ `                                                                                                                                                                                                                                                                                               ",
"                                                                                                                                                                                                                                  7 $ @ $ $ $ $ ; ; 5 5 ; ; ; $ 7 6 ; : e e : w c c k k l 3 l E Q Q Q W T m m R / / ) x.&.#.#.B.t.t.t.t.#.t.a.e.e.e.D.a.y.I.[.y.C.a.y.y.8.f.Z.I.f.f.y.W.I.`.A.V.I. XA.A.V.Z.A.Z.[.A.V.K.(.(._.H.g.(.L._.L.H.4X=X5X>X5X>X}.rX8X:X8X,XjXSX^.cX<X8XjXjX8XQ.Q.jXBXdXkXK.XX6XdXQ.6XjXmXSX!.E.vXGXGXBXXXSXGXzXGXKXJXKXkXCXCXDXVXSXrX^.K.{.s.H.T.!.4X4X<X8X,X8X,X3X3X7X3X:X2X2X}.3X<X2X2X7X7XfX7XbX3X<X3X:X:X*X!./.4X!.L.5X4X4XL. XK.L.(.L.E.(.L.4X!.L.^.8X8X4X_.4X>XT.H.L.L.L.L.H.L.J.).`.g.V.f.8.'.r.r. .u.x.] W                                                                                                                                                                                                                                                                                             ",
"                                                                                                                                                                                                                                7 7 $ @ $ $ $ $ ; 5 5 ; ; ; ; $ 7 6 ; 6 6 ; : Y c v k 3 3 Y h j j l T Q W R m m / [ [ @.#.S.#.#.#.#.#.e.{  .p.e.e.C.r.C.y.A.8.[.C.8.A.y.f.[.Z.Z.V.f.V.V.W.I.Q.K.W.V.I.I.I.f.r.I.r.V.I.{.U.K.W.K.4XK.wXL._.L.}.L.^.E.L.6X^.^.8X6X<X8X,X2X8XvX8XMX<X6X2XmXSXBXDX.XdXhXkXGXhXkXmXlXeX,XE.}.}.BXXX.XvXJXBXXXJXLXCXXXJXDXjXmXmX^.L.g.s.g.(. X}.8X8XrX8X,X*X,X7X:X2X^.2X6X}.MXMXVXVXFXvXvXsXgXgXgXgXsX*XL.8X/.~./.5X<X8XcX5XrX8X}.>X4X>X5X4X!.4X6X>X5XrX_.5XrXrX>X8X8X>XL._.rX=X4XL.!.H.K.4XW.Z.I.8.Z.r.r.e.S.| ] E                                                                                                                                                                                                                                                                                           ",
"                                                                                                                                                                                                                              7 > 7 $ + $ > $ ; ; 5 5 ; ; ; ; ; r ; @ : ; 5 w e 2 9 < Y v k k l =.T m h p j m m ] M X.( S.&.B.S.&.#.&.#.#.{ a.S.e.e.a.y.Z.V.A.V.Z.A.e.e.Z.A.'.g.[.I.A.V.A.A.K.[.V.I.I.$XV.Z.[.[.I.I.[.V.W.f.K.U.g.H.{.(.L.g._.>XL.^.4X!.>XcX!./.4X}.4XE.E.E.K.cXmX8X}.mXkXA.Q.kXSX6XGX.XmXhXhX}.}.4XeX4XXXXXFXKXSXdXdXBXCXCXXXBXBXFXmX.XK.L.6.H.L._.`.^.6X2XsX}.2X2XfX7XsXMXcXMXVXFXDXVXVXbXvXsXvXsXvX3X3XfXfX3X7X3X:X8X8X5X^.H.L.^.E.^.K.^.H.L.!.L.L.L.H._.>X>X5X8XnX>XT.H.=X~.!.L.L.4XeXrX6X!.L.V.(.{.P.@Xf.8.h.D.r.e.| :.;.l                                                                                                                                                                                                                                                                                         ",
"                                                                                                                                                                                                                            7 7 $ $ $ + $ $ ; 7 $ 7 ; ; ; ; ; 5 7 $ 6 5 = : w 8 2 2 c Y k k 3 E j h l m W R ' Q / ] ] | @.| @.&.o.x.u.H  . .a.C.y.[.[.V.Z.f.I.y.f.I.I.A.f.f.A.I.[.I.[.r.I.A.[.V.[.I.f.{.y.8.f.Z.P.Z.g.f.s.K.g.I.U.{.H.K.K.4X}.}.L.!.>X8X4X,X^.>X>XjXrX^.6XrX}.mXSXrXFXjX6X6XhXXX6X^.Q.hXA.Q.XXA. X}.6X6XFXGXhX.XFX.XkXXXG.XXGXFXxXXXA.{.{.9.{.4X X^.^.8X6X<X}.}.7X2XsX7XvXsXvXDXvXVXVXVXVX2XsX2X3XsX2X3X}.2X3X2X:X,X,XcX7X3X<X8X8XNX3X:X/./.3X2X8Xs./.L./.!.!.^.^.>X_.!.L.4X4X!.^.).H.!.).4X4X)._.`.f.U.I.I.h.h.9.'.h. . .t.1.[ l                                                                                                                                                                                                                                                                                       ",
"                                                                                                                                                                                                                          > > $ $ $ $ $ $ $ 7 7 $ 7 ; 7 5 ; 7 t 7 ; ; ; r 0 : : e ! c 9 3 9 v h N l m m W R Q R / 1.) $.[ :.| ( ( z.%.H ( {  .C.C.Z.Z.V.V.y.$XW. XA.A.B.V.A.[.Z.I.Z.Z.{.I.V.y.I.I.Z.I.f.Z.I.f.V.A.Z.{.f.P.W.U.W.U.{.K.W._.!.>X>XcX8X6X,X8X}.>X6X_.>XE.^.E.K.^.8X}.eX}.^.SXmXFXFXmX6XjX.X.XQ.GXAXFXhXlXQ.eXhXAX.XkXQ.Q.zXDXFXGXxXQ.K. XV.(.H.wXV.6X8X2XjX<X7XvXsXvXdXsXVXVXVXvXdXvXdXsXsX2X2XXXsX:X}.2X7XsX7X,X1X,X^.:X}.,X,X8X7XfXsXsXfX3X2X:X,X:X,X<X5X:X<XcX>X:X<XL.!._._._.AX!.H._.L.4X^.4X4XH.!.4XV.6.Z.P.h.8.Z.Z.e.e.#.p.>.Q v                                                                                                                                                                                                                                                                                     ",
"                                                                                                                                                                                                                        $ > ; @ ; @ $ ; @ $ 7 ; ; 7 7 ; 7 7 7 6 ; ; : 5 r : : 8 w 8 2 2 9 v c Y v E l l j R m T M m / M >./ ) ( | x.u.#. .{ e.F.Z.[.e.V.V.[.I.A.A.I.K.W.I.8.$Xf.f.'.[.A.r.f.f.r.Z.I.r.I.I.I.f.A.[.I.U.f.V.W.K.U.I.g.(.K.E.K.V./.>X:X^.6XK.}.}.}.V.L.rXAX^.6X6XnX}.eXeXSXjX.XK.A.V.rX XjXGXzXeX.XXX XXXzXxX.X.XAXQ.mXFXSXzX6XB.K.V.K.{.`.L.>X>XjXsX6X2X:XbX2X3X7X}.VXvXdXsX2XbXVXvXVXvX2X2XbXvXVXSXDXfXbX7XbXfX7X7X8X/.,X>X,X8X,X<X:X,X<XfX3XcX,X7X8XfX8X8X,X/.8X}.!.5XrX/.>X5X!.L.=X4X4X_.!.5X/.L.L.!.U.P.s.r.j.h.i.C.r. .{ t.S.+.Q k                                                                                                                                                                                                                                                                                   ",
"                                                                                                                                                                                                                      $ 7 ; ; ; ; @ ; 7 @ $ 7 ; ; 6 7 ; ; 7 7 5 ; ; ; 5 5 : ! : : 8 2 9 h v c v h E j m j ' m m b M ] / [ / [ X.x. . . .a.e.C.C.[.B.A.I.V.f.I.A.V.A.K.K.f.V.r.A.j.j.s.r.r.Z.I.I.f.r.Z.f.f.A.Z.I.I.f.Z.f.U.V.W.W.I.V.W.E.4X^.rX6X>X6X>X^.rX4XrX`.nX_.L.4XE.}.E.E.f.nXeXA.Q.Q.Q.eXAX`.6X^.^.Q..XQ.eXzXhXAXGXIXGXhXnXQ.6XQ.A.A.lX XyXwXH.L.4X6X3X2X8X8XVXsX,X<X/.SXVX2X2XVXvXsXgXsXVXsXsXVXMXsXsXvXsX2X2X:X7X3X7X8X!.6X<X<X<X/.L.,X/.:X<X3X:X*X:X<X3X3X:X7X,XcXcX/.5X8X8X6X/.^.^.>X/.!._.4X^./.4X4X>XL.H.V.s.Z.s.h.i.} C.'.r.e.e.#.:.] T                                                                                                                                                                                                                                                                                   ",
"                                                                                                                                                                                                                      7 ; 5 ; = 7 ; 7 7 ; ; $ ; 0 ; 5 ; ; 6 ; ; ; : ; = : 0 8 : 2 8 8 9 3 9 9 h 3 l l m W m ' R [ M [ +.$.$.] >.%.{ e.#.{ y.e.y.D.y.Z.Z.[.Z.V.I.I.W.K.y.I.I.y.C.h.} f.h.r.[.'.I.I.$XI.{.[.I.I.[.I.V.I.I.I.g.U.U.V.I.H.`._.K.}.^.,XjX^.}.E._.E.V._.4XH.!.}.`.rXrXmX6XE.V.Q.jX.XAXE.4X4XlXAXXXmXmXlX6XhX6XG.Q.A..XAXnX XQ.lXlXlXlXK.K._.rX>XcX}.sX8X,X^.2X2XvXvX^.2XcXcXsX}.2XvXsX}.6X2X2XsX8X2X}.:X3X2X3XfX1XfX1X:X:X2X:X8XcX3X7X,X:X^.~././.,X8X,X,X3X8X8X7X,X,X,X<X:X8X/.5X/.5X,X8X,X!.>XT./.~.5X}.rX4Xg.r.g.s. .i.8.D.8.8.e. .B.@.R Y                                                                                                                                                                                                                                                                                 ",
"                                                                                                                                                                                                                    $ > ; ; ; ; ; ; 7 7 7 ; @ ; 6 5 ; ; ; 5 ; ; ; : ; ; : : : : w e 2 2 2 9 9 9 3 j h T Q T ' ' R m R / [ / / ) z.S.a.t.[.B.a.D.y.I.[.I.Z.y.I.W.[.K.W.{.Z.y.Z.r.8.Z.9.r.'.f.f.g.[.V.{.{.K.I.f.K.V.f.P.wX{.V.f.V.I.V.V.K. X4XE.4X}.^.>X}.4XmXL.V.rXK.nX_. X4XK.V.^. XE.SX^.jXzX}.E.6X}.6XK.Q.XX6XmXeX^..XmXhXGXmX`.4X`.6X4XnXSXV.E.H._.!.rXcXsX}.^.8XmXmX6X}.}.2XcXvX,X<X6XsX}.}.8XVX2X8X2X:X:XsXvX8XfXcXNXfXbXNXcXcXbX2X8X7X7XcXfXNXNXcXcXcX8X/.,X7XcXcX,XL.,X/.L.!.^.^.L./.}.<X8X6X5X,X:X,X:X:X~.4X4XwXW.I.r.f.e.r.8.z.}  . .8.S.&.+.R e                                                                                                                                                                                                                                                                               ",
"                                                                                                                                                                                                                  $ > $ ; ; : : 5 ; ; ; ; ; ; 5 ; 6 = ; 6 5 ; : : : : : : ; : 8 c w e 9 2 9 9 h E E j ~ W m m [ / [ / / / / ) | p.( a. . .B.C.y.Z.C.A.Z.[.f.A.A.I.[.I.[.f.f.C.y.r.Z.f.'.j.r.'.f.f.{.g.I.f.W.{.K.V.A.V.W.H.[.U.U.U.K.{.E.(.4X4X6XnX,XrX6X!.E.(.!._.L.!._. X}.^.6XrX}.6X6X}.rX.XlXeX6XAXeX}..XjXSX}.6XkXhX6X.XXXjXhXrXjXjXjX}.K.`.`.eX_.eXrX}.^.6XnXjX6X^.2XjXvXSXsX2X<X8XjX2XjX2XsX7XsXsXcXvX3X7XfXNXcXNXyXNX7XcXNXcXcX,X/.~.^.!././.L.L.!.T.T.~.:X:X,X~.5X5X<X*X/.5X,X1X/.3X3X<X8X7X5X8X*X:X:X^.!.!.^.`.wX{.r.f.y.8. .u.o.o.L  .a.B.@.[ T e                                                                                                                                                                                                                                                                             ",
"                                                                                                                                                                                                                % > > ; ; ; : 5 5 ; ; : : : : 5 ; 5 : 8 w 8 : 5 : 5 : : : ; : e 8 e w k 9 9 h k l E m W Q ' ' ;.[ *.[ ) ) ) >.$.| t.#.t.D.a. .C.y.a.y.Z.f.[.f.A.r.f. XZ.f.r.f.y.D.h.[.I.8.[.f.I.U.f.H.{.I.f.W.K.Z.V.U.Z.[.I.{.[.I.I.U.K.`.K.^.}.>X^.L._.4XL.rXH.wXH.nXeX4X4XE. XE.6X}.4XjXmXeXQ.e.FX4X6X6XmX6X}.6XmX6XkXhXAXhXeXQ.}.^.^.}. XQ.W.K.wXAXE.E.eXAX6XV.eX XjXSXSX6X}.2XsX6XsXMXVXmXMXbXfXbXsX7X/.:X,X/.H.!.!.!././.!./.^.!.:X:X,X,X,X:X,X*X~./.~./.>X8X:X~.:X,X:X8XcX8X/.^.^.,X<X8X3X/.,X:X,X<X,X8X:X,X/.H.!.W.{.H.Z.Z.e. .u.x.{ F  .e.B.&.) Q Y                                                                                                                                                                                                                                                                             ",
"                                                                                                                                                                                                                7 7 ; ; $ ; ; 6 ; : 5 6 5 : : : : ; 0 e 0 e : 5 : 5 : = = : 8 w 2 9 k k l l l l T T l j T R ' *.R ] / ) ) [ @./ | t.p.p.t.t. .{ a.a.Z.C.r.A.y.f.f.'.f.f.y.A. .I.r.f.r.Z.8.f.P.g.g.W.W.g.V.W.V.P.s.f.8.g.f.W.Z.f.g.g.I.U.L.4X_.K.rXrX}.4XeXL.(.wX(.H.V.H.K.V.nXmXSX4XAXjXE.E.Q.lXK.B.y..X6XK.rXE.jX8X}.6X6XSXrXmXcXMXE.^.}.y.ZXV.FX(.L.rXeXeXV.Q. XrX XnX4XL.2X}.}.2XDXVXvXFX,X/./.<X/.V.L.:X:X:XfXfXcXfXfXgXbXfXNXfXgXcXcX7XcXfX7XfXfXfX7X8X1X,X/./.}./.:X:X,X*X,X8XbX5X<X1X,X/.5X~.:X8X,X,X:X/.,X>XL.>XL.V.U.s.'.C. .} o.L H  .#.p.t.) [ W k                                                                                                                                                                                                                                                                           ",
"                                                                                                                                                                                                              7 ; 5 ; ; $ ; ; 6 ; 5 : 5 : ; : : 8 : w e 8 9 2 8 5 5 : = ; : e w e w Y v l l Y Y j l W ' >.' *.*.b / M [ [ [ :.@.&.{ p. .p. . .p.a.e.y.C.A.e.V.f.Z.Z.f.Z.f.A.Z.f.A.V.f.f.V.f.6.f.r.I.W.V.V.r.W.[.I.[.{.f.s.9.P.I.V.[.K.V.wXH.E.E.L.`._.!.L.L.r.L.L.{.rX XrX`. XK.K.K.eX X`.E.4Xy.eXlXSXAXeX4X4XrX>XmXmXnXeXjX6X^.}.E.^.6XeXA.I.AXI.{. XeXlXQ. XlXKXrXA.E.E.6X^.6XmXBXMXDXsXE.,X7X2X,XcXMXMXMXcXVX7XVXVXbXgXvXgXgXgXgXfXfX3X1X3X<X7X3X3X3X7X3X7X7XbXMXfX3XcX}.:X*X:X,X,X7X3XcX:X:XT.8X/./.<X8X/.*X*X/.>X_.{.I.g.9.Z.D.e.} o.{ { {  .e.u.@.[ R N 9                                                                                                                                                                                                                                                                         ",
"                                                                                                                                                                                                            7 6 5 5 ; ; ; ; ; 5 6 8 : : : : e 8 8 8 w e e w 9 e 8 6 : ; : 5 e w 8 w Y k h h l Y Q Q T l m m M _ ] X.( [ [ / @.@.) &.#. .z.o.z. .H e.e.D.8.A.Z.Z.r.'.Z.Z.r.A.[.[.K.V.K.W.W.W.{.U.U.W.f.H.W.I.f.Z.V.r.9.r.j.f.g.Z.V.V.{.(.f.wXE.eX>X`.4XeX4X X4XrXtXr.H.V.f.V.V.eXAXeX`. X`. XrX XlXA.A.`.4X X5XH.E.}.!.}.^.E.rX4X,XeX`.W.I.AX XA.B.lX XQ.Q.FXFX XA.E.6X}.eX}.MXMXSXmX}.}.:XfXsXsXcXfXNXVXbXfXcX3X3X2X2XsXfX2X3X3X:X<X:X3X:X7X3X3X3X7XsX3X3XfXfX:X:X2XbX8X,X8X7XcX8X5X<X/.<X8X8XyX*X*X^.8X*X~.<X<X<X/.!.!.J.{.g.Z.f.A.y. . .%.{ { u.u.z.u.( / Q k                                                                                                                                                                                                                                                                         ",
"                                                                                                                                                                                                            6 t 6 5 5 ; 5 ; 7 ; 8 e 5 e e 0 w 2 = 8 8 8 w e 9 w w 8 : : 5 : 8 w 9 9 h 9 l l E E T Q R m m ' ' _ / / ( ) [ [ @.&.z.#.#.%.o.u.#.8.i. .D.D.Z.y.y.y.r.8.A.r.I.V.W.I.W.W.W.W.K.`.{.I. XwX(.U.V.Z.V.P.g.'.I.P.j.'.j.s.W.g.K.{.g.L.(.K._.H.!.V.L.V.`.H.s.wX4X4XnX XAX XK.eX4XrX X`.E.eX|.ZXSXnX4XK.4X>X,X8XrXE.}.}.nXV.jXE. XZX$Xf.A.$XZXA.lXlXAX[.B. X^.}.}.^.mXKXSXmX^.:XsX7XsXsXfXbXMXfX2X<X:X3X3X2X1XsX3XbXMXbX3XfXvXfXcXfX7X3X3X7X7X3X3X3X3X3XfX7XsXcX:X,X,X:X/.:X/.,X3X8X8X*X!././.*X:X~.~././.=X=X>XH.L.H.H.{.g.s.r.y. . .%.(  . . .x.x.( / / N e                                                                                                                                                                                                                                                                       ",
"                                                                                                                                                                                                          7 7 5 0 6 ; ; ; ; ; 5 r 5 e e e e 8 8 w 8 w 9 8 8 8 e e e 8 : 8 2 w 2 8 9 3 k k k h j T R h T Q ' ' *.] [ ) $.( $.&.&.| u.#.#.a. .e.Z.Z.I.f.A.y.[.K.I.A.V.V.V.V.I. X{.{. XK.K.E.E.K.4Xf.$X{.I.[.Z.{.Z.f.H.Z.I.9.Z.f.P.P.g.'.f.{.U.H._.E.eX!.!. X4X_.4X4X4X^.^.4X!.E.nXlX6X`.E.6XFXmXeX4XK.V. X XeXeXK.SXFX_.SXjXrXE.eXK.lX`.f.f.$XZX[.$XAX[. XQ.W. Xy.}.6XSXKXeXK.^.,XsX7XvXgXMXcXNX,X^./.<X3X7X,XfX7XNXfXMXcX,X2XNXNXfX7XfX7X3XfX3XfXfXfXfXfX7XfXgXfXbX7X3X1X/.fXNXcXfX/.,X^.1X1X3X^.L.L.:X/.4X_./.4X=X4X_.L.(.L.b.W.j.s.D.a.} | | { u.u.{  .%.G ( / l                                                                                                                                                                                                                                                                       ",
"                                                                                                                                                                                                        $ 6 5 : : 5 ; ; $ ; 5 0 : ; 8 e e w 9 9 9 9 k 9 2 8 e c 8 8 : : 8 e 8 9 w 2 9 9 3 h E E Q ' R ' m ' m *._ / ] / | | ) &.S.e.a.t.y.Z.D.y.B.B.V.f.V.A.Z.K.K.[.I.V.{.W.K.f.`.E. X XV.(.4XK.tXW.V.g.f.P.8.[.P.f.s.Z.P.r.A.Z.[.g.g.g.P.H.K.W.L. X`.V.g.L.!.}.^.^.>XrX4X4X_.^.`.`.4X^.nX}.E.4XeXnX^.}.4X}.mXjXrX^.K.^. XE.E.eXAXr.K.K.tXW.tX[.B.lXtXy.Q.`. XSXSX6X}.V.V.4XrX8X7XbXVXbXsX6X^.*X,X<X8X7X7XMX7XVXgX7X,X:X1X7X*X3X3X1XsXgXbXbXfX3X/.<X*X7X3X3X3X3XgXgXMXbXDXfXfXsX8XcX8X8X8X1X:X,X>X<XL.!.T.!.5X>X5XT.!._.`.4Xg.g.k.r.h.a.H X.o.x.{ #.{ z.%.( H ` _ j                                                                                                                                                                                                                                                                     ",
"                                                                                                                                                                                                        $ 6 6 : ; ; $ $ ; 7 : : ; 5 e Y Y w 9 8 c 9 2 9 9 Y 9 2 e : 8 w 2 c e w 9 9 k k k h E E N j W l W W m m M b G M X.:.%.&.z.p.a.y. .a.[.y.B.[.[.Z.A.W.I.K.I.{.A. XK.wXf. XV.I.V.{.U.H. XW.V.V.{.W.U.H.g.[.s.f.'.Z.s.s.s.Z.P.r.I.I.I.W.U.K.(.L._.eX4XL.J.g.^.5X!.4X}.E.E.lXE.rXlX4X^.6XSXeXV.}.^.eX^.6XK.K.eX6X^.4XK.E.eX Xs.tXP.{.{.wXW.lXAXE.Q.eXeXSXlXE.Q.E.^.nX8XvX6XVXVXvXvX,X^.*X4X}.6XsXsXvXvXDXcX,X/.<X3X<X1X:X:X,XfX7XfX7XcX1X/.fXyX7X5X<X8X8X7X3X7XyX,X8X8X4X5X4X5X4X5XrX8X!.rX!.4XL.rX4X_._.!.T.L.!./.>XH.`.wXg.9.Z.'.D. .{ G %.#.{ { x.&.G ( ] ] E                                                                                                                                                                                                                                                                     ",
"                                                                                                                                                                                                      $ > 6 r 5 ; @ @ ; 6 6 ; = : e w w e 9 Y Y ! k k 3 Y k ! k 2 8 2 8 w w 2 w 9 Y Y 9 k 9 3 h 3 h E T W W W _ ' / >.$./ $.| &.#.e.D.S.y.Z.r.[.Z.A.V.I.I.I.V.K.y.K. X`.E.W.K.V.K.V.g.I.H.W.(.{.W.H.K.K.V.I.g.Z.V.{.g.[.P.r.[.@XP.{.g.H.H.{.K.K._.H.L.g._.(.yX4XL.>XrX/.H.^.}.jXjX}.^.^.4X6XE.}.nXSXSXmXnX4XFXrXAXE.rX!.`.lXlXf.{.s.wXAXAXV. XH.f.lXlXE.lXK.K.rX>X8X8X2XjX6XBXBXJXsX:X!.8X,X2XdXdXVXDXVXjX<X^.2X<X!.:X3X7X3XcXfX8X<X:X<X/.<XcX,XNX<X4XrX>X8X8X>X!./.!.T.L.H.!.g.g.g.H.g.L.T.T.4X>X>X5XrXrX~.5X^.*XL.!.>X!.4X4XK.9.6.Z.C.} { x.S.S.| | u.p.G ( X.] Q k                                                                                                                                                                                                                                                                   ",
"                                                                                                                                                                                                      7 6 0 0 : @ ; 5 6 7 ; ; ; ; 8 8 w w 9 e k 9 9 9 k k Y Y k 9 2 8 w e 8 c 9 k ! k 9 h k h E ' ;.;.+.' [ ] [ / [ [ [ #.S.#.B.#.B.e.a.S.B.y.C.y.I.Z.I.A.{.I.V.V.W.V.{.{.K.{.V.H.K.I.W. XK.K.K.E.E. XK.H.V.W.I.W.g.[.P.[.[.s.f.H. XW.W.r.r. XK.K.H.{.{.{.{.(.E.H.E.!.!.4XE.}.jX4X6XmXSXMXFX6XjXFXjXmX4X}.^.K.K.^.rXeX4X XK.{.{.{.AX{.U.s.U.tX(.wX4Xg._.E.^.2X,X8XcXsXkXkXDXKXkX}./.*X9X<X2XAXdXFXMX^.E.^.}.:X2X<X2X8X6X/.,XL.^.~.*X<X8X8X<XT.*X>X*X~.L.g.L.J.!.T./.<X<X8X}.:X/.,X,X<X>X:X/.,X/./.^._.=X=X4X>X>X_.>X^.>XL._.`.(.9.6.f.D.x.( ( &.p.| ( S.p.| ( X.$.] E 8                                                                                                                                                                                                                                                                 ",
"                                                                                                                                                                                                    # 6 0 r 5 ; 5 5 7 5 ; ; @ @ ; ; ; e Y e 8 8 2 k l ^ E ^ Y 9 9 k 9 9 ! 9 c k 9 h h k 9 Y ~ ^ Q T T j R l [ m [ ) ) [ #.&.#.p.S.e.e.e.t.D.e.t.e.y.y.[.Z.I.f.I.V.[.wXV.Z.V.I.W.W.f. X(.{.K.{. X X`.L.wX`.L.g.V.H.K.P.s.Z.[.P.g.U.{.K.W.H.E.H.(.wXyXK.K.s.g.{.{.(._._.`.4X4XnX6X6XE.V.>XV.}.}.}.4XE.^.jXjX4XnXeXSX}._.K.wXwXg.r.{.{.L.s.L.g.b.T.H.L._.E.8X<X<XvX3XcXkXJXKXzX.XXX,X8X7X1X}.mXKXzX}.E.}.2X^.}.MX6X}.sX^.}.}.2XrX4XNXcX>X<X*X/./.!.H.8X:X^.5X>X5X,XcX7X7XfX8X7X,X3X:X<X/.3X,X7X7X8X/.<X<X/.~.<X*X/.!./.L./.5X!.L.H.U.6.8.'.o.( ( %.#.{ { x.S. .( X.&.$.' k                                                                                                                                                                                                                                                                 ",
"                                                                                                                                                                                                    * t r 8 : : r 5 ; ; ; ; ; @ ; @ @ ; e e 9 ! k Y ^ k Y 3 E k k 9 9 9 9 k c 9 9 9 l Y h k v h 3 h j m j m ' ] *.) [ ( %.&.S.#.p.p.p.S.D.S.C. . .e.Z.r.D.C.Z.Z.f.I.I.[.wXZ.$XV.g.{.wXI.W.g.K.s.E.H._.`.{. XV.s.U.wXH.{.(.V.U.V.W.V.W.V.g.g.s.U.wX(.4X(.{.{. XtXL.H.eX_.E.6X>XL./.^.cX8X6XmXrX}.E.SXnXnX6X^.K.V.`.(.E.K.{.K.[.U.d.d.b.g.).!.-X^.>X6X>XcX2X6XSX6XBXFXKXdXQ.2X!.4X/.2X6X.XDXGXB.E.4X5X4X/.MXvX^.<XcX}.4X2XrXnXmXSX4XJ.~.<X!.^.:X,XfX:X7X7X<XNX7XfXfX7XfXfXsX7X7X2X7XfX3X2X1X/.7X7X7XgX7X,X:X<X5X5X<X5X8XH.!._.L.H.P.f.8.D.S. .D ( %.| |  .S.{ ( | #.#.$.E 9                                                                                                                                                                                                                                                               ",
"                                                                                                                                                                                                  7 t r 8 : : e 5 : ; ; ; ; 5 6 @ @ 5 0 r 5 : Y Y ! 9 k 9 E Q Y k h 9 9 9 Y 9 k Y E ~ Y Y k c v ~ v ~ E E E W R m *.M / ) | $.&.#.#.{ | #.#.a.y.e.e.e.r.C.Z.C.Z.@XZ.I.Z.f.V.I.V.W.W.W.U.H.K.wXwX{.`.K.H.K.K.{.(.g.K.g.s.{.U.{.H.W.W.{. XU.V.4X{.K.eX X{.V.L.K.r.g.L.g.L.E.!.}.4X,X6X2X,X>X4XV.^.eXjX}.4X^.SXlXlX_.{.{.{.{.U.s.s.g.J.L.4X!./.^.8X8X8XjX6XjX.XkXLXDXkXQ.hXjX^.yX/.8X2X}.zXQ.K..XFX XjX4X8X/.jXjX,X^.>XjXSXSXnX6Xf.4X=X:X<X7X7X7X3X3XfXfXgXgXfXbX7XfXVXVXgXbX7XsXbXsX3XfXvX3XfX1X3X1X3X1XcX2X7X*X:X^.8XrX8XL.`.H.K.K.g.8. .x.%.( ( %.%.{ %.S.p.G ( #.t.&.*.E                                                                                                                                                                                                                                                               ",
"                                                                                                                                                                                                # 7 t 0 : e 8 : e 6 7 > ; ; ; ; @ ; 7 ; @ ; 0 w e 2 2 9 Y Y Y k k k v c ! k k k 9 9 9 9 9 3 9 9 z 3 c x 3 p j b a b M a n M ( ( | &.| p.e.S.e.#.y.a.h.h.e.r.8.e.8.r.r.V.e.e.V.r.f.r.g.f.{.U.I.I.W.{.{.{.g.{.W.(.V.eX X(.`.L.E.`.(.K.K.V.(.I.(.s.H.H.g.H.K.`.E.yXtXlX_.4XH./.,X/.>X>XK.}.}.6XcXrXmX^.4X6X4X X4XV.K.wXU.K.{.q.g.K.H.L.^.^.>X8X8X8X}.6XjXXXzXKXKXhXXX.XBX4X!.4X4XnXrX6XSXK.XXxXlX[.lX!.E.mXSX!.,XE.5XAXrX/.H.>X/.4X>X,X8X7X7XfXfXgXVXbXfXfXgXgXfXfXbXgXgXbXgXVXbXbXbXgXsXgXfXfXbXbXgXfX1X<X<X,X3X8X:X,X_.=XrXL._.wXI.f.r.r.u.u.| G G %.{ %.S.| ( { e.t.p.%.' k                                                                                                                                                                                                                                                             ",
"                                                                                                                                                                                                $ t 5 ; 8 Y e e 8 5 ; $ ; 5 5 ; 6 ; ; @ @ @ ; 0 8 e e k k k Y k Y Y v v ! 9 3 9 l E ^ E k 3 < < < z 3 1 ~ j p N *.' >.] ( [ G n ( ( | G #. .{ #.a. .8. .C.C.D.'.W.V.W.V.[.V.I.A.s.f.s.g.s.P.I.@X{.W.{.K.K.W.wX{.K.H.g.`.`.`. X!.(.{.g.V.s.(.{.tX{.wXI.K.H.K. XK.V.g.L.L.4XrX4XrXMX}.rXnXrXE.L.4X^.^.K.`.4XwXH.{.I.K.V.g.H.s.g.L.H.4X!.8X8X2X2X^.jXXXkXKXKXGXQ.XXxXJX.X}.^.SX_.E.lXAXA.AXQ.Q.lXeXlXrXSX4X!.4X6XnXcX^./.rXcX*X>X<X8XNXcXbXbXbXbXbXgXgXbXbXbXvXfX7XgXbXNXgXNXsXbXvXbXNXbXNXfXfX7XfXfXfXNX7X7X7X8X:X7X5X8X/.L.4XL._.{.P.8.8. .x.p.( G ) X. .S.t.H { e.e.e.x.$.~                                                                                                                                                                                                                                                             ",
"                                                                                                                                                                                              X $ > ; 8 Y Y : e : ; ; ; ; ; : 6 6 7 ; ; @ @ @ ; = 8 e c 8 w c k c Y Y 2 2 3 v ~ E E j k h k h 3 h l l l ;.T Q ' ] $.@.) S.@.S.S.#.S.p.u.{ {  .{ e.h.C.y.8.r.y.Z.f.[.r.I.I.[.Z.Z.P.I.V.g.s.r.P 9.H.W.W.H.H.K.H.{.{.W.!.K.!.H._.(.{.g.s.f.f.P.P.g.I.s.f.f.V.V.H._.wXlXrXnXrXE.^.!.6X8XrX}.g.^.eXK.V.eXAXnX{.W.H.g.wXg.H.g.g.J.J.`.>X}.6XsXsX}.dXjXkXKXKXxXzXXXCXhXKXQ.XX6XFXE.4XSXZXA. XnXV.AXK.nX4X X_.4X_.8X!./.^.<X/.T.~.:XrXMXMXVXbXgXgXfXbXfXgXfXcXfX7X3X1X7X:X1X:X3X7XfX7XsX2X3XfX7X3X7X1X3X,X7X<X9X8X8X,X5X5X,X<X,XL.4X>XL.(.{.r.e.{ %.| ( G H { | B.t.H { p.e.y.e.S.[ 9                                                                                                                                                                                                                                                           ",
"                                                                                                                                                                                              X $ + 5 w w 9 8 8 : 5 7 ; ; : 5 5 ; 6 0 5 ; = @ @ = 0 w ! c c c 9 9 k k 2 h v E l k h h E ^ ^ ! v 9 3 k T l l ;.+.+.&.S.S.| F.S.B.D.#.S.D.{ u.H  . . .r.y.D.[.D.f.y.f.[.8.I.I.I.{.{.P.W.{. X X X(.9.s.8.V.V.V.(.V.`.4X`.`.L.>X}.`.(.{.U.P.Z.f.s.'.{.U.[.W.{.tXlX XL.L.`.K.L.rXE.H. Xf.r.4XnX4X4XAXlXeXV.s.g.g.$XI.s.P.H.g.(.L.J.4X}.}.6X8XvXvXVXmXSXXX.XKXxXG.zXKXG.Q.lX6XK..XeXlXf.tXtXeX X_.nXrX!.L.!.!.*XL./.:X!./.cXsXcX8XNXNXgXfXVXgXVXbXVXcXfX7X7X,X5X/.=X~././.:X/././.^././.,X:X:X/./.:X~.:X!.<X*X*X8X8X5X7XcX<X:X^./.5XK.V.V.Z.h.L |  .| G ..) %.S.t.{ | u.a.r.C.p.$.l                                                                                                                                                                                                                                                           ",
"                                                                                                                                                                                            . o # $ 0 e 9 k 9 8 e 0 : = ; r e ; 8 r e : = = = = 5 8 w ! c 2 2 : - - 2 9 v h h h ~ ^ ;.,.E h < 3 k k k h h j j R / [ [ ) S./ @.t.p.p.a. .F.B.D.a.a.y.r.8.} 8.r.Z.'.'.r.f.Z.[.[.I.I. X{.{.K.W.V.L. XwXK.9.8.V.V.W.K.4X`._.4X4XK.4XW.U.P.Z.P.Z.'.g.P.g.s.g.I.W.s.H. X X4XL.(.E.E. XmXnXAXnXeXL.`.L.K.V.(.(.wXtXs.g.9.U.g.L.L.L.4X/.}.6X8XmXsXJXdXBXdXdXLXhXG.KXZXt.tXAX.XK.eXAXlXA.lXtX[.y.E.H.~.J.J.=X=X<X~.5X8X/.MXcXbXfXcXcXcXcXVXbXgXsX}.3X7XNXcX7X<X:X>XL./.T.~.=XT.~.T.L./.T.^.^.L.L.J.b.T.T.H.~.~.~./.T.>X5X5X<X8X/.>XL.g.4XK.P.f.} u.G | @.n G D { B.e.{ H  .e.Z.e.S.#.;.                                                                                                                                                                                                                                                          ",
"                                                                                                                                                                                            o X + ; 5 e ! E 9 9 e : ; ; : 5 8 8 w 8 : : 5 8 0 0 0 : : : : = 2 2 3 9 Y Y Y h v ~ ^ E Q ^ j j 3 v h v k l E ;.m ' +.[ >.) ( | #.#.#.p.e.#.#.D.a.C.h.[.'.[.y.[.f.r.y.} r.r.e.r.f.I.I.W.W.{.K.tX XL.K.K.K.tX{.f.r.f.r.K.wXL.L.L._.{.s.{.'.f.'.g.g.9.f.Z.g.'.I.(.{.wXwXK.`.K. XnXnXV.(.(.(.g.L.L._.`.L.(.{.{.P.U.s.9.g.s.{.(.H.,X}.!.nXjXrX6XvX2X2XdXGXJXhXhXZXHXB.HX XK.lXeXSXQ.wX X{. Xf.U. XL.).yX8X>X*XyX*X:X,XMXfX3XcXbXgXgXsXgX7X2X1XgXbXgXfX2X:X,X:X!.!./.8X~.*X:X*X7X5XyXcX8XcX8XrX8X5X~.J.T./.H.g.J.b.T.J.!.~.5X5X>XrXrXyX4X X(.9.8.} n %.( ` n H { S.D.{ { { u.a.y.t.p.$.E                                                                                                                                                                                                                                                         ",
"                                                                                                                                                                                          . . X + @ : e ^ Y 9 e : ; ; 5 5 : 8 e 2 2 2 e w y r r 5 : = - - : c ! c Y ! c ! v l h h 3 3 j h v 1 3 < 2 2 3 3 j p p m / $.) :.( &.#.B.t.t.C.C.{ a.B.a.D.[.Z.[.{.[.V.[.I.f.r.8.L r.r.r.V.V.f.V.W.W.{.{.`. XK.`.{.{.K.V.s.g.K.K.L.L.tXH.(.g.g.9.g.g.g.j.g.g.9.s.I.s.K.4XnXAXeX{.W.H.{._.K.wXwX{._.f.H._.L.L.U.U.9.9.g.Y.wXI.L.!./.8XcX8X^.vXkXXXdXFXBXkXXXXXGXAXA.ZXQ..XzX XSXK.{.wXH.wXg.(.L.H.rXrX_.4X<XFX5XcXsXsXgXfXbXbXsXbXfXsXfX3XfXgXbXfX3X7X7XcX:X/.*X~.L.*X8X7X3XNX7XfX7X7X7X7X7XbXbXMXNXcXMXyXMXyX~.!.b.b.g.L.L.4X~.b.)._.).W.{.r.8.} G ( :.` n H { B.C.( H |  .a.e.C.e.:.W                                                                                                                                                                                                                                                         ",
"                                                                                                                                                                                          . . X + + 5 e Y Y Y 9 = : : ; : w w 8 : 8 w e e w e : = : 2 e : 8 c ! 9 9 9 h l h h h j m ~ ^ E ^ v ! 9 C C c h l N j W W M ] / ) ) %.| S.p.p.F.C.C.y.y. .e.r.A.Z.W.[.Z.[.[.[.[.[.[.I.V.f.r.s.g.P.Z.(.K.W.{.{.K.(.`.{.4X_.`.H.V.K.H.(.H.H.V.f.Z.s.s.P.9.'.j.[.{.'.wX{.H.f.r.f.K.(.W.K.K._.E.g.E.H.L.{.(.H.U.U.s.9.'.'.W.U.K.}.4X6X:X}.}.rX6X.XjXhXhXGXXXxXAX XeX XlX[.eXZXtXW.P.{.{.g.s.H.~.L.5X4X_./.rXmX6X7X1XfX7XgXgXgXfXfXgXfXbXfXsX7X2X<X7XbX7X,X^.!.<X<X<XcXNXNXbXgX3X<X7X1X3X1X2XfXfX1X<X*X<X<XT.*X/.=X4X4XR.L.J.T.d.J.T.J.H.U.(.V.'.} H G G x.X.` H o.B.t.( G X. .t.e.C.y.p.' l                                                                                                                                                                                                                                                       ",
"                                                                                                                                                                                        . . O o X + ; ! ! 9 k 2 : ; @ 5 ! w 2 - e 2 c 2 8 : e Y w ! w e 8 : : w Y T Y 2.E Q l ^ E E h h j E v h 3 3 z z C z x N j j m m / ] ) / ) ( ) #.t.B.t.t.D.B.y.y. .{ y.y.A.{.{.K.{.W.K.V.U.V.{.P.f.f.g.s.Z.Z.[.U.wX(.(.4X}.4X>X8X^.>X4X_.{.`.K.V.I.'.s.6.j.s.9.P.s.s.s.g.U.(.U.].H.s.g.K.H.^.>XrX4X X4X{.(.{.[.6.9.j.g.{.I.E.E.^.E.4XE.}.rXmX^.FXeXXXGXQ.zXFXA.GX[.A.I.ZXZX[.V.s.wXW.g.d.b.-XL.4X<X*X7XfXcX:X2X3X3XbX3X3XbXbXbXMXcXbX3X/./.:X7XgXSXcX3X/./.*X*X*XcX9X3X3X3X3X3XfXbXfX7X3XfX/.,X2X3X1X7X1X5X~.!.~.T.J.T.J.H._.^.!.s.L.{.g.n.P.Z.e.( G G z.u.o.} L a.e.{ ( ( #.a.S.e.D.e.@.R                                                                                                                                                                                                                                                       ",
"                                                                                                                                                                                        . . O o X + 7 r c c c 9 : : 5 0 y : 2 c ! w c e w 9 c Y Y k 9 e 2 : w C Y ^ E T l ^ Y l E l h h h j v h < h 3 3 h h p p j m b R M [ [ $.) / %.:.S.#.a.D.a.y.C.e.C.C.[.A.{.V.H.K. XH.{.{.U.I.wXU.U.P.{.f.s.r.r.s.V.U. XH.>X>X>X>X^.!.4X4XK.`.{.I.I.9.j.9.6.6.9.s.P.'.g.{.(.g.d.g.J.L.H.4X4X,X,X,X4X}.4X{.{.g.s.s.P.g.P.U.U.(. X}.^.4XrX}.6XXXFXhX.XFXG.|.GX|.eXQ.B.lXHX X@XP.H.{.U.q.b.{.tX_.>X=X9X7X7X1X:X3XgXfX7X:XfXbXfXsX3XfXcX:X/.*X<XfXNX7X:X:X8X5X*X8X5XNX*X:X7XMXNX2X:X3XfX3XfX7X:X3XsXcX8XfXNX9X9XNX8X5XyX>X5X=X~.=XH.eX4Xb.d.{.].j.f.{ G H { { D.c.0.} D.D.) G | e.#.u.t.D.a.#.[                                                                                                                                                                                                                                                       ",
"                                                                                                                                                                                        . . . . X X 6 5 e Y 9 : = 5 6 6 0 ; 8 c 8 8 8 w e 9 k k k 9 c Y w 8 w 8 2 C z 3 h h h h k 3 3 3 3 3 h < p p N j j j M M M M / n G f D D n J K -.H { H { u.i.D.a.D.C.C.[.V.W.K.K.W.f.r.(.V.W.r.$Xg.g.{.'.g.$XP.P.P.U.V.(._.4X6XrXrX4X6X`. XK.W.s.s.s.8.9.9.s.j.g.U.I.[.g.W._.H.f.{.rXrX8X8XcX<X8XcX XH.H.r.g.r.s.f.I.Z.H.P.{.s.E.}.4X6X}.FXlX.XXXlXB.eXAXQ. XA. XAX XB.$Xf.{.b.9.b.J.(.4XJ.=X!.5XcX8XL.3XfX3X<X1XgXbXbXfXcXfXNX<X^.1X8X8X:X/.,X1XfX7X9X<X,X~.~.*X1XfX7XfX1X:XNXgX7XfXbX3XcXsXfXsX8X9X3X<XcX8XNXcX7X8X9X5X*X!.).R.R.-X{.9.9.j.i.u.D H  .#.D.[.h.L C.D.) G | #.p. .a.a.Z.p.$.T                                                                                                                                                                                                                                                     ",
"                                                                                                                                                                                      . . . . . X X ; 5 e w - - : 0 ; ; 5 5 8 : 5 8 8 c k 9 k 9 9 k k 9 9 2 8 9 < 3 3 2 3 - < h h 3 h l T ~ ;.;.>.2.' 2.>.OX+.S.S.OXS.S.z.oXz.x.-...K G ..o.} H L  .i.e.r.Z.e.Z.$X{.tXH.U. XK.{.I.U.V.U.U.'.I.g.V.W.(.W.g.K.H.wX`._.4X`._.rX}.`._.V.W.f.I.9.s.s.@XI.P.{.V.(.r.W.(.g.L.nX4X4XjX}.6X^.<XK.^.!.H.s.[.s.P.Z.s.{.V.U.(.f.W._. XnXeX6XAXSXeX`.eX|.eXQ.[.[.ZXeXW.$XAXr.P.9.s.Y.Y.tX4Xg.!.J.8X,X!./.bX8X2XvXbXNX7X3X7X3XbXvX<X~.<X9X<X~.8XcXyX:X8X8X8X*X~.,X~.7XbXfX3X:X3XfX7X0XgXfXfX3XbXNX8XcX1X:X1X<X:XT.*X:X/.1X<X8X8X5XL.T.J.-X4XR.q.6.i.} H | H  .D.$X@X8.e.D.{ D H u.#.p. .y.C.S.&.Q                                                                                                                                                                                                                                                     ",
"                                                                                                                                                                                      . . . . . o X + ; 0 e 2 e 5 5 @ ; 0 r 8 : : : ; 9 9 9 k k Y Y k 9 9 9 9 Y Y k h h h l E E Q ;.' ;.;.;.;.' ] / >.>.) [ @.@.#.B.p.t.t.C.B.e.oXoXS.S.D.y.e.y.h. .} } L } } D.I.{.U.{.P.W.U.I.r.U.U.g.[.f.P.(.E.K.(.H.V.H.H.H.L.9.L.E._.rXE.FX4XW.K.g.r.g.Z.'.I.U.{.wX(. XwX X`.6XE.K.K.rXE.8XMXvXjXjXrX4XU.U.f.P.f.V.$XH.I.U.V. XA.ZXwXeXmXE.}.FXzX.XeXZXlXA.AXeXI.V.ZXZ.r.f.g.H.wX{.wXd.b.J.~.5X_.:X8XMX2XsXSXsXbXvXcX3X3XVX7X2X/.8X8X8X<XcX=X!.T.yX8X:X!.*X*X7X7X3X7X1X3XfXfX7XfXfX0XgX0XcX3X7XcXcX!./.J.J.T.~.~.~.T.>X5X,XyX8XcX4X5XT.g.R.'.s.P c.H {  .e.f.W. XZ.e.S.{ G G  .{ p.e.h.C.C.S.;.k                                                                                                                                                                                                                                                   ",
"                                                                                                                                                                                    . . . . . . . + + 5 e w w e : ; @ 6 0 5 8 0 5 8 8 Y Y ! ~ ~ 9 - 2 ! Y ~ ~ ^ E l h l l ^ ;.^ T ;.Q Q Q ' R T / _ _ / *.$.) ) &.&.S.p.D.C.D.C. .e. .y.A.I.V.A.I.'.@XP.j.h.j.9.s.g.U.[.{.{.I.(.wXs.I.U.9.U.g.V.K. Xf.f.H.g.g.(.K.W.(.g.V.`.K.eX4XV.I.V.I.P.f.'.I.[.V.H.K.E.s.^.E. X6XK.}.6XmXvXMX8X8XjX XL.W.P.g.g.{.g.V.P.s.r.I.K.W.wX`.`.SXjXV.6XA. XI.$XeX$X$XV.W.ZXU.r.r.s.H.tXY.J.J.T.T._.}.^.6X2XMX}.sXjX}.vXcX8XfXbXbX:X:X/.8X>X>X=X*XT.~.>X5XrX/.*X<X:XcX7X3XbXVX<XfXgXgXcX7XgXfX0X1X1X1X7X8X,X/.*X1X*X~.,X5X~.T.b.b.T.:X:X*X<X:X8X4XJ.4.@Xk.8.} e.a.C.f.B.Q.{.e.z.( H ( ( %.{ a.r.Z.y.p.+.E                                                                                                                                                                                                                                                   ",
"                                                                                                                                                                                    . . . . . . . X # 7 e w w : ; ; = 0 : : 8 w e 8 0 w c c 9 9 h 2 9 k 9 h 9 h k h h v c x h v ~ N h h p x N N m j _ m B j =.B _ ] ) :.p.S.B.F.B.I.[.y.B.f.I.{.{.[.{.{. XW. XK.(.V.g.U.f.V.I.s.g.I.P.g.f.H.s.s.g. XE.eX(.W.W.(.K.`.`.4XwXwX4X{.V.{.H.s.9.[.@XP.U.{.(.E.4X`.4X4X.X}.6X}.6XFXjXVXMXjXvXrX!.lXH.W.(.I.P.Z.g.'.f.I.V.V.{.rXrXeXQ.W.rX6XeXA. XZXZX$Xy.AXI.P.s.s.g.f.@XwXb.b.H.J.!.T./.jX:X8XvXjXkXkXvXdX<X:X8XsX,X,XcXrX_.8X=X!.T.5X8XnXcX/.~.:X7X3X7XfXfX0X1XfX3X3XfX:X<X7X:X<X1X9X3X,X7X:X3X8X<X3XcX:X<X8XyXcX8X*X!.T.8X,X<X<X>XrX(.P '.i.8.} h.D.[.V.V.[.y.e.( H ( | | e. .y.r.a.B.:.Q                                                                                                                                                                                                                                                   ",
"                                                                                                                                                                                    . . . . . . X X + ; 0 w w 2 : 5 ; 5 ; 8 w w e : 8 8 e w 3 3 - 9 c < 3 9 3 h h x x x Z x p x u < 1 p u 1 p 1 p 1 1 j a j V B =.=.` G ) #.B.p.G.I.A.A.A.Q.V.I.V.[.K.W.K.f.`.`.H.I.V.P.P.9.{.U.I.I.'.'.Z.g.g.P.I.K.{.{.g.W.eXH.yXE.(. XW.K.f.V.H.g.f.s.g.s.s.g.g.I.K.`. X!.rXAXSXAXmXmX6X}.sXjX<X^.E.6XL.(.g.g.g.f.[.{.P.g.f.f.V.eX XeXK.V.tXAX X6XE.Q.ZX{.Z.V.ZX[.[.f.s.g.g.wXU.q.H.H._.b.=X<XrX>XvXVX^.sXVXdX^.kXSX<XsXvXNX<X<X*XrXL.!.~.yXrX<X5X!.!.8X,X1XbXgXfXfX7XbXgXfXgX7X1X1X1XfXbXcX3XcXfX:X/./.cX*X7X3XbXfXcX7X<X<X8XcX5X:X~.~.8X,X4XrX{.9.Z.P H h.[.W.r.B.B.y.{ X.G X.|  .e. .h.r.C.D.S.;.l                                                                                                                                                                                                                                                 ",
"                                                                                                                                                                                    . . . . . . . X $ ; 0 e w e w 8 = : 8 8 e : ! e 8 8 2 q 2 z 8 3 3 h v Y l k j m N E W p T j m b Q / R R b m j m 1 1 u p u u i n =.*.` ( %. .#.t.C.D.[.y.W.I.{.A.V.I.V.wXI.f.{.I.V.g.P.g.8.9.s.I.{.Z.f.@X'.P.P.g.P.I.{.U.(.(.K._. XE.nX(.K.FXH.H.U.s.j.s.9.g.s.s.V.H.}.}.E.}.}.`. X}.lX6XmX6X8XjX8X>XV.tXU.K.{.V.wXI.f.8.{.9.ZXW. XV.W. X$X[.K.4X`.lX$XW.$X[.g.'.9.6.P.[.wX'.7.J.J.4XL.>X>X8X/.vXsX8XSXBXQ.dXFXjX}.MXmX8X:X:X_.4X!.!./.yX8X8X,X/./.cX3X1XVX7X3X7XgXgXfXgX7X3X7X}.gXMXfXcX9XNXcX!.sX7X7X<XbXcXgX3XfX1X7X:XNX9X8X:X8X<X:X!./.8XcXrX4X9.} } r.+X$XA.y.y.C. .x.D ( x.{ p.e.y.r.Z.a.D.) T                                                                                                                                                                                                                                                 ",
"                                                                                                                                                                                  . . . . . . . X X # $ 8 8 e e w w = = 0 e 8 c Y 8 8 2 2 2 < 9 9 9 k k h l E j j T R ;.l >.' >.>.$.$.>.S.S.OXS.OXS.S.OX+.>.$.] M i u u f d G H (  . . .e.Z.I.Z.[.A.P.Z.P.s.Z.Z.K.[.(.V.{.{.wXwXP.9.r.s.'.r.P.6.P.$X[.wXW.H.(._.!.E.4X`.FXW.{.[.U.[.s.[.g.'.'.P.P.H.H.K.`.rX4XAXjXFXrXhXA.hX6XdX6X}.nXmXrXeXL.g.I.P.'.9.f.$X6.[.W.r.V.eXFXV.[.A.4X XwX X$X X[.r.wX9.d.'.U.ZX'.6.R.(.wXJ._.4X^.}.mXcXDXVXjXBXSXBX.XdXSXjX^.cX<X4X^.4XJ.5XAX8X5X8X/.:X7X1X<XbXbX:XfXgX3X<XfX7XfX1X:XbXcXcXbX9X:X*X/.MXbXSX3XVX8XcXfX7X7X3X8X9X7X/.,X<X9XcXcX8X<X/.:XcXrX{.P L r.D.@XC.e.{ e.t.:.H ( x.u. .e.r.y.y.a.S.x.Q                                                                                                                                                                                                                                                 ",
"                                                                                                                                                                                  . . . . . . . X X + ; 6 5 e e ! 8 - : 8 e e e 9 : 8 8 8 : 2 9 9 E E l T T T Q R +.+.[ [ [ +.[ +.&.$.&.&.@.&.@.&.B.&.) 1.S.&.F.S.D.D.p.| H { { H D L } { H } e.8.y.y.C.8.Z.r.V.f.U.H.{.P.r.r.[.[.@Xs.8.s.g.'.f.s.P.9.$X{.{.{.!.}.^.4X`.E. XU.tXU.wXg.'.9.s.g.g.H.H.W.L.`.6XrXeXFXAXeXE.nXmX6XjXjXV.KX^.K.H.W.W.P.r.P.P.'.8.[.I.V.{.wXW.V.V.V.FX4X4X4XV.$XW.r.$Xs.s.].tXqXg.9.U.R.).J._.4X/.8XmX8X8XSXmXmX6X6XkXDXDXmX^.mXrX_.!.rXL.4XMX>XNX<X:X3X7X,X3XVXcX3XgX3X3X3XfXfXfX3XbX3XgXfX7X<X:X1X:XNX7XMXbXfXNX7X8X3X<X*X/.4X!.4X<X*X8X<X*X5X8XL./.*X!.:X{.k.L L e.D.D.}  .{ D.o.X.(  . .{  .e. .r.y.B.p.&.E                                                                                                                                                                                                                                               ",
"                                                                                                                                                                                  . . . . . . . X X + 7 6 5 8 e c - 2 e 2 e w 8 8 : 9 k k 9 k Y ~ Y T T Q Q Q Q [ [ +.+.+.+.) $.&.+.[ ) $.&.S.&.S.p.S.#.S.B.t.#.t.t.#.B.D.D.C.D.z.x.u.} } }  . .} L h.8.h.f.f.I.I.[.V.g.I.P.g.V.g.wX[.g.I.f.9.9.f.f.s.'.g.g.H.`._.L.^.4XL. XlXwXH.U.AX9.s.'.g.{.[.{.W.K.E.`.K.eXwXE.nXjX.X}.6X6XjXE.}.eXs.f.wXK.s.s.9.r.f.{.'.[.I.[.Z.AXV.K.AXQ.f.4XW.ZXW.Z.tX[.s.n.tX].g.b.U.g.-XJ.4X_.>XcX6X:XMXjXjXmX.XmXFXFXKX6X}.KXrX4XL.4X~.5X4XcXMX!.,X2X:X,X7XSXfX<X:X1X3X3XfXgX3X3XgXgXbXfX3X:X3X/.*X<XfXfXfX7X8X,X7X8X*X*XJ.T.L.T.!.T.~.L.*X<X~.4XrX-X~.<X/.V.[.9.} r.8.D. .{ { t.z.X.| #.e.e.8.a.e.a.y.a.a.@.Q                                                                                                                                                                                                                                               ",
"                                                                                                                                                                                . . . . . . . . . . X * 7 ; 5 e e : 8 8 8 e 9 e 2 9 k Y Y Y Y Y T Q Q Q Q T T ;.+.+.R +.[ R [ +.+.+.>.+.[ ) +.:.X.:.o.p.S.S.B.B.t.C.B.a.B.e.y.y.a.S.a.D.Z.C.r.r.r.r.8.h.c.i.8.8.8.Z.P.g.P.[.P.P.[.{.H.P.g.f.Z.g.f.r.r.P.P.V.W.(.4XL. X`.f.H.f.W.U.(.s.{.g.W.{.P.f.(.H.g.rXeXjX`.6X4XA.4XjXeX4XE.rXeX!.V.4XwX{.9.9.Z.r.r.f.I.I.Z.f.g.I.r.{.tXs.V.`.AXW.{.P.HXr.s.g.tXY.g.U.s.(.{.T.>X_./.>X>X>XSX>X6X6X^.zXGXkXzX.X^.FXnX>X^.5XL.rX5X4X>X^.nXsX}.7XVXSX7X/.,X8XfXgXsXfXgXfXbXbX7XfXcX:X<X1X*X:X7X1X9XfX,X:X/.L.~.:X!./.<X,X<X~.8X>X~.J.J.H.).).-X5X/.L.V.g.'.L }  .z.x.{ H | oXo.{ u.S. .e.e.e.e.y.a.C.#.R                                                                                                                                                                                                                                               ",
"                                                                                                                                                                                o . . . . . . . . O X * $ 7 5 e 8 : 8 0 8 w w 8 2 k k Y k Y Y Y ^ T T Q T Q Q l h R T Q >.j ] m [ R ] ) ) $.[ ( G H X.x.u.#.S.#.a.F.+Xa.C.e.a. .e.Z.Z.A.B.A.I.Z.Z.f.8.8.8.i.h.i.s.9.6.s.f.'.P.@Xg.$XU.{.$X{.I.V.f.f.f.P.H.g.(.H.(._._.AXnXH.wXV.g.L.{.s.H.s.wX[.g.U.H._.!.`.nX_.rXFX6X6XrXjXSXjXnXnX{.nXwXtXI.f.9.Z.8.Z.'.P.s.Z.A.{.FXf.tXr.I. XAXE.eX{. X} 9.[.wXqXY.(.d.g.{.H.-X=XJ.rX/.4XSX}.^.jX}.KXmXGXFXXX6XLXrX^./.>XT.MX5X^.}.jX8XjX>XVXcXsX<X^.,X3X8XfX7XgXfXgX3XfXfXVXMX7X*X1X~.<X*X<XcX3X~.1X/.:X7X:X5X9X<X:X7X3XcX:X5X5X4X!.-XJ.b.J.H.rX).{.s.9.8. .8.u.x.{ G &.S.| { i.C.a.e.p.u.p.e.C.B.S./ E                                                                                                                                                                                                                                             ",
"                                                                                                                                                                                O . . . . . . . . O o * $ ; ; 5 : : 8 w w e w 8 9 ! k k Y k k Y E Y T T l T Y j l x N p b N m W _ / ' / M M R [ ( { { G | ( #.p.#.#.B.a.B.e.D.D.D.y.A.A.[.A.I.[.I.Z.[.[.Z.f.8.r.j.k.P.f.j.s.g.f.{.(.{.I.I.H.{.W.U.K.P.s.s.f.{.H.U.H.L.L.{.H.(.L.E.4XL.U.s.s.H.U.g.g.(.V.K.4X4X X4X}.mXmX2XSX^.4X}.K.V.L.U.g.s.r.f.[.Z.h.h.i.s.Z.f.{.s.tXV.P.H.tX XK.K.lXf.8.Z.@XU.d.b.b.(.{.{._.L.>X8X~.8XnX>X^.SX}.SXzXKXkXXXGXAX}.Q.}.:X!.4XrX5X4X^.MXjX}.6XmXsXsXE.}.>XSXcX3XsXgXbXfXgXbXfXgXfX/.1X*X5X<X<X8X1X<X1X<X1X7X3X:X<X1X7X3X<XfX1X7X<X7X<X8X*X8X~.T.T.L.(.{.{.s.8.} i.u.x.D H | %.( ( e.e.D.e.e.| u.e.e.D.a.$.T                                                                                                                                                                                                                                             ",
"                                                                                                                                                                                . . . . . . . . . . . & $ 7 ; ; ; w : 8 ! e : e ! ! w 9 Y 9 9 Y Y 2 9 k 9 9 k 9 3 z z z x x j j b m m ' ;.+.>.>.[ M ] >.) :.$.( ( | | t.e.D.D.e.C.y.Z.e.y.A.V.[.W.{.V.V.V.{.{.r.r.r.9.s.g.P.P.8.g.$XW.s.K.wXg.eXwX[.tXP.H.f.P.g.].(.4XL.4X4XwXH.4Xg.(.L.[.{.U.H.U.I.V. XE._.4X4X6X8XjX6XnX6XjX6XE.`._.K.H.wX{.[.Z.s.i.i.i.'.8.f.Z.[.K.V.f.{.{.W.nXE.K.r.8.$X$X[.g.s.H.L.L.L.4X=XT.<X*X/.cXMX^.hXdXjXSXhXhX.XBX.XzX}.2X,X/.<XcXMX/.,XmX8X2XjX6X<XvX<X8XrXjXjX:XfX7XbX3XbXgXsXbX3X1X1X*X1X9X8X1X1X0XfX7X3X1X7XfXbXfXbXfXfX7XfXgX3XfX3X7X*X3X1X8XL.J.T.J.J.tX'.6.L D.oX{ H D { %.#.{ a.h.C.y.e.#. .e.e.Z.C.:.Q                                                                                                                                                                                                                                             ",
"                                                                                                                                                                              . . . . . . . . . . . . X X $ $ ; : : 2 ~ ! - 9 c w 2 e w e 8 0 5 : : 5 8 8 2 : : - 4 4 < < < < 3 h k k l h k l T m ' _ ' >.S.S.| G ( G #.( ( u.z.C.B.Z.[.y.A.r.A.I.A.K.K.f.W.K.{.V.P.s.P.r.s.U.{.g.V.W.eX{.wXW.tXP.[.g.{.g.P.s.g.s.W.{.4XAXrXV.4XL.s.g.[.P.g.@XP.[.U.H.g.(.(.`.4X8X2X}.V.E. X XlX}.`.AXFXtX{.[.'.r.r.P '.r.s.ZX8.[.f.g.s.f.K. XwXZXV.r.{.[.@Xr.9.g.K.b.4XH.4X=X~.}.8X,X8XSX}.XXDXXXBXjXMX}.mXGXzXkX}.:X~.<X8XcX/.8XMX2X2XsXsX}.FX}.6X6XhXFXsX8XfXfX7XsXvXbXbX7X0X1X*X1X7X1X7X1XfX1XgXfXfXbXgX3XgXgXgXbXfXgXfX3XfXbX7XfX3X1X9X:X5X=XL.T.b.g.'.j.L h.+Xz.H D X.X.o. .e.C.y.D.e.e.{  . .Z.y.z.[                                                                                                                                                                                                                                             ",
"                                                                                                                                                                              . . . . . . . . . . . X X # $ > ; : : ! ! 9 9 c ! e 2 e 8 5 = ; @ ; ; ; ; ; = = = - = = - < < < < 3 < 3 h h k h h l b j / / >.@.x.p.#.| G { H {  . .y.y.D.Z.Z.[.A.V.K.K.W.K.V.W.V.{.W.W.V.{.U.r.g.s.V.U.W.f.f.{.{.{.H.ZXg.g.P.U.d.9.W.s.{.4XrXL.4XAXU.g.f.g.s.g.8.s.9.H.f.g.H.H.E.^.6XjXnXnXeX4XnXnX6XE.V.K.f.A.Z.f.s.s.s.f.{.9.+Xr.r.s.6.wX4X XwX[. .A.I.tXZ.8.P.U.q.-XJ.4X_.*X5X:X}.6XmX6X.XhXXXKXhX}.SXFX.XhXKX^.vX/.^.<XcX^.}.cXjXjXMXMXsXMXE./.nXhXkXdX2X,XbXfX7XgXbXdXvX7X1X3X1X0XfXfXgXfXbXfX3XgXbXbXgXbXgX<XgXgXsX3XsXfX3X}.3X1XfX3X:X1X:X1X~.>X_.b.g.6.L e.D.p.H G -.:.( { e.a.C.C.e. .{  .e.y.D.p.$.j                                                                                                                                                                                                                                           ",
"                                                                                                                                                                              . . . . . . . . . . . X . # # 7 ; = 8 ! ! - : w 2 : ; 5 : : = = = = = = = = = - : 3 h E E E ^ ,.=.~ x p 3 s z C v x j m M R [ [ S.p.S.S.D.{ S.{ u. .e.a.C.D.B.Z.I.f.I.I. XI.W.I.K.H.(. XK.{.{.{.U.H.s.K.U.[.{.V.{.g.wX6.{.wX{.g.U.H.s.g.{.{.{.tXrXs.nXg.U.g.{.Z.P.P.P.7.g.H.s.H. XnXjX4XeX4X4XK.E.`.E.E.`.eX XlXP.s.i.j.f.9.I.s.h.9.f.r.@Xg.AXAXW.V.f.iXtX9.s.wXwXd.H.{.!.4X>X^.cX,XsXMXmXQ.6XzXGXXXdXzXBXXXFXBXGX}.6X!.8XNX/.,XjXmXkXjXjXkX2X8X6X>X}.KX}.jX<XbXMX7XgXVXsXvX3X1X0X3X1X3X7X<XVXbXsXsXVXVXgXVXVXvXgXgXsXgXbXbXbXfXvXvXfXfXfXfXfX*X3X3X:X5X~.`.{.'.L } a.a.H f H %.( { e.Z.y.D.#.u. . .e.e.Z.S.$.T                                                                                                                                                                                                                                           ",
"                                                                                                                                                                            . . . . . . . . . . . . . . # # * ; @ 8 Y e 2 w c : 8 5 5 ; : ; ; : @ @ = : c ! Y k E ;.;.;.T Q ' E m a j p p 1 p p 1 a a a b b [ ( p.S.z.u.#.{ z.D  .t.{ y.Z.e.Z.Z.V.I.I.{.V.[.K.I.W. XW.(.{.U.I.{.{. XV.r.r.I.H. XI.tXH.g.@X{.{.P.g.{.L.s.s.4XK.g.wX(.g.tXwXg.[.Z.j.s.j.s.H.g.{.U.V.`.`.s.K.K.f.K.4X!.^.E. Xf.K.ZXf.i.P I.I.f.r.P 9.'.r.@X X4XK.V.{.@XwXg.s.W.U.d.U.L.-X=X>X_.nX8X:X<X6XdXFXGXKXlXXXmXBXxXKXBXSX6X/.:X}.8X}.jXjXjXhXkXDX.XhXDX6X<XjXcX}.8X8XsXsXbXsXsXbX3X3X3X9X1X0X:X0XgXVX3XsXsXsXgXvXVXVXVXvXvXvXgX3XVXbXgXVXsXbX7XfXsX7X7XcX*X3XbXrX4X4XV.I.9.} r.D. .G G x.| ( e.a.C.a.e.#. . .8.r.C.D.&.Q                                                                                                                                                                                                                                           ",
"                                                                                                                                                                            . . . . . . . . . . . . . . o * $ $ ; 6 w : e ! 8 8 w 8 5 = = @ = = 5 e c ! Y c c l W Q _ ;.;.+./ ' +.+.>.>.1.$.>.>.;.,._ $.) $.( G G | | u.p.D.u.e.e. .e. .e.y.e.C.A.I.Z.I.I.f.[.V.W.g.W.wXK.W.{.W.W.I.{.W.(.g.g.g.g.g.].(.{.wXK.H.b.H.L.(.{.(.H.{.4XH.tXs.{.g.'.s.9.9.9.s.j.r.s.H.V._.tX X`.4X_./.4X}._.4XnXAXyXf.j.9.'.Z.[.8.9.'.'.r.'.I.W.K.K.{.AXZ.9.s.].qXs.L.J.4X_.4X~.4X,X/.cXSXkXhXzX6XAXhXkXkXGXDXBXDXcX6X}.4X>X>XjXjXkXhXGXGXaXFXmX4X}.jX}.mX<XvXcX2XvXsXsXgX3XfX0X3X<X1X0X7XfXbXsXsXvXsXgXvXgXvXVXVXkXvXsXvXVXvXVXbXvXvXbXbXfXbXfX1X7X7XfX1XrX>X5X4XU.r.L  .S.#.( G $.( H e.y.a.t.#.{ {  . .y.Z.C.B.[ T                                                                                                                                                                                                                                         ",
"                                                                                                                                                                            . . . . . . . . . . . . . X o * $ $ 7 6 5 : w w : 8 w 5 ; = ; = 5 0 0 w ! c 3 2 h ~ j m R ' ;.] R [ +.[ ) ) @.&.&.>.] ] ] ] X.:.%.S.p.| { { {  . .e.a.a.C.y.y. .e.y.e.y.A.A.I.V.I.V.f.V.H.W.H.K.{.g.K.{.{.H.{.W.-Xg.H.L.9.g.(.].L.{.H.{.g.J.H.(.L.L.L.H.wXr.s.@Xs.6.s.j.9.j.9.j.'.g.g.s.s.K.K.4XnXrXmXAXMXrX!.!.!.f.j.h.[.f.Z.r.'.i.i.'.'.(.V.K.lXZXf.g.P.g.{.g.H.(.4X!.5X/./.nX}.2XVX6X.XKX.XFXAX.X6XzXDXhXzX.X}.}.>X6X,XFXjX6XFXzXzXzXLXhX.X}.mX}.mX6XsXvXsXsXgXvXbXsXsX3X9X*X0XNX3XgXsXgXVXbXvXgXVXVXvXsXsXvXBXvXVXgXbX2XVXVXsXgXfXsXfX7X1XfX7XfX0XfX8XyX,X<X_.r.6.} a.e.{ M $.| G #.C.r.a. . .(  . .C.A.Z.B.) Q                                                                                                                                                                                                                                         ",
"                                                                                                                                                                            . . . . . . . . . . . . . . # * * $ $ 5 = e ! e 9 9 Y 8 8 e w w ! ! ! e 2 < 3 9 9 3 3 j N m T Q R M [ / R [ ) $.$.[ ] / ] ( ) ) %.oXoX#.S.e. .y. .{ C.e.C.h.a.Z.r.C.e.8.r.f.r.P.f.Z.I.P.f.W.(.K.4XK.L.E.(.L.U.{.H.U.wX4X(.L.T.g.L.{.(.H.-XyXtXH.{.L.L.L.H.W.s.'.P.P.k.P j.9.'.P.'.'.{.tXAXnXAXrXrX4X5XH._.E.6XnX4XwX8.'.s.I.r.r.0.P 9.P.K.9.eXAX$Xf.P.s.P.tXK.s.wX!.L.5X_.^.}.8X2XVX6XzXhXGX.XxX.XGXGXDXkXKXdXBX6XjX4X}.lXLX6XhXKXGXGXLXzX.XAXQ.}.>X6XhXjX6XvXvXvXvXsXsXfX1X0X9X0X3X3XbXsXbXgXsXgXgXbXgXVXVXvXVXVXvXVXgXVXgXgXvXbXgXVXgXcX3XMXfX7X7X3XgX<XyX3X8XL.(.9.} 8. .{ n ( #.G p.a.C.e.u.| { {  .h.f.Z.t.&.[                                                                                                                                                                                                                                         ",
"                                                                                                                                                                          . . . . . . . . . . O . . . . # $ 7 $ 7 ; ; 8 w 8 2 9 ! 9 w ! ! e e 8 : - < 3 c c h 3 E l l l l T T j m m b M R X.) / $.$.M ( G ( | &.%.oXF.S.e.y.B.y. .a.a.C. .D.C.f.D.C.y.r.r.r.A.V.g.[.[.V.H.H.V.W.`.(.g._.J.).{.(.g._.4X4X).(.d.b.(.-XL.J.L._.(.wXH.{.I.{.g.j.qX'.s.9.9.k.9.s.s.s.s.g.{.rX_.nXrXL.8XrXnX`.L.g.`.W.+XZ.'.r.8.h.i.0.h.f.9.E.6XE.[.Z.9.f.P.g.{.U.T.!.rX,X}.6X6XKXE.6XkXXXBXkXXXGXxXGXGXDXDXFX}.vX}.SXE.AXGXAX6XzXKXzXzXzX.XFX.X6X6XrXlXGXhXdXFXDXDXvXgX7XfX1X8X3X:XfX2XVXvXvXVXvXbXbXgXVXbXgXgXVXgXsXsXvXsXgXbXsXvXbXcX7X7X7X3XfX7X7XgX<X8XT.3X8XrXV.g.8. .x.x.( / ( G p.D.C.a. .| H H u.e.Z.A.C.t.+.Y                                                                                                                                                                                                                                       ",
"                                                                                                                                                                          . . . . . . . . . . . . . . X # * $ + 7 @ ; e e 9 9 Y k 9 9 c c c 2 : : < 9 ! 9 h v h 9 h 2 h j m ;.' Q R b M _ G _ -.( ) :.$.| n (  .( p.a.F.#.B.#.B.{ t.e.Z.D.y.a.[.D.I.Z.'.8.r.e.Z.f.f.V.[.W.K.H.W.4XH.4XL.H.L.`.(.4X!.!.T._.!.L.L.H._.!._.eXL.(.H.g.wXH.g.9.s.r.k.q.6.9.j.9.P.s.g.U.I.L.!.4X!.g.^.H.T.J.FXnXH.H.{.P.f.Z.9.h.6.0.i.8.9.eXK.4XK.$X9.s.A.I.{.U.W.L.!.4X^.6X^.mX.X6XDXXXmX6XhXXX.XGXxXFXBXMX8XcX6XjXdXK.6XSX.XXXKXXXhXFXXXBXSX}.}.6XnXlXhXaXCXDXKXSXsXNX9X<X:X2X6XkXmXsXVXcXsXvXvXvXVXbXbXbXvXbXbXgXgXbXsXbXgXsXfXvXMX2XbX3X7X7X<XfXfX3XfX3X7X:X:X5X_.g.8.L D.z.( ( :.( u.a.a.p. .X.H (  .r.f.A.C.a.$.Q                                                                                                                                                                                                                                       ",
"                                                                                                                                                                          . . . . . . . . . . . . . X X # 7 7 $ $ + 7 0 2 c k l 9 Y k k 9 9 h 9 9 h 9 c v h ! 9 k 2 k 9 Y ~ j ,.' ;.2.M b n >._ :.:.%.| %.S.&.( G ( S.t.C.F.B.t.Z.e.e.e.e.C.a.e.C.y.Z.[.I.{.y.f.f.f.f.I.[.I.{.H.L.`.L.L.`.J.>X!.^._.!.4X=X^.4X_.b.!.!.L.!.AXeXT.(.b.9.g.9.g.'.9.'.9.'.s.j.s.Z.g.H.L.L.4X4X^.>X_.4Xg.L._.L.L.AXU.Z.Z.s.9.P i.0.} 9.8.E.6XFXwXf.r.j.Z.Z.[.W._.H. X4X6X}.mXmXQ.kXkX6X2XjX6XzXFXFXGXmXmX7X8XMX^.KX.XXXmX6XSX6XGXhXGXBXdXFX.X}.8X6XMXhXKXGXJXLXDXdXcX1X9X:X6XXXBXDXkXBXkXjXVXCXdXgXgXgXVXgXVXfXvX2XVXsXgXsXbX3XVX7XvX7X7X7X9XfXfX3XbXbX1X3X1X3XcX8X5X(.s.L D.e.( G X.( #.a.a.a.{ { G (  .e.f.Z.C.B.S.^                                                                                                                                                                                                                                       ",
"                                                                                                                                                                          . . . . . . . . . . . . . X X # 7 > $ + + ; 5 e ! 9 3 k Y j k 9 h Y Y v v Y h l h h 9 9 c c 9 3 h l l ^ R Q ;.OX[ / ) ) @.&.S.@.( ( #.| | #.t.y.y.Z.[.y.y.C.Z.D.a.r.r. . .Z.f.Z.Z.V.[.f.Z.f.s.V.s.g.(.(.`.L.!.!.L._.^.^.^.rX>XL.5XH.L._.>X_.!.4Xg.L.wXtXtXY.wXs.P.s.'.k.P 9.s.j.f.g.H.I.L.`.L._._./.>XmXSXrXH.(.{.{.s.s.f.6.P 0.0.6.8.8.tXrXeX`.W.P j.f.[.{.V.wXE._.`.>X}.jXmXkX}.SX}.SX2X6XjXXXLXkXkXVXcXK.cXcXjXFXXXQ.SX.X.XBXkXhXGXhXmXK.}.2X}.rXSXGXKXCXKXJXBX}.5X5X*X/.Q.kXKXDXBXDXJX.XzXJXBXBXDXVXvXfX2XbXsX2XsX7X}.7X7X8XE.MX8X:X:X:X:X3X1XfX7X3XfX7XgX<X8X8X,X4XP.}  .S.( n ] ( | a.a.e.{ H H H | e.y.A.B.C.S.'                                                                                                                                                                                                                                       ",
"                                                                                                                                                                        . . . . . . . . . . . . . . X X $ > $ + X $ $ 6 w w 2 h E l l l l l Y E l ^ l E v j l h ~ q c z 3 3 3 h E E m R m R / M [ / ( $.x.S.:.| #.| S.t.B.C.e.y.[. .y.C.Z.[.Z.r.h.y.C.f.[.Z.[.[.I.P.P.I.g.f.r.V.H._.4XL.!._.L.>X^.8X8X4X_.>X>X4X=X/.!.!.>XrX4XL.L.U.U.g.qX9.9.9.s.k.'.6.9.f.'.P.W.(.4XwX4XH.!.>XL.!.4XH.U.b.[.'.j.} 9.9.i.F i.8.D.$XK.K.tX8.9.9.I.I.f.W.{.E.eX}.^.SXnX6XSXK.FX}.}.MXmX6XFXjXkXSX6X}.cX6XjXFXhXXX6XkXhX6XhX^.FX6X6X^.>X}.}.jXMX.XKXKXGXGXCXGX8X8X*X<XE.zXXXaXJXXXDXJXdXdXGXdXDXBXdXVXsXsXfXcX2X8X3X7XcX2X,X/.<X<X,X/.:XcXcX7X3X,XfX3XgXgX7X8X3X8X5XK.9.} S.( M _ ( | e.S. . .D ` G { #.y.Z.y.a.p.+.k                                                                                                                                                                                                                                     ",
"                                                                                                                                                                        . . . . . . . . . . . . . . . X $ 7 % # X # $ 0 8 8 l Q ~ k l l Y E k E E j N E E ' l j h h 3 1 3 3 - 3 x p 3 ~ W =.W M / $.>.] [ ) | ) ) #.( p. .C.D.+XD.A.y.B.y.a.@XZ.8.y.e. .Z.I.[.A.[.{.g.I.f.Z.[.U.V.V._._.!.!.4X}.E.>XE.rX8X4X}.jX/.<X8X_.H.H.4X_.eX(.H.g.P.s.j.9.9.6.9.s.Z.g.g.s.g.{.{.H.`.!.!.4X_.H.L.L.H.g.g.j.} 8.8.8.i.0.h.P.[.A.tXAXV.} r.P.I.W.K.wXE.SXV.E.eX6XmXjXjXjX6X6X}.KX2XhXkX^.DXMX,X}.sX6XvXmXhXXXeXE.mXlX}.jXjX6X6X4X^.jX}.mX.XGXJXxXGXGXDXdX8X/.<XJ.Q.FXKXxXDXkXaXxXBXxXJXBXkXvXdXsXsX7X}.2XvX^.sX/.L.4X>X4X5X6X>X_.7XH.7X7X7XNXfX3XfXgX7X1X:X1X/.eXZ.H e.x.n G ) | e.S. . .n G G )  .y.Z.y.y.p.) l                                                                                                                                                                                                                                     ",
"                                                                                                                                                                        . . . . . . . . . . . . . . X X $ * $ + # X $ t 5 k ^ Y E j E k l Y k l T l m W ' m R l m N m j x x p 1 < p 1 1 h 3 p W / / M [ G [ ( | x.) z.#.#. .e.+X[.Z.y.e.y.C.Z.D.D.y.8.C.h.Z.f.@XZ.U.V.P.I.I.U.[.H.H.K.(.`.L._.4X^./.8X8XmX8X/.8X>X>XcX}.rX>X>XL.!.{.J.J.s.s.r.P.j.P.j.s.9.s.f.Z.U.s.H.(.H.{._.4X4X5X4X!.{.[.'.q.0.} } r.} 8.s.9.tX8.$Xf.P.L 9.[.V.{.V.AXV.eXA.Q.FX}.6XjXE.E.8X>X}.6X6X4X}.MX6X/.6X}.}.}.dXGXjXAX}.mXSX}.E.nX^.E./.^.6X}.mXK.kXxXaXxXzXFXkX2X>X5XL.!.LXzXGXkXCXBXGX.XkXJXBX6XkXvXMX8X}.}.!.SX^.}.!.8X!.5XL.4XL.6XrX4X!.8X<X<X8X<XcXfXsXgX3XbX1X1X8X>XE.r. .| n G ) { a.a.e.{ G M / ] #.e.C.y.a.p.+.l                                                                                                                                                                                                                                     ",
"                                                                                                                                                                        . . . . . . . . . . . . . . X X # # + X # X $ 7 5 ! Y 9 Y Y Y k l k l m T T ;.Q ' [ R +.>.b _ _ m W p j h 1 < 1 p h v N ;.*./ / [ >.$.[ $.@.| | { #. .e.[.C.e.a. . .a.h.C.h.r.8.8.C.r.8. Xf.V.W.V.W.[.P.I.U.{.I.g.(. X!.,XcXL.6X8XMX8X:X<X8X:XcX<XjX8X^.T.4XJ.H.K.H.g.@XP.s.h.s.P.9.g.P.U.(.f.H.b.H.wX4XH.rX4X`.H.g.7.6.i.} 0.i.c.h.Z.I.Z.tX@XtX'.8.j.V.U.V.rXAX XV.lX XeXlX6XmXK.,X>XjXmXkXmX}.}.NXNX8X6X2X^.kX.XzXhXFXK.AXrX4XmX6X^./.jX/.nXlXQ.zXGXxXJXBXDXGX8X^.4X^.A.6X.XGXxXzXkXDXXXmXdXSXdXBXvXMX2X}./.^.rX4X4X^.4X4XL.!.rXH.4X XE.nXK.4X>X!.,X<X3XsX3XfXfX1XfXgX1X3X4Xy.{ u.H n / | a.e.e.{ ( M / X.#.#.a.y.a.p.$.T                                                                                                                                                                                                                                     ",
"                                                                                                                                                                        . . . . . . . . . . . . . . X X # # X X X # * + 5 ! 8 k ! Y 9 k Y 3 E W l ' ' Q ' $.] 1.@.&.[ ) >.] ;.' m ;.l p p j 3 l j _ >._ / M ] $.$.[ | &.{ { H e.e.D.[.[.C.r.{ e.D.r.8.8.Z.e.Z.A.8.V.V.{.V.W.{.W.V.U.I.{.L.K.E._.!.5XcX5X!.cX8XcX>X6XcXcX6X8X}.AX4XJ.L.(.K.P.].g.s.P.j.j.r.s.s.P.P.H.q.s.{.{.rX!.nX>XL.!.wXs.'.9.6.F 8.r.r.y.Z.[.'.tX} @XL r.f.f.{.{.W. X`.eXy.SXE.SXnXjX4XAXL.6X}.}.^.K.8XcXrX^.,X^.2XXXSXmXKXQ.eX4X^.6X>XK.^.,X4X6XeX.XGXGXXXKXxXGXKXjX5X5X>XH.}.jXFXhXFXkXDXvXjXvXBX2XvX2XMX:X8X^.T.~.5X4XrX_.>Xs.!.nXL.eX4X_.AX!.H.!.~.8X8X3X3X7XfX3XbXgX9X1XfX:X>X XH %.G G G o.u.e.#.| X./ _ X.#. .e.e.y.e.:.Q 8                                                                                                                                                                                                                                   ",
"                                                                                                                                                                        . . . . . . . . . . . . . . . X o # X X X # X $ 6 5 : ! 8 8 Y k 3 h ^ E E ' R T R R [ $.@.@.@.) ) X.$./ ] ] / _ T W l p E v W M >.M ( ) %.:.| %.%.| | #.t.t.B.[.D.D. .{ a.D.D. .y.C.y.Z.y.[.y.{.V.K.{.{.(.K.U.V.(.L. X4X_.!.>XMX}.cX}.K.cXnX}.6XmX^.eXK._.s.rXb.U.b.Y.n.P.[.I.s.9.i.9.k.s.s.g. XwX`.L.L.^./.H.4XK.ZX@Xk.k.} 6.0.c.r.Z.Z.$X .Z.tXP 9.V. X(.lXH._.rX`.Q.6X6X}.mX}.^.8X>XjXE.SX}.E.4XrX<X!.8X}.}.hXjX6X6X.XjXlX4XrX^._.K.6XlXXXzXGXGXxXGXxXGXGXmX4X8XT.~.H.>XrXSX.XGX6XsXsXsXcX2XjX6XsXsX6X4XH.R.(._.!.4X4X9.wX_.4XL.T.).rX4XL.H.E.SX<X8XsXfXfXfXcX7XcX1XgXfX3X1XrX8.H ) G G X.x.&.|  .( / X.X.| { a.C.h.e.p./ 9                                                                                                                                                                                                                                   ",
"                                                                                                                                                                        . . . . . . . . . . . . . . . . O o X X X o X # * $ $ 0 ; ; e 9 k E E h E ' T j R / [ $.&.@.@.#.| p.G %.) &./ [ ' R p m 1 1 ~ M M $.X./ / ) x.S.| | &.e.e.#.B.a.C.D.Z.e.r.h.'.y. .C.y.f.y.8.f.I.K.W.E.4X`.4X4XwX{.V.4XK. X`.^.6X3X,XcX}.mX6X6X6XQ.FX XAX XV.4XT.b.b.qXY.{.K.V.8.9.k.9.k.w.9.'.I.K.}.,X4X}.4XrX5X`.H.[.9.+XI P c.h.[.C.ZX@XL tXr.} Z.{.`.K.`.(.L.wX(.4XnXrX}.FX^.}.mX>X^.lXK.}.>XjX:X}.>XrXjX^.jX4XjX6XjXeXE.}.E.4XE.jXhXzXzXDXxXBXGXDXJXDXdX6X8X_.-Xq.yX^.vX}.2XjXBXVX2XsX3XcXjX6X,X8XL.H.T.J.].{.wX_.g.U.W.H.(._.s.tX{.b.9.L.4X^.,X}.2X:XfXfXgX<XfXNXcX1X7X7X4X'.f ] ] ` ..x.&.#.#.( H X.` ( { u.y.y.a.p.[ k                                                                                                                                                                                                                                   ",
"                                                                                                                                                                      . . . . . . . . . . . . . . . . . X X X X X X X X # + @ 7 ; 5 e e 9 v j l E l j R R m >.M %.@.p.S.%.#.%.| $.( $.] / *.;.p p 3 x W *.' ) :./ %.( &.&.| | {  .a.e.D.y.$XZ.e.e.a. .D.'.Z.A.y.h.r.C.Z.I.K.{.4Xf. X_.E._.rX^.E.!.rX6X8X,X^.>XnX4XmXmXjXjX.XAX X4XL.L.(.J.b.b.H.{.H.{.tXs.9.4.m.m.9.s.g.4XE.eXL.FX4X!._.SX_.g.'.s.} P 0.h.r.+X8.} D.h.f.8.r.$X{.K.K.(.U.(.K.4XeX}.Q.jX}.8X6XrX>XrX4X4X8XMX6X^.,XMX8XV.jX6X6XSX}.6XH.E.}.}.eXhX.X.XDXGXaXGXJXJXDXkX2X4X_.L.g.4X6XnX6XFXdXDX2X6X2X:X3X8XfX}.cX^.4XL.H.9.{.$XwXV.8.9.'.U.wX9.H.-X].s.-X_.6XrXjX,XsXfX3X<X3X1XgXbXsXgX<X3X5X{.H M / G ( %.#.p.| ( ( / ` ) | #.a.a.a.p.) j                                                                                                                                                                                                                                   ",
"                                                                                                                                                                      . . . . . . . . . . . . . . . . . . X X X X . X X # + $ $ $ ; ; ; : 9 2 j T j Q j j j / $.S.S.| | p.%.&.| ( %.( :.$.>./ ;.j p 1 p ;.' ] / | | | p. .#.p.p.{ { { a.D.D.f.D.y.y.h.C.e.y.y.e.} e.8.y.V.r.W.g.{.K._.!.!._.8X4XE.4X_.,X7X8X/.nX XSXjX6XjXSXK.SXE.rXH.`.{.Y.{.{.L. Xf.Z.i.8.6.k.s.q.W.(.4X^.nX^.}.rX4XrX Xg.{.[.f.9.9.i.D.h.f.D.+X8.@XL r.@XwXV.s.P.W.V.{.{.K.`.AXQ.jXhXvX6X6X4X}.V.>X^.jX2X6XjXcXjX2XjXmXjXvXMX^.rXjXeXeXeXhXFXFXGXxXJXBXQ.kXdX}.jX}. XV. XV.SX2XjXjX}.jX6X8XcX:XNX7X:X,X}._.(.s.s.{.wXwX[.} f.'.[.@X8.6.'.[.s.U.g.).rX4X6XjXcX7XcX1XfX1X1XfXbXfXgX7X5X{.} b M G ( %.#.p.| H H G ..( {  .a.a.a.z.] l                                                                                                                                                                                                                                   ",
"                                                                                                                                                                      . . . . . . . . . . . . . . . . . . X o o . . X X # + $ + > 7 : : - 3 3 Y ^ E h h R m / ) $.| S.D.( | ( %.S.( | $.x.:.:.] ' 3 j < h W _ / $.( p.p.{ #.{ z.z.%.{ { e.C.@XtXr.} r.C.+X'.B.A.D.a.e.r.h.Z.{.{.W._._.4X4X,X^.6XH.4X>X!.<X:X>X6XnX6XmX.X.XGXA.6XnX/.g._.(.H.rXH.6X`.$XL 9.i.k.@Xk.g.W.`.}.6X`.lXK.4X XrXL.AXU.I.$X'.6.6.i.r.D.Z.e.8.Z.h.r. XW.V.f.I.V.g.W.W.lX6X}.SX6XrX4XjXH.4XrXK.6X>XjX<XmX8XmX6XA.jXjXvXvXjX4X^.4X6XXXKX.XzXJXGXzXBX.XFXcX8X5X>X>XK.V. X}.mXSX6XsXjXjX6X<X/.:X8X1X1X8X!.{.9.6.g.{.[.@X} } C.+X'.i.L 9.'.'.s.{.4X4X`.AX8X6X/.,X<XcXfX7X:XVX:XgXgXfX,XwX .n M G ) %.#.a.| ( G H ( G  .e.a.r.a.S.$.E 8                                                                                                                                                                                                                                 ",
"                                                                                                                                                                      . . . . . . . . . . . . . . . . . . X o o . . O o # X + + $ 7 ; = - 2 l Q Q k ;.Q Q R m ] $.&.&.#.#.p. .&.x.u.%.%.@.%.:.$.;.m p h p h m >.G | H { e.e.#.S.u. .z.#.e.e.+XC.C.h.r.e.y.f.'.Z. .a.C.h.8.9.s.I.{.H. Xg.6X^.6X_.>XL./.5X}.<X}.rXAX6XAXDXXXGXjXFX>XcXH.4XK.W.rX4X4X`.I.'.L i.s.g.9.P.wX`.6XAX XSX X_. X`. X XI.I.[.f.F 6.i.c.C.HXh.r.8.} W.4X X$Xr.I.'.U.U.W.wX4XV.mXkX6XSXSXK.nX/.E.8XjX>X^.6XhXeXhX6XFXkX}.jX^.!.>X^.6XGXzXxXKXaXXXKXdXjXsX,X:X8X4XH.V. XeX.XSXdXsX8X8X4X_.:X<X9X:X:X<X!.(.s.8.s.@X[.'. .g oX#Xc.} S i.c.9.9.f.W.{. X_.`._.4X6XsX3X8X8X<X7XsXcXbX,XfX7XeXr.f n G ) | #.B.#.| G H ( ( | e.a.r.a.a.$.T w                                                                                                                                                                                                                                 ",
"                                                                                                                                                                      . . . . . . . . . . . . . . . . . . X o o . . . o X X + $ t > @ ; 9 Y ;.~ T ^ Q T ;._ R $.( #.p.p.p.p.D.{ z.p.#.#.S.e.#.x.] *.p h v v N R ] :. .p.e.#.S.S.S.e. .D. .e.a.C.+Xe.a.'.e.Z.[.C.C.'.8.r.8.r.r.r.I. X^.K.jXg.^.`.!._.>X5XL.2XL.^.jXhX6X.XmXXXFXQ.,X>X>XE.eXE. XeXK. X{.8.P 6.s.s.P.K.K.lXSX6XAX`. XnX4XE.`.K.{.{.wXf.9.F i.8.A.$XZ.u.8.f.B.AX XW.r.j.j.[.V.H.`.E.V.}.nXrX}.4XK.!.E.}.>XSXmX}.6X}.SX.XlXmXkXjX2X}.,X4X6X6XQ.XXGXaXLXCXhXDX2X8X8X*XT.).L.r.K.FX^.DX}.8X>X4X!.!.*X<X/.*X,XH. Xg.8.S D.'.+X} f z.x...D F L i.P P 8.$XwXwX`.4XrXH.4X4XvX2X7XfX7XfX3XfX7XNXfX7X6XA.D n G ) | #.p.e. .( G { | {  .e.a.a.u.$.R k                                                                                                                                                                                                                                 ",
"                                                                                                                                                                      . . . . . . . . . . . . . . . . . . X o o . . . o . X + 7 $ $ = 8 w l ;.T Q T T T R ' *.] &.@.#.#. .a. .e. .D.a.D. .S.t.p.:.] ' h < h N ' M { u.{ #.S.) S.| p.#. .a.e.8. . .+Xr.D.r.a.h.[.Z.'.e.h.i.8.r.'.V.f.4X4X^.E.4X`.L.!.^.}.cX/.^. XlXXX6XFXmXGXkXSX2X^.8X}.rX4XrXlX}. X$XP P 0.P.[.H.A.6XlXSX6X4X XeXg.4X XrXK.tXtXr.+Xc.L i.e.[.e.i.}  .f.Q..X4XA.r.9.j.f.$X XW.eXAX6X6XSXrX^.E.K.E.8X4XrX}.}..XlX X.XG.AXhXdXvXsX6XjX}.jX XzXCXxXGXCXDXdX}.,X:X~.4Xg.d.g.lXmXjXdXMX2XrX4X`.~.T./.>X=X_.W.[.h.S x.z.oX} f o.x.H D ..oX .D H h.f.Z.[.I. XV.}.4XjX}.6X7X3X<X<X<XNX3XcX7XfX7X2X X} n G X.&.B.t.#.#.{ G ( o.#.u. .e.h.a.%./ l                                                                                                                                                                                                                                 ",
"                                                                                                                                                                      . . . . . . . . . . . . . . . . . X O o o . . O . X X # # + @ : w k ~ Q ;.Q T Q Q R R R >.@.p.#.#.p.#. .a.y.C.e.a.e.y.#.t.z.] m j k h l E ' / x.| | #.@.&.#.p.t.a.D.C.y. .8.r.Z.h.C.8.C.y.[.y.a. .D.e.c.8.f.f.W.4X XL. XK.W.E.>X4X_.jXK.E.jXAXdXmXzXzX6X6XrX}.rXnXeX4X6X^.AX X$XI P 0.j.s.W.Q..XhXSX X4XV.(.{.L.eXs.lX{.$X@XtX'.L 8.h.a.e.+XL u.r.K.jXrXA.s.h.8.@Xg.V.K.`.eX6XjXnXeXE.eXV.^.4X4XmX4X.XmXQ..XhXAXhXFX6XjXcX>XcX2X}.hX6XGXzXXXKXdXsX>XrX*X~.(.g.6.wX4XrX<X8XcX^.4XL.H.(.T././.`.[.j.i.H L o.M.H f H X.n D :.o.H l.#X .y.I.wXwX{.4X_.4X_.4XrX6X<X8X7X:X3X7X7XfX7XfXfX3X4X .n H X.&.| p.a.u.{ ( { o.p.a.e.e.e.e.%.) m 8                                                                                                                                                                                                                               ",
"                                                                                                                                                                    . . . . . . . . . . . . . . . . . . . X o o . . O . o # % $ $ ; 0 e k Y T T l Q T R m m / [ &.( p.#.#.#.#.B.e.F.e.Z.G.B.A.t.p.%.+.j 3 h ~ p R G G X.| | @.@.| #.p.a.e.a.D.y.r.h.h.D.8.i.} e.'.Z.D.a.D.D.} r.f.8.V.A.W.{.{.f.g.(.L.E.>XrXrXV.eX XkXhXmXhXGX}.>X_.6X XrXQ.zXhXlXlXh.L 6.6.'.s.K. X6XKX6XeXeXr.wXg.W.I.tXW.$XI.[.Z.r.} i.8. .e.#X} a.I.B.SXlX$X8.s.tXs.I.I.f.rXeX6XmXjXE.eX`.E.4XnXSXFXA.FXt..XKXzXXXzXjXhXjX8X>X8X}.jXeXmXhXkXkXhX2X2X>X6X^._.I.} (._.5X5XcX8X>X XK.V.H.H._._.E.H.Z.i.D D ..x.f i D ` D g -...H oXD } I.ZXf.ZX{.tXwXK._.6X^.jX,XcXcX:X8X8X:X2X3XfXfXfXfX6X[.D G o.u.#.e.e.#.{ { {  .&.u.e.e.e.u.&.$.T k                                                                                                                                                                                                                               ",
"                                                                                                                                                                    . . . . . . . . . . . . . . . . . . . X X o . O . X X & & # $ : w c v E T T m Q T T m b / [ ( | #.#.D.D.S.e.D.y.F.y.A.A.A.I.C.( [ m j h < j m R / [ $.X.>.) t.e.p.D. .#.a.e. .8.e.+X+Xe.8.D.H a.a.[.8. .e.D.e.r.y.Z.[.[.V.{.H.I.E.`.4XjXSXr.lXlXFX6XDXSXjX}. X`. XSX6XQ.lXQ..XHXe.6.0.F s.g.Q..XzXmXmXeX`.r.V.V.{.U.{. XAX$X$Xy.C.e.$X} { i.#Xc.8.e.eXlXeXlX} h.Z.'.g.P.f.lXQ. XjXFX`.}._.H.AXeXnX4X}. XlX.XQ.xXGXQ.KXGXXX}.}.vXhXdX6XjX2XMXmX6X6X6XrX4XE.K.r.s.tX`.5X5X8X=XL.K.s.9.P.I.W.W.[.D.x.D g -.M.G i d n K n -.x.X.H { +XZXZX[.lXeXtXI.AXg.AX}.4XcX2XcX/.,X8X8XcX8X2XbXfXfX3X6X$XD D X.| #.e.e.e.{ { { %.%.e.e.e.a.e.%.| R k                                                                                                                                                                                                                               ",
"                                                                                                                                                                    . . . . . . . . . . . . . . . . . X X X . X . O . X X % # + @ : 2 c h E m m m j m m j b M ) &.#.#.S.#.| S.y.a.B.C.G.B.'.A.I.C.+Xp.) ' l h h p N M ] M $.] | p.t. .z.e.e. .e.h. .{ h.S.D.H 8.h.a.a.e.c.S.} e.8.r.y.f.I.f.I.r.g.s.V._.^.^.SXQ.Q.mXXXKXQ.hX6XK.H.L. XE.GX#.KXGXG.FX} 8.P k.@X{. X6XAXAXeXQ.FXr.U.s.K.V.I.I.I.[.$X} +XC.D. .} u.#Xo. .[.V.FXeXlX9.f.'.s.[.I.g.K.`.FX}.eXeX XL.4X4X X6XjX6X}.6XFXK.KXFXKXhXeXdXdXjX6X4X}.6XdXMXmX:X<X>X/.4X4XW.r.9.P. X_.!.8X5X(.J.q.f.'.{.I.f.$Xy. .( d d =.b i i B d K X.OX( %.uXD.tXtXr.tXQ.`.tXI.H.wXE.4X}.jXnXMXcX<X,X8X8X8X8X1XfX7X7X4XW.e.n ` { #.t.t.u. .{ ( %.u.p.p. .e.#.#.) ) j                                                                                                                                                                                                                               ",
"                                                                                                                                                                    . . . . . . . . . . . . . . . . X X X X X . . O . X X * $ @ ; 6 e Y k ~ N m m j m m m m M $.( z.z.#.p.S.#.#.t.#.Z.t.C.I.A.A.[.[.| ) >.R h p 3 3 N W Q M [ ) &.#.p.| u.( u.e.B.[.e. .e.D.c.H u.H a.a.a.a.D.u.{ e. .C.[.r.Z.f.j.s.U.V.4XrXnX`.y.SXeXhX}.6X6X Xg.H. XlXQ.GXXXxXGXHX[.F 6.k.@X9. X.X6X.XmX XlXr.{.'.g.V.wXZ.@Xf.r.HX} r.%X .} u.x.o.D.e. XlX`.tX$X8.Z.f.g.U.V.U.f. XQ.4X XK._.E.eXrX6XjX}.6X}.XXmXhX.XmXzX.X6XdXmXFXmX6XSXmXsXMXcX8XcX4X!.{.g.9.g.{.4X6X6X4XH.g.q.q.[.g.@Xf.+Xh.| >.u B B j ~ a a n n M.{ n #.HXD.%X[.{.{.A.I.V.(.tXwXU.eX4XE.AX`.}.>X8XT.rX/.5XsXgXfXcXcX:X4X .f ( { p.#.#.e.%.{ {  .u.p.e. .e.#. .| ] T                                                                                                                                                                                                                               ",
"                                                                                                                                                                    . . . . . . . . . . . . . . . . . X . . . . . . . X X # $ + ; ; e 9 v l m m p E m m R R ' ) ) %.&.S.#.#.p.D.y.C.y.$XB.[.A.[.I.y.B.G ) >.m h 3 h 3 ~ W R / [ x.&.( %.| z.u.H e.e.e.y.e.a.{ c. . .u.z.S. .a. .u.H D.a.e.iXf.8.s.'.g.V.K. XjXeXA.6X6XjXmX6X6X XY.g.`.eXQ.zX.XFX|.ZX@X} } 9.P.[.tX XAXmX XQ.W.K.W.iXH.f.wX9.j.'.} tXf.r.D.C.D L l.{ D.e.A.AXAX XI.Z.s.s.{.W.g.H.{.V.nXAXV.K.(.`.`.nX X^.SXmX6XSXhXAXzXXXQ.XX6X.XhXkXXXGXFXdXvXdX^./.4X4X4XU.s.6.{.L.rX`.eXE.P.j.j.d.n.[.[.Z.D.x.*.i j p N N V u B B M.n H { %X$XA.[.V.A.$X XZ.[.[.(.H.wXg.(.eX{.`.4XcX=X-X4XnX5X7XsXfXfX7XcX4Xf.n G | #.#.e.e.u.{ ( { #.u.e.e.e.e. .u.| ' 9                                                                                                                                                                                                                             ",
"                                                                                                                                                                    . . . . . . . . . . . . . . . . . . . . . . . . X . X + # + 5 ; w 9 ! v N N p E l m Q R R R / :.| x.x.#.p.| e.| D.[.B.F.e.Z.y.[.F.e./ R W j 3 3 q 3 N m ' M G | x.X.%.( p. .e.e.D.{ e.e. .H O.D u.o.{  .{ {  .u.z.8.C.a.y.e.h.8.r.{.`. X}.nX}.}.}.eXjX6XrXtXq.g.W.Q.jXhXKXFXB.HXZ.F 9.9.[.V.lXB.SXXXQ.nXtXI.{.[.wX} s.s.9.'.f.Z.[.8.[.iX} D L } a.A.A.A.AXeX$XI.8.g.[.Y.s.V. Xf.lXeX4XV.wXV.E.6XeX6XmX8XcXjXmXSXmXSXmXmXSXDXXXXXGXBX.XdXmXdXjXrX^.L.{.g.q.9.-XJ.rX XQ.y.Z.P k.9.Y.K.g.h.o.K i 1 m W ;.p 1 p ,.=.d OXS.S.tX$XW.V.tXtX$Xf.I.@XtXg.I.I.wXwXtX X X X>X>XyXyX=X!.bXfXbXgXcXjX4X{.G n { | #.t.u.u.{ { H  .p.e.i.e.e. .u.$.' k                                                                                                                                                                                                                             ",
"                                                                                                                                                                    . . . . . . . . . . . . . . . . . . . . . . . . O . # # $ $ 5 ; e w Y l l m N W W m ' Q j ' ) / ) %.| | &.| #.#.B.t.D.C.[.y.I.$XB.B.#.S.M m x < q 3 h E M / G %.) %.%. .{ z.i. .Z.e.{ D.{ u.o...{ { o.o.z.D. .#.e. .D.r.'.Z.h.h.{.V.wX X}.nXlXK.}.6XjX X`.H.'.6.lX XGXQ.GXeXxXHX'.L 6.k.P.{.{.lXFXeX.XlX XV.{.V.tX6.6.r.i.Z.j.wX[.wXZ.D.iXD H L  .y.[.W.Q.AX{.wXf.9.'.U.[.r.U.V.4XAXSX4XV.E.4XV.^.6X}.2X}.^.jXmX.XBXBXdXXX6XDXBXkXhXDXBXjX6X}.!.>X4X(.n.7.d.b.rXH.`.f.y. .i.'.6.Y.f.'.e.G u < ~ 3 E j 1 h =.a M uX| D.iXA.A.V.[.I.Z.L P.@Xf.f.s.{.wXg.[.U.{.L.4XL.nXR.R.5X,X3XbXvXgX7XfX6XW.H n %. .#.e.#.u. .{ G %.z.e.a. .#.#.#.x.R Y                                                                                                                                                                                                                             ",
"                                                                                                                                                                    . . . . . . . . . . . . . . . . X X . . . . . . . X # X # $ : : e k ~ l T T [ j ] _ R Q ;.Q ] [ >.$.( p.%.&.( { z.+XD.C.A.[.t.[.G.F.t.#.S.R j j 3 2 3 h x j _ M >.X.X.u. .i.h.r.e.+XC. .D.#.{ H ..D x.H ..{ { S.{ #.8.D.D.i.r.D.I.{. X X}.}.mXrX6X X6X`.lXwX[.s.lXy.6XQ.jXFXA.%XD.F 0.9.j.H.ZXK.lXlXeX%XGXQ.eXV.wXh.I 8.8.h.r.f.I.I.|.C.%X{ D O.} Z.r.V.rX}..X$Xr.Z.9.j.[.{.K.g.E.6XrXjX`.jXE.^.mXcXE.SXhXhXFX6XDXQ.dXXXhXBXBXJXDXhXQ.6X4XrX5X^._.L.g.9.w.7.tX).{.'.h.e.8.} h.j.'.r.u.d u 1 3 C z v < 1 j a / OXS.%XZX[.t.$X$Xh.6.@XP.Z.r.s.'.wXI.{.W.wXtXI.4XH._.g.-X(.T.6X8XfXbXfXfXcX7X6Xr.f o.| #.p.t.y. .{ H { %.p.a.t.#.#.p.%.$.m                                                                                                                                                                                                                             ",
"                                                                                                                                                                  . . . . . . . . . . . . . . . . . X X . . . . . . . . # $ $ @ 5 : Y Y l Q T [ m >.M / ;.j ;.m ' ' $.] x.| z.| %.@.| D.e.B.[.A.G.B.#.B.[.B.| S.R j 3 < < c 3 v j m / ] $.| z.z.i.} 8.8.+Xy.B.S.{ H x.D :.H G x. .#.#.#. .i.c.6.Z.y.I.{. XeX^.E.}.mX}.4XrXrXW. XtX8.lXW.4XFX^.zXeXFXD.F 8.8.9.tXW.AXK.lXZX|.xXhX`.FX9.$Xi.H  .h.6.I.A.{.[.y.iXiXf L L } '.Z.eXnX`.AXA.e.j.f.s.9.W.H.`.jXvX8X4Xf.^.}.>X>X2XjX6X}.hXBXSXBXzXzXGXXXXXdXkXjXmX8X!.4X!.`.H.wXs.q.7.qXJ.{.@XP.} L i.oX0.i.u.| M p 1 h C q C < 3 j p ] oX{ iXB.[.{ Z.[.r.i.'.D.} '.iX'.g.f.g.g.H.g.s.(.U.J.b.{.b.g.4X~.SX8XsXcXfXfXfX4X[.D D X.S.p.y.a.e.( G ` X.&.e.#.#.p.a.u.| m                                                                                                                                                                                                                             ",
"                                                                                                                                                                  . . . . . . . . . . . . . . . . . . . . . . . . . . . # # $ ; ; 2 w k ^ ^ j Q R m ;.m Q ;.T Q m m ' M X.X.| ) S.| @.( B.D.Z.F.C.t.D.y.a.t.+X@.>.Q ~ 2 < < 2 v l T Q ' ) / {  .a.i. .a.Z.y.B.F.D.{  .{ { D ..n ( ( #.( p.{ } h.r.I.Z.W. X4X6XnX>X4X^.4X X X{.K.6.I. .V.^.Q.mX`.KXG. .H 0.c.6.@XQ.}.SXzXhXzXGXXXy.lXZX} F } o.u.8.'.{.A.wX+X$XiXe.D } u.8.Z. XwXjX XW.I.r.6.'.j.g.H.(.K.SXAXlXK.4XjX>X}.rX>X4XjXjX6XXXDXGXBXJXJXFXkXkXjX6X4X~.!.!.H.U.s.k.P s.[.[.I.P.s.F 6.L L z.x.>.M 1 3 ~ ~ ~ v 1 1 p *.x.#X{ e.D. .C.h.h.8.8.+X8.6.c.k.c.D.@Xj.[.P.g.tX{.{.U.H.].K.W.L.4X6X>X8XsXbXsX3X1XrX{.H H  .z.S.#.#.8.H D ( X.#.#.#.#.p.p.u.) R 9                                                                                                                                                                                                                           ",
"                                                                                                                                                                  . . . . . . . . . . . . . . . . . . . . . . . . . . X # + 7 6 : Y Y Y ,.~ E E N E m m T T Q h E p M M ] M M >.) S.G n @.p.#.D.C.C.y.y.Z.D. .B.@.[ h k 3 2 < - 3 l p T ] / :.o.o.#.a. .C. .C.C.D.p.#.{ { H H ( ) :.G %.{ { e.} e. .Z.I.W.`.!.4X^.rXrXE.^.V.4Xr.I.j.'.V.Q.SX6X XlX$X .S } P '.I.}.kXK.Q.kXJXzX.XeXA.$XtXi.D { o.0.'.V.V.A.iX'.[.C.+Xf L 8.y.Z.Q.SXlXZXf.} i.9.'.n.s.g.rX4XlX Xs.rXK.E.6X^.6XK.mX}.jXSXjXvXdXdXmXSX6X}.6X!.^.!._.L.U.Z.j.S s.g.[.'.D.8.I 9.6.i.x.o.$.M j < C C z h 1 1 W uXuXS.( { +Xh.i. .i.z.8.D.L } #X0.c.P P 6.s.9.j.wXH.wXU.wXW.b.wXs.tXK.^.>XcXcXsX<XfXcX4XW.f.H  .%.a.F.C.e.H D ( X.@.#.e.#.p.e.%.) Q k                                                                                                                                                                                                                           ",
"                                                                                                                                                                  . . . . . . . . . . . . . . . . . . . . . . . . . . . # 7 0 : 9 k Y Y h 3 ~ ! x v l j ~ ;.' Q h N W p ' M $.[ $.>.$.M / #.z.S.a.D.y.C.y.D.C.B.@.[ ' l k = 2 - 9 h l h m ] [ { | u.a.e.C.[.y.B.[.%XD.S.u.G { ) ( H :.:.{ H { a.8.} h.P.I.{. XlXE.,X}.E.eX4X XV.r.a.r.f.Q.A.AXHXeX|.u.{  .8.f.I. XjXDXkX.XkXBXGXK.eXtXy.h.H ....0.8.Z.I.s.@X$X{.K.tXF.D H } Z.A.eXeXAXV.j.h.D.9.9.9.(.W.(.tX{.4X4XrXmXrX8X6X^.2X^.jXQ.jXjXjXmXQ.AXrX6XE.L.L.`.(.(.g.k.P P h.[.'.oX} L L L P } x.*.B a < ! z q q < 1 b -.G | %.z.( e.z.D.L L F O.L i.#XL P 0.#Xh.h.D.j.k.s.[.s.U.[.P.s.P.9.f. X6X8X8XsXcXsX}.3X<XrXZ.}  .u.S.y.r.u.{ G G ) | #.e.#.e.u. .{ R k                                                                                                                                                                                                                           ",
"                                                                                                                                                                  . o . . . . . . . . . . . . . . . . . . . . . . . . X $ ; r 8 Y Y E k 3 9 v ~ c z c h l E T k h 3 h j =.T m R >.j >.b [ / $.%.F.C.e.a.C.C.$Xe.oX:.>.Q j v 2 - - 9 9 h j m _ ] ) %.%. .e.C.y.e.A.B.[.D.C.D. .H ..n G ..x.z.( a.h.h.} r.K.{. XrX}.E.4X4XK.W.`.V.Z.} h.f..XlX X.X|.%XH D } } f.V.eX XhXkXBX.XBXhXzXeX[.wXHXL F f M.{ i.s.j.'.P.K.eX XlX#.D o.r.B.W.`.tX[.8.h.i.h.Z.g.r.P.s.V.(.wX4XrX^.>X!.^.4X>X6X,XmXKX}.mXKX4XeX X4XE.>X^._.(.Y.k.i.S 8.r.I.'.u.l.D H u.z.x.` =.j 1 A z C 0 - 3 W *.] ] ) | ( oX .{ D ..O.-.M.-.O.F L o.8.i.i.6.$Xj.s.'.@X].s.s.P.g.6.wXtXeX6X6X,X2X2X<XsXcX8X>XW.} e.a.e.Z.a.e.{ G G ( | #.e.e.e.u. .) R Y                                                                                                                                                                                                                           ",
"                                                                                                                                                                  X X . . . . . . . . . . . . . . . . . . . . . . X X + $ @ r e k T l 9 9 9 2 z z 2 c h 9 E Y Y 9 3 2 h l ;.h l R m j m R m M X.x.z.S.S.e.y.D.D.p.@.OX+.' l h 2 : : q 9 3 m m _ / X.| u.#. .Z.C.B.I.$X[.$X+Xa. ...` ` ` %.{ D. .r.8.Z.P.H.K.K.`.4XH.!.4XK.g.K.I.i.} r.[.V.SXFX%XZX%Xu.g } D.h.I.tXQ.XXXXzXmXAXxXQ.AX[.tXZ.D.l.f n G o.} s.'.P.wXK.AXZX[.u.{ } Z.Z.wX[.FXf.} i.i.6.9.r.I.g.{.`.}.>X8XrX>X>X4X_.rX,X4X6Xf.E.`. X X XeX XH.!._.L.n.'.v.I L i.@X'.a.x.g K ( x.X.] ' p < z C 2 - : = 3 W ,.;.G >.X.X.( ( G M.` -.` f ..S x.M.l.c.i.} j.6.j.k.P.s.j.g.I.s.g.[.W.lX!.rX6XMX<XcXcX8X7X8XrX{.8.L e.D.Z.y. .( H / ( | e.e.a.u. .o.) / T                                                                                                                                                                                                                           ",
"                                                                                                                                                                  . . . . . . . . . . . . . . . . . . . . . . . . o . X ; 5 y e h E j 9 h - h 2 2 C 8 2 c c 9 ^ e w : 2 w ~ Y h Y E l 3 p E j ' / x.| u.D. .e.[.C.B.S.$.[ m E 9 - - - q 3 h N W M ` X.X.u.{ { D.C.B.[.[.A.[.F.{ x.D ....:. .{ +XD.Z.f.8.I.f.(.(.H.4X X4X{.U.[.s.D.8.r.[.`.eXQ.AX$X%XH H } 8.'.g.[.$XeXlX6XXX|.lXlXQ.eXy.tX@Xz.H i J ..0.6.Z.P.H.4X X|.HX%XD } e.h.tXZX$Xf.8.+X} 8.8.i.j.P.g.H././.L.}.>X/._.!.>X4X4XeXrX4X4XK. X!.g.L.>XL.`.{.P.c.F F } h.D.S.} g D G *.G >.B 1 3 C 3 q - - - ;.2.OXM _ ' b M n G M ` B n i n D d -.L H x.F c.8.9.9.j.9.s.Z.q.s.f.[.@XtXW.rXAX4XcX^.cX<X7XjX:XjX>X_.f. .8.r.C.C. .{ ( ( ( { #.8.S.u.H o.) ] l 8                                                                                                                                                                                                                         ",
"                                                                                                                                                                  . X . . . . . . . . . . . . . . . . . . . . . . . . # @ 8 8 9 ! h E h h 9 9 9 2 8 w 8 8 8 w w r , ; = : w Y 9 9 c ,.9 < 3 c l M b >.) | | #.e.#.B.D.&.>.[ R l 2 - : - 2 < h l j M _ ` x.{ {  .'.Z.y.[. X[.Z.+XD.H ..G (  . .a.e.r.y.r.Z.V.H.E.(.E.W.(.(.P.Z.r.8.I f.I.E.rX X XtX[. .D } D.r.ZXf.{.V.A.rXjX.XeXwXAX6X^.I.tXZ.H b i J H } r.W.H.W. X XtXeX{ } z.h.r.$XtXA.e.C.i.8.h.0.0.c.P.K.L.L.!._._._.E.K.(.(.K.wXK.H.g.K.W.{.rX!._. XU.@X'.0.S L 8.e.D.u.d d _ =.-.J V u 1 c ! : - - 3 N 2.M ,.OX*._ OXB =._ J i b n B b =.:.H H ..H } x.0.oX'.k.L 6.P.g.AX[.g.g.(.wX_.4XrXAX5X>XcXnX>X<X4X8XeXs.L h.a.C.a.u.{ H ` { #.a.a.B. . .{ ) $.T 9                                                                                                                                                                                                                         ",
"                                                                                                                                                                  . X . . . . . . . . . . . . . . . . . . . . . . o X * $ e e k E v E j j Y 9 2 2 2 8 : = = ; 5 0 7 ; @ = 5 0 8 = e <.c 2 - 2 c x m m m $.&.&.oX| B.S.#.$.[ S.R 2 : = - - - 2 3 N j m M ( %.z.e.e.y.Z.A.W.V.A.B.D.a.x.o.( u.u.u.8.h.y.A.I.V.W.g. X{.H.P.r.g.Z.9.r.8.I.9. XE.eXlXA.y.L O.L } 8.@X{.f.W.V.{.AXlXlX X}.K.}.E. Xr.u.d V d ` L 8.P.P.V.lX X XlX{.f F } f.I.f.AXy.f.y.} 0.P l.0.s.f.E.L.{.H.K.I.V.wXg.W.{.I.(.U.H.(._.L.q.L.(.H.[.9.0.S L o.z.S.o.G n p M =.V d < p ~ c @ : 2 E *.uX*.>._ >.;.J b B i V b b i u b _ n i n f ..O.l.D F I L 6.$Xj.{.g.{.wXZ.tX{.g.{.rXwXwXnX=X>XrX~.>X5X:X5XV.L e.a.a.y. .( H ) ( { u.a.S.#. .( ( >.Q Y                                                                                                                                                                                                                         ",
"                                                                                                                                                                  X X . . . . . . . . . . . . . . . . . . . . . . o X * ; e e c c h E Y ;.E E E 2 = = - : = = @ > > $ + @ @ ; 7 @ ; w ! w = = 0 z h h j p Q ] / @.| S.p.x.( / ;.z , : = : = : - - x Z B b n H %.#.S.y.[.Q.K.[.e.D. . .H o.D z.i.e.C.f.Z.8.V.W.V.wX{.H.P.I.f.h.h.'.s.g.W. XeXeX[.wXe.H L L i.j.j.tXtXf.W.{.W.AXlXSX6X6X}.}.wXZ.a.b i i n H  .r.f.'.{.wXQ.4XI.6.F } y.[. XlX Xf.f.h.P P 0.0.9.6.f.9.g.P.P.j.Z.g.Z.U.H.f.g.U.I.wX_.{.{.(.V.[.i.o.S g ..x.%.:.` i b j R B N s A C q - : 2 9 OXj i G _ ` _ M u =.B B u u M =.*.b b M M G ` G f ..OXO.H oXD.8.wXP.{.'.@X9.Z.s.{.{.{.-XH.b.g.rX~.=XyX~.:XrXU.8.8.r.y.a.8.{ ( ) { #.y.C.C.e.{ ( ( &.[ T                                                                                                                                                                                                                         ",
"                                                                                                                                                                  . . . . . . . . . . . . . . . . . . . . . . . . X + 7 ; 8 e c 3 N ~ j ^ Q ^ E c 8 : @ = @ @ @ @ $ @ + + + + > 7 ; ; 0 ! ; = = 8 C - 9 v h p / ] | ) %.S.$./ j ! r = : @ : = : 2 4 < p m M M X.{ u.S.f.[.[.A.'.Z.D.{ u.D  . .{ D.a.Z.C.A.I.W.r.V.wXs.V.tXr.r.h.s.[.[.I.E.eXW.[.y.e...F l.c.8.f. X{.r.f.I.W.f.`.}.2X}.}. X`.eXe.( i i B D ( D. .D.Z.wX XQ.$XD.F L } f.W.[. XV.A.8.i.P 0.6.6.j.9.r.k.s.6.s.r.s.s.9.8.s.9.g.{.f.U.H.U.Z.A.i...K i D -.:.>.B u a =.=.~ h 3 C z 2 - - 9 ,.Q ,.OX,.>.m =.B b ;.p a 1 u B *.B =.*.] M ,.n B b >.n G :.x. . .C.'.8.+X$Xs.'.P.f.g.{.Y.b.qXY.-XR.R.).~.5X,X8XW.8.e.r.e.a.e.{ H (  .e.y.f.h.e.{ { ( :.) T                                                                                                                                                                                                                         ",
"                                                                                                                                                                  . . . . . . . . . . . . . . . . . . X . . . . . X # $ 5 5 w c v ! h ~ T E l ! ~ ! ! : = + + + + + + X # X X & 7 > @ ; r 7 > + = 0 : ; : 8 ! v W _ / $.[ ] >.Q C e 5 = ; @ ; = ; = 2 C p x W -.:.( #.a.D.+X'.C.C.C.a. .{  .u. . .D.e.Z.y.f.[.[.W.tX[.Z.I.[.'.r.'.s.P.wXV.`.{.%X[.z.F F l.i.h.y.{.`.wXZ.f.9.tX`.eX}.6X6XQ.lXK.[.e./ i u d >.G x.D.r.U.eX$XtXh.i.H F r.Z.eXW.{.Z.P.h.6.i.9.8.8.s.s.s.h.s.8.D.h.9.9.h.8.Z.f.g.I.f.Z.r.r. .G J i B =._ *.b 1 p x ~ ~ v 9 <.2 - = - ~ h OX2.' W ~ ~ ;.h < < 1 3 j ~ =.N N m j W ,.,.a a u V B ' M.-.oXo.z.z.} i. .D.D.i.8.Z.j.'.9.'.Y.'.U.H.H._.=X4X<X4X(.8.e.e.t.e.e.{ ( (  .e.y.f.C.e.{ { | x.@.R                                                                                                                                                                                                                         ",
"                                                                                                                                                                O . . . . . . o . . . . . . . . . . . X . . . . . . # $ 6 : 9 k h ~ Y E h E j k 9 C ! r t > $ + + + X X o X X X + > @ @ $ $ % + $ @ @ @ ; @ : 8 h j R *.] ,.' l 9 0 : 5 @ > + @ @ = - 2 3 h x m / :.%.p.S.y.[.e.C.t.a.#.#.H { %. .z.e.C.f.Z.A.I.{.I.I.I.[.Z.P.'.'.j.f.Z.wXI.[.Z.a. .S D o.} e.[.V.Z.f.9.h.6.P.K.Q.4X6XjXlX XeX X[.#.d i u M ` ..u.r.I.g.I.{.D.h.H f H e.Z.$XeXI.wX'.j.9.Z.r.8.y.Z.f.r.Z.r.} L } I 8.9.P 9.f.s.r.h. .u...b a a j _ _ a 1 a ~ ~ v h q 8 = - = z ! ,.;.=.=.=.~ h c 3 3 2 w z 3 ! < C ~ ~ ~ v N h < Z Z Z N 1 a a / -.G ( D o.{ u.0.} c.i.} 9.j.j.7.9.m.Y.H.wX-X5X_.3X6X$X .} e.a.e.e. .{ {  .y.C.Z.C.e.{ {  .x.%.[ k                                                                                                                                                                                                                       ",
"                                                                                                                                                                O . X . . . X o . . . . . . . . . . . X . . . . . . + > 5 5 9 k l l ~ E h h 3 3 < - : = 7 7 6 $ + X X o O O X X X + $ @ + + # + + > % + % $ = - - ! l m m m ' k 2 : 5 ; 7 $ $ + @ > @ @ 2 2 9 E M M ( %.D z.u.{ { #.p.e.z.%.%. .{ H D.} h.f.[.$XV.eXI.A.tXs.r.} r.'.r.Z.[.f.e.C.e.D F ..x.oX[.tXy.r.@Xi.c.'.9.r.8.A.eXQ.AXA.lXtX{.C.X.D i d J ..{ 8.s.6.I.V.f.a.l.L F F r.+XK.r.@XtX$Xr.Z.8.Z.e.I.eXtXZ.'.@Xc.H F L 0.i.} D.i.8.}  .D u u Z j ~ h < 1 s A z < 9 = = = = - C ^ b _ b j N < 3 C r : = , - 0 : 2 0 - q - = - 2 - 2 3 z s Z =.V b V i =.d -.o.o.z.} F c.F P c.i.P k.k.q.].n.H.4X!.rXcX8XtXy.L e.a.e.#.{ { |  .y.Z.g.f. .( ( %.%.x.] l                                                                                                                                                                                                                       ",
"                                                                                                                                                                . . . . . . X o . . . . . . . . . . . . . . . . . X + 6 5 w 9 k Y T E E j ~ h 3 < - : ; ; @ $ $ $ + X X O O o X X X + + X # # X + X + + + + @ @ : @ 9 ~ ~ x v 9 - = ; ; > $ $ # # + $ ; ; = 2 9 l R *._ ] x.z.D.S.#.| #.z.| #.u.{ { o.u.8.h.f.f.$Xf.P.[.I.g.f.r.h.h.h.D.V.Z.D.e.{ H f D x.a. .C.iX8.i.0.O.I i.h.V.W.K.AXFXeXE. XK.[.{ :.d u d _ o.8.'.s.I.A.+Xe.x...f K }  .[.$XZ.f.P.V.W.wXC.iXf.`.r.$Xe.h.'.+XD.L 0.i.i.i.} c.X./ V u s 1 h < 3 3 z C C C 4 = = = = e c ~ ~ E N j ~ 3 z 4 - = @ = = = @ = = = = - - - - - - - 2 3 2 < < < < < u B b n n D x.o.{ S O.} } i.i.0.0.9.j.n.(.4X_.6XcX6XeXZ.{ e.p.e.u.{ { { #.C.Z.f.r.{ { ( x.p.S.$.T                                                                                                                                                                                                                       ",
"                                                                                                                                                                . . X . . . X o o X . . . . . . . . . . . . . . . X + > : : 2 k k ~ l ~ N ! h c = : ; ; ; @ ; ; ; + $ + & * X o X X X X X X X # X X X X X + + + @ @ = 2 q C q 8 e 7 = @ $ $ # + # # + @ @ @ ; ; h h ~ m *./ X.| u.%.&.S.a.p.{  .X.( H o.}  .C.Z.Z.P.[.[.f.6.j.c.6.h.8.e.Z.e.H x.G G n ` { D.@XC.Z.h.} 8.x. .u.h.h.s.V.(.E.4X6X4X4X[.+XL K d i n H O.} } f.Z.'.+Xx.D D f G X.u.e.f.I.{.'.f.U.[.[.{. XI.'.P.'.f.8.s.'.@XD.D.u.0.X.N h < < 1 1 < 2 3 q <.q 4 = - - : : e ! <.C 8 2 < - - - - = = = 2 8 2 q 2 2 9 h h h h h < 3 1 - = @ @ @ @ = = - < < a b n n K f n G ..x.l.} F 6.i.#Xs.'.(.4XrX8X,XnX4Xf. .#.a.t.p.{ H  .i.e.r.h.a.} { e.e.B.B.) R                                                                                                                                                                                                                       ",
"                                                                                                                                                                . . . . . . X o X X . . . . . . . . . . . . . . . X + 6 0 e 8 c h l E E v h c 2 : = ; 6 0 r c = r + + $ X + & X X X X X X X X o X X X X X X X + + + + @ ; , , : , ; @ @ $ $ # + # # # + + @ @ @ 2 9 h ~ l W M ] X.x.u.( z.z.z.%.-.G X.H z.a.r.Z.r.'.8.@Xr.h.8.9.i.z.i.D.S.u.S.X.G i G :.H S.Z.C.r.8.z.H { { L F 6.i.g.K.(.4X}.}.rX4X@X+Xx.g i d d D o.{ 8.r.8.c.x.x.f J d D X.p.D.8.I.'.s.g.[.f.K.f.W.g.'.s.'.'.s.f.r.h.a.o.) M c - = - < < 3 C C r : = @ : : : 8 ! <.c 2 : = = : - = = - 2 C ! z v 3.3.E h E j a j B ~ ,.=.x x < - = + @ $ 7 ; 2 9 p 1 B _ =.=.n -.*.H D D F i.k.j.'.g.L.H.rX4X/.rXSX{.}  .B.t.e.{ } u.a.a.h.C.a.{ { e.r.B.B.&.[                                                                                                                                                                                                                       ",
"                                                                                                                                                                . . . . . . X X O O . . . . . . . . . . . . . . . # # 6 5 e 9 ! 3 E h l 3 h 3 v w 5 = = 5 8 0 <.: r 6 + + + & X X X . X X X X o X X X X X X X X X X X + @ $ ; ; $ $ @ $ $ + + + # # # + @ @ + @ = = q c ~ j m M X.x.X.%.{ ( %.{ -.X.( { %.a.8. .h.} Z.h.e.i.0.u.}  .} a. .p.{ G n J D ..o.D.e.e.u.z.H D H o.H l.0.} s.I.W.L.E.^.K.E.V.$Xu.:.g i i J J X.o. .u.i.#Xz.H f i n H %.u.e.9.Z.8.I.[.I.{. Xs.[.s.s.8.Z.s.r.a.u.x.-.n b - - - - < 4 w C , = = = = = , ! ! r = = @ = = 2 - 2 q C C v c h h E ^ N =.=.=.;.=.;.' *.*._ b b p h 2 - + @ = - - < 3 3 p p b n D n D x.} u.} r.@Xj.g.{.{.{.(.4XrX4XjXI.} u.t.D. . .8.r.y.f.f.y. .}  .p.a.B.B.&.R                                                                                                                                                                                                                       ",
"                                                                                                                                                                . . . . . . X o O O . . . . . . . . . . . . . . . # $ 6 8 e c ~ l E N p =.N h 3 2 - : = = 0 2 : : 0 r <.7 6 $ + X X X . . . X X # # o X X X X X X X X + + + @ + $ $ $ # + + + + # # $ $ @ @ @ @ = @ = 2 c h l j R ` >.M :.x.( X.n n G x.G #.e.h.e.a.8.e.} { L x.u. .u. .S.X.G G d n ..x.%. .t.D.x.l.n ....G ..L l.} 9.8.s.g.(.E.jXSX`.[.'.D.` i u i a J ` o. .z.u.u.G -.D d f H { u.i.Z.P.r.f.I.U.P.@X[.j.D.i.i.8.8.u.o.( G =.< = - - - 4 C q - = @ 7 ; r r r : = = @ = : 4 2 4 ! C c v v E Y E W W j a j M a b d B n -.M -.] ` -.*.;.v z = = = - 4 4 z h x M ,.-.:.:.D { e.} s.} s.g.g.H.(.yXg.rXmX4X X} } a.e.e.e.e.e.r.a.f.y. . . . . .a.S.p.R k                                                                                                                                                                                                                     ",
"                                                                                                                                                                . . . . . . . . o X . . . . . . . . . . . . . . X + 7 6 ! c c v h l ~ N m p N h v 2 2 : - = : c = = 0 ; 5 y y % + X X X . . . . X X # # o X X X X X X X X X X X X + # + X X # # + + $ $ @ @ $ @ $ ; + : : c h j W W =.;.' d b G M ] $.H | u.+Xe.z.{ { } u.{ x.{ z.u.p.x.z.G ` i b M G D G S.u.o.{ M.D n n d D ` D } 0.s.[.W.{.4X}.Q.}.lX{.[.u.-.u 1 p N B ` H o. .z.oXG f i n f K X.x. .8.8.Z.y.Z.'.s.r.h.D.i.} } H { n B ~ p - = - , q 0 : = @ 7 ; > r > @ + ; @ = : 8 w q w C 3 3 1 3 < 1 1 1 u 1 1 u 1 u 1 1 1 u u i i b =.J =.` n =.W =.3 = = : 4 q c ~ M b n ..( ( H i.r.Z.8.'.9.U.d.4XT._.rXrX!.wXL } e.a.i.e.e.y.f.A.A.y.{ } #.e.e.C.B.#.[ l                                                                                                                                                                                                                     ",
"                                                                                                                                                                . . . . . . . . X . . . . . . . . . . . . . . . X + 7 5 w e c v ^ E N m ~ W =.N 2 v 9 - 2 4 2 C ! e : = : ; @ t # & # o X . . . . X X o o o o o X X X . . . . X X X X X X X X X X + + @ @ @ $ $ + + $ @ : : e 9 3 E j j j _ a j b b ] :.M %.| +X{ u.{ x.G X.G x.| | { x.( ` G i n ` x.G oX| o.| H ` G _ i =.J J x.L o.h.Z.9.g.W.}.rXK.eXV.$X .{ d a 1 x Z B ` H x.oX{ OX=.u d u V d G o. .e.a.8.8. .D.c. .u.H D D K b =.~ p - : : 0 r r : @ @ = , > % + + $ + + ; : e c ! 9 2 < < 1 p j j m / $.R ] / / -.G M G b n u u u u i J f *.M.-...G B p < = , 0 C =.M.) X.H %.pX+XoX+Xh.+XZ.j.n.Y.b.{._.!.4XwX[.I i.r.a.e.e.e.a.C.Z.A.y.e. . .#.e.y.a.p.[ l                                                                                                                                                                                                                     ",
"                                                                                                                                                                . . X . . . . . . . . . . . . . . . . . . . . . X $ 6 ; 8 2 k E E ^ m ;.W W j j h 3 2 2 2 2 0 2 8 2 8 = = @ > + + # # o X X . . X X X X X X o o X X X . . X X X . X X X . X X X X + + + @ & & % $ $ @ @ @ ; : 8 2 3 h v x 3 ~ j _ M -.] ] / { %.oXx.%.( -.( >.( | | %.X.>.*.b B J *.X.) n ( :.-.-._ M a a b b J _ D o.u.8.9.P.Z.I.V. XK.4XK.[.%X( u u 1 a V n G -.{ ( X.J V s u s b M d { %.%.{ u.u.o.o.{ G d n B i B =.< - = ; r 0 = @ @ ; > > $ @ > @ @ + ; r 0 C C < < 2 3 3 j M [ @.#.&.B.G.A.F.F.[.[.B.A.B.B.S.( ..G f i i g n D K ..:.../ 1 < = = w x b ( G X.S.oXoX .D.r.r.j.g.g.9.Y.J.eX4X5X`.P.8.} h.a.e.e.e.y.h.C.B.e. . .u.p.a.a.r.p.[ l                                                                                                                                                                                                                     ",
"                                                                                                                                                                o X X X . . . . . . . . . . . . . . . . . . . . X $ 7 5 5 8 k Y E h E W W j W j j =.l 9 9 2 q c ^ <.: 8 : ; @ > + + X X X X o X X X X . . X X X X X o o o o X . . X . . . X X X X X + # + + & % & & @ 7 ; ; = = 2 - q 9 z C z 3 x p M ' _ ' >.G :.[ ( d n X.M ] ( %.G -.-.b u i *.M >.M ` ` D -.=.W m B p a b a B n H H } } h.Z.Z.Z.g.f.H.I.Z. .( n i u u u V V b G M.>.b N 1 1 1 p a M M *.n ` ` n G f g i i V b =.x - - : > r ; @ @ ; ; @ @ ; > > + @ + 6 ; , 4 3 < 3 p j b / $.&.C.F.%XeXlXlXlXmXhXkXkXkXzXhXeX|.I.D.S.o.0.f g u i d F I } o.n x - : = z n ` *.OX#Xx.{ x.u.8.i.+X'.g.9.'.@XH.!.L.eX{.L } e.a.r.a.a.y.a.C.y.e. .8.u.e.e.a.a.p.] T                                                                                                                                                                                                                     ",
"                                                                                                                                                                . . X o X . . . o X . . . . . . . . . . . . . . X * ; : 8 9 9 Y T T T Q ' l W m l W ~ l Y - 8 2 3 c c q : = $ @ + X X X o . . . X X X . . . . . X X o o o o o o X X X X . . X . X X X X X X # # # @ @ $ ; ; = = = : - 2 8 8 q 3 3 x v l m m M ] -.i / G ` b >.] [ [ -.-.B a i a b _ _ _ ] -.>.n W m j p p u a V B B ` G O.} 0.6.c.'.s.k.'.e.r.z.oX:.n b u 1 1 p a b b =.N p < z 4 s h h j b V d a i B u u b x ~ ~ p < 2 0 7 $ @ $ @ 7 @ = @ t t > @ + @ ; 0 , q q x p j a / @.S.F.|.eXeXeXjXjXhXeXzXzXkXzXkXdXkXkXGXzXhXeX[.B.e. .D i d i F 0.l.l.M z - = < u a =.b n n X.( { u.+Xr.'.'.7.9.@XH.4X4X XW.} 8.f.a.r.e.a.h.C.r.e.y. . . .e.e.C.y.u.| R                                                                                                                                                                                                                     ",
"                                                                                                                                                                . . X . . . . . X . . . . . . . . . . . . . . . # * 7 5 : 9 Y E T Q ' T p T m *.;.Q ' ~ l Y c - 9 c C ! w 5 ; @ + + X X o o X o X X . . . . . . . . X O o o o & X X X X X X X X . X X X X X X X % % $ ; ; ; ; = = = = : : : 0 2 q 3 9 h h x W W M _ M >.n -.M M m ' =._ ~ x a N b b M _ B a d b N 1 3 1 p N a B =.-.J -.K o.L 0.0.0.i.P }  .u.z.oX-._ b j < < 1 u V N ~ ~ z < - - - < h h 3 1 s a u 1 3 1 s <.C < 2 2 : ; @ # + > @ ; ; 6 r r @ @ + ; 7 , q 3 < p i a G %.S.F.$X.XeX6XhXkXvXvXjXjXmXzXmXzXzXkXCXCXDXBXmXmXkX6X.XA. .| G i S S I l.-.B 3 = = - 3 p u N m _ $.x.u.a.h.r.F 9.j.j.{.4XrXL.W.} i.y.y.e.a.C.e.r.a.e.8.}  . . . .a.e.e.@.Q w                                                                                                                                                                                                                   ",
"                                                                                                                                                                . . . . . . . . . . . . . . . . . . . . . . . X X 7 ; ; : 9 k E Q l ;.T l E j m Q m ,.;.h 9 - ! 9 9 2 w r : $ + + + X o X o X X o X X . X . . . . . . X X X X X # # # # X X X . . . X X X X X X + @ $ > > $ @ @ @ @ = = = ; ; : 2 q 3 2 3 3 p x N b j b B B B _ m T N x u 1 s x Z ~ W j j N j p 1 3 x x a a b J =.d K n K f F F I S L F F H H H ` >.,.m p < 4 - < u 3 1 p 3 < - - - - - < < < 4 < z < z <.z r - - : : = @ + # # > @ 6 y 0 ; = @ = = : - q 3 1 j u G %.#.F.[. X.X.X6XjXjXmXvXjXmXzXBXBXGXBXBXCXkXBXBXzXBXBXBXkXkX6X XB.} { i S U l.O.` *.p = @ = - 1 x N M M ` :.x.u.} 6.P j.[.@X{.(.W.[.} i.e.C.h.a.i.e.e.r.8.e. . . . . .e.e.e.%.' k                                                                                                                                                                                                                   ",
"                                                                                                                                                                . . . . . . . . . . . . . . . . . . . . . . . X % $ 6 0 ; 9 ! Y T T E l j 3 j j E ,.j 2.^ 9 9 8 8 8 : 8 0 7 > + + + X o X X . . o X X X X X X X O O O X X . X X # o & & o X X . X X X X X X . . X + + @ @ $ $ > ; $ > @ @ @ @ ; : - q C < 2 z 3 < h x p x N W j ~ Y v h < 1 z z 1 x v v p 3 < 3 3 z 1 p u i n n n K d n f D O.F } D H F H L L D K d i p x z 4 - < < - < 3 3 - - - - - = - < 4 4 r r C q - = : ; ; = @ @ @ + $ 7 > y 6 @ ; ; + = : = q z 3 1 a d ) { a.[.$X`.}.}.kXsXdXvXkXkXDXvXBXBXBXBXDXBXBXBXBXBXBXBXBXCXkXkXjXmX6XW.r.l.i i g l.I M.*.- + & - - < 3 1 ~ =.n ` D f S i.+XI.tX{.U.V.I.r.i.D.A.C.e.8.i.i.e. .a. .e.u.#. .e.e.e. .[ l                                                                                                                                                                                                                   ",
"                                                                                                                                                                . . X o X . . . . . . . . . . . . . . . . . . X + * ; ; : 9 k Y l ^ E E h c v h E 3 Q Y l 2 8 - : : ; ; ; > $ + # X o X o X . . . . . X . . X X X X X X X X X X . . X o X X o X X X X X X X X X X + X X X + % 7 % $ 7 > $ ; @ = = = = : q q 4 2 C 9 3 h 3 3 3 h 3 h 2 - 2 3 2 3 C z < z z < - < < 1 a b n ` D G D x.+X#.S.z.h.i.C.a.+XD.oXL L H H ( M p 1 3 q z q z 3 z s z 3 3 2 2 , 0 r r r C 4 = , - : 6 = @ @ @ @ = ; > 6 t r @ ; 5 @ @ = = 2 w 3 1 u i d ..z.a.'.$XA.}.jXkX2XvXBXvXBXvXkXBXBXGXGXBXDXGXGXGXGXGXGXBXBXBXvXvXvXkXbX8X`.Z.:.d f g 0.v...=.@ @ @ - = - 3 p 1 =.n n f H D.f.[.H.Z.'.f.r. .c.a.y.r.r.r.i.i.a. .8.8.8.u. . .e.e.e. .) l                                                                                                                                                                                                                   ",
"                                                                                                                                                                . . X o X . . . . . . . . . . . . . . . . . X X * $ 7 0 : e Y Y E E E h < 2 3 h ~ l h l h <.c ! 8 0 : ; $ $ % # X X X X o . X . . . . . . X X X . . . . . . . . . . . . . X o o o o X X X O o o X X X X X X + + + $ 7 7 > ; = = ; @ = : = - 2 = - - q 2 2 2 8 = 8 8 : - 2 4 4 2 2 C 2 2 = = 2 2 1 N _ *...z.D.+X+XC.C.C.y.D.y.f.[.I.[.'.P.iXj.Z.D.u.:._ ~ < < 3 z C z A s C z q 8 q r r r C w q 0 6 , @ @ + + @ @ @ ; ; 6 0 6 ; + 5 0 = = = = 2 q < 3 V i f K u.Z.I.{.V.AX6XhXkXvXvXsXkXCXCXDXCXBXDXDXDXDXGXBXGXGXGXGXBXBXBXvXvXBXvXgXbXjX{.S.G i S I P l.>.3 @ @ ; ; = = z p 1 u n X.c.Z.I.W.V.I.Z.Z.8. .c.y.B.r.y.r.r.r.i. . .8.8.p.#.#.e.e.y.#.] E                                                                                                                                                                                                                   ",
"                                                                                                                                                                . . . . . . . . . . . . . . . . . . . . . . X X # * $ ; 5 8 8 Y j l ,.~ z - < 9 3 ~ h l E h 2 e : 5 @ @ + + # + X X X X X X X X X X X X X X . . . . . . . . . . . . . . . . . . X X X X X O o o X X X X X X X X X + @ $ > ; ; ; : 0 5 : : = = : - = @ = = : 5 e e = = = = = : = - : : , , = , : h =./ x.z.D.@X[.$XeXQ.jX.X XeXeX.X}.`.wXrXJ.).{.Z.Z.z.] *.V u < < 9 z z z A 3 3 2 0 , = = : : = = @ @ = @ @ t $ @ = ; : 6 7 = @ 5 0 = @ = - 2 C C p u i f D O.+X[. X X X}.jXkXdXkXkXBXBXBXGXGXGXGXDXDXJXDXJXGXGXDXGXBXGXBXBXvXBXBXkXvX2XsXhX|.S.g g S I I O.J p @ & $ = - - < N >.OXo.oXD.[.[.I.@Xs.} L O. .Z.e.y.e.r.r.a.8. .8.e.e.z.#.e.e.y.a.u.$.~                                                                                                                                                                                                                   ",
"                                                                                                                                                              . . . . . . . . . . . . . . . . . . . . . . . . X $ $ ; 6 5 : : 9 3 k ! C 3 q 2 - 9 ! <.3 w 2 e : ; ; ; > $ + + + X X X o X X X o X X X . . . . . . . . . . . . . . . . . . . . . . . X X . . X X & o X X X X X X X X X + + @ > > ; : 5 6 6 , 7 : = 7 ; = > t 6 7 ; ; @ @ ; ; ; ; 7 = , = @ = e c ^ ] ( | e.'.I.H.K.wX XQ.AXFXrXmXSXhXSX8X,XyX/._.K.[.B.%.] J d V 3 2 2 2 4 < < q : = = - = = = = = @ = @ > @ $ @ 7 > 6 0 , @ = : 7 0 ; : = q 9 z s x B d D 0.D.I.Q.}.6X8XhX.X6XkXBXBXzXCXBXGXGXDXGXDXJXJXJXJXJXGXGXDXDXGXCXBXkXBXBXBXvXvXgXvXeX[.} g g S I l.{ *.4 @ @ ; @ : h N =.>.{  .D.f. .Z. .} H { u.oXy.y.e.e.y.y.C.e. . .r.e.a.#.e.e.y.C.e.%.'                                                                                                                                                                                                                   ",
"                                                                                                                                                              . . . . . . . . . . . . . . . . . . . . . . . X X $ > ; 5 : : : w 8 2 z C h 3 3 9 3 2 e 8 w : : : : = = @ + # X X # X X X o o X . . . . . . . . . . . . . . . . . . . . . . . . . . . . . . . . . X X X O X X X X X X X X X X X X @ @ @ @ $ ; ; > 7 7 7 ; > > > $ @ @ + @ @ @ $ > $ > ; @ = : 9 l ] ( oXu.i.h.r.A.f.A.[.K.W. X X}.6X8X8X6X/.>X4X>XE.I.[.p.S.G n a 3 : : 2 2 - - : - = = = = = = : - = = = ; > 7 7 ; 6 , + @ @ ; 5 y , = : 9 3 x V =.d f F i.r.H.(.6X}.}.dXjX6XmXdXjXkXkXBXGXGXGXGXJXJXJXJXJXJXJXJXDXDXGXJXDXCXBXBXGXkXBXjXvXdXdX XA.{ i g F D O.-.a < @ + @ @ - 3 p _ { D.y.8.'. ...G G { r.f.D.8.8.8.y.f.C.e.e.e.e.a.e.a.e.y.e.C.e.#.' l                                                                                                                                                                                                                 ",
"                                                                                                                                                              . . . . . . . . . . . . . . . . . . . . . . . X X $ > ; 0 r 0 : : q 4 q C v h h 3 2 8 q r 0 0 : = : : @ + + # # & & & % # X . . . . . . . . . . . & o o o o o o o & o o O O X X X X . . . . . . . . . . . . . . X X X X X X X X X X + + + @ $ > $ $ $ $ @ + @ + X + + + + + + $ % % % @ @ = - h N ] | x.u.u.D.a.h.C.D.Z.f.I.[.(.eXrX4X^.}.4X_.H. XV.[.C.[.z.:.( _ z 8 - = = = ; 7 ; ; = = = = ; : = - ; ; ; > ; $ ; ; @ @ @ 7 6 r , = 2 < h W B i i i -.v.9.n.L.!.E.2X2XdXjXdXkXkXkXBXdXBXBXBXJXJXJXJXJXJXJXJXJXJXJXJXKXCXDXCXBXCXkXBXkXvXvXvXsX6XQ.e.g g S S I oX-.x = X $ @ - < j b ` o.a.S.u.%.G G #.[.V.[.s.i.9.8.r.f.A.e.8.e.a.t.e.#.i.r.f.A.y.t.) m                                                                                                                                                                                                                 ",
"                                                                                                                                                              . . . . . . . . . . . . . . . . . . . . . . . X X # $ 7 5 w e 8 : : : 2 8 2 2 9 9 ! q e : : : 8 = = = = $ $ # # & & # # X . . . . . . . X o o o o X X X X X X X X X X X . X . X X X X . . . . . . . . . . . . . . . . . . . . X X X X X X + + + + + + + + + + + X + + # + + + + # + + + @ @ - q v ;.+.[ :.| { { e.{ D.y.[.Z. Xf.V.V. X{.{.{.W.I.K.W.Z.y.y.u.S.{ *.! e - = = = ; ; ; ; = : : : 5 : 0 0 5 7 5 7 > > @ + + = @ 5 0 8 - 3 < p ~ N V i n -.O.z.P.g.L.4X6X}.2X2XjX6XjXkXkXBXBXkXGXGXJXJXJXKXLXLXLXLXLXLXJXJXJXJXDXDXGXBXBXkXkXvXvXsXsX6X6X[.8.i f F F l.:.=.3 = @ = = < 1 N B H { H { ..( G +X|.A.V.Z.s.8.8.r.C.Z.r.e.e.t.#.#. .e.8.Z.Z.C.t.] T                                                                                                                                                                                                                 ",
"                                                                                                                                                              . . . . . . . . . . . . . . . . . O . . . . . . X $ $ 7 5 w w w 9 - - : - - : e c 2 8 8 ! : 8 : : C e 6 7 * # # # X X . . . . . . o o o o o X X . X X X X X X X X X X X X X X X X X X X O . . . . . . . . . . . . . . . . . . . . X X X X X X X X X + + X X # # # + + # + + + + + X X + @ @ = : 9 j Q / / G ( o.X.x.( { e.a.y.y.y.Z.h.'.Z.s.D.h.y.r.e.{ #.S.$.>.R c 0 = = = @ @ @ $ 7 ; 6 0 : r , , : ; @ + + + + @ @ ; : 0 8 , - - 1 ,.,.=.i i D H o.#XD.P.W.{.4XE.8X2XjX6XjXBXkXjXBXBXCXGXGXJXJXLXLXLXIXIXIXLXKXKXJXKXJXJXFXBXGXBXdXBXkXvXsXsXvXjX$X+XH g g S ..{ X.N 2 = @ = : - 1 b J ..:...d f S.tXtXQ.f.[.r.8.8.y.Z.A.y.r.y.e.e.{  . . .D.I.A.y.@.R                                                                                                                                                                                                                 ",
"                                                                                                                                                              . . . . . . . . . . . . . . . . . X . . . . . X X & $ ; : c c k 3 : : = = ; 5 5 8 0 2 2 - - 2 C ! C r y y y t # # X X X X . . X o o o X X X X . . X X + + # # # # # # # # + X X X X X X X X . . . . . . . . . . . . . . . . . . . . . . . . . X X X o o X X X X X X X X X X X X + # + & % ; @ = : q z C a a d n n K D ` D ( | u.{ { { D H { { o...{ G G b b M m E 2 = @ @ @ $ @ @ ; 7 ; 6 0 7 0 ; 7 7 ; $ + + + @ + @ = 0 C 2 - < x *.B d d u g D { i.r.Z.I.(. XE.2X6X}.2X6XdX6XkXBXmXBXGXBXJXJXKXLXIXIXUXUXUXIXIXLXKXKXGXJXGXFXBXBXDXvXvXvXsXgXsXjXwX{.h.g g F ..o.o.] p - = = = 4 p V J K =.` G ( %XtXmXeXA.f.f.8.8.f.'.A.y.r.a.p.#.( {  . .Z.A.A.a.| R                                                                                                                                                                                                                 ",
"                                                                                                                                                              . . . . . . . . . . . . . . . . . X X X . . . . X # $ ; : e c Y Y 9 9 : @ @ $ ; ; 8 c 8 2 - w 0 : 5 ; $ $ # + X X X . X X X o O o . X X X X + + + + + $ $ $ $ $ $ $ $ $ $ $ $ $ # + + X X X X X o X . . . . . . . . . . . . . . . . . . . . . . . X O X . . . . . X X X X X X X + # & % % % $ @ = , = - s p i u d i d i n f n d n n n K G f G f f d b i b a 1 p < - = = @ @ @ @ @ @ ; = : , : 7 = @ $ $ + + + + + @ ; : C q - - v _ =.,.D i g D L i.Z.V.K.K.`.K.eX}.}.jX2XkXkXkXjXDXzXGXDXBXKXJXKXLXIXUXUXUXUXIXIXLXJXJXJXDXFXBXDXCXkXvXCXvXvXsXvXsX4X{.'.I f K D } u..._ < 2 @ > , 3 p B J n n D e.ZXAX}.eXV.f.I.8.8.C.[.C.y.r.y.e. .{ (  . .Z.Z.I.C.@.R                                                                                                                                                                                                                 ",
"                                                                                                                                                              . . . . . . . . . . . . . . . . . X X . . . . . X # * 7 8 9 Y ~ ,.Y Y 0 @ @ + $ 7 ; w ! 9 8 = = = 7 7 > $ # X . . X . . X o o o . X X X + + + $ $ ; ; > 7 7 7 7 7 7 7 5 6 6 t t t $ $ $ # + X X o X X X X . . . . . . . . . . . . . . . . . . . . X . . . . . . O o o o X X X X X # # & & & & @ @ = = - < 1 a i g f H ( ( | | G n d g i d i i f g g u u 1 1 1 1 < - = = ; $ @ @ $ @ @ = = ; , > @ @ $ $ + + + + + = e C C 1 < p =._ G d i f D -.l.r.f.f.V.K.`. X^.2X2X}.jXdXdXBXdXmXGXBXDXGXJXJXGXIXUXUXUXUXUXIXIXLXKXJXKXDXDXBXBXVXkXBXBXkXkXgXsXsX8X4X[.h.i g ` F ..I >.1 4 @ > = - p u u n H C.I.`.E.^.4XE.r.f. .8.C.[.C.y.r.r.#. .| ( {  .C.I.Z.C.#./                                                                                                                                                                                                                 ",
"                                                                                                                                                              . . . . . . . . . . . . . . . . . X X . X . . . X X $ $ 8 9 Y E ^ E Y 8 = $ & + $ : 5 2 8 w : @ ; + + + X X X . . X o o o X . X X X + + $ $ ; ; ; ; 5 5 5 5 5 5 5 5 6 5 5 5 5 5 7 7 7 7 > $ + X X X X X X . . . . . . . . . . . . . . . . . . . O . . . . . . . . X . X X X X X o # & o X + + @ @ = - 3 p _ ] S.D.D.+X+XtX+X+X+X+X+X%X+Xp.z.x...l.X.:.` *.b u u 1 - - - ; > > $ $ ; ; ; ; ; 7 > @ @ $ $ + + + + @ ; 0 z < < u B W >.G n i f ..x.0.D.g.P.V.4XE.^.}.^.}.6XdX6XkXkXBXkXGXBXJXGXJXJXKXIXUXUXUXUXUXIXIXKXJXJXJXCXJXBXBXBXBXCXvXCXvXvXgX7XcX_.H.i.F i K K S P *.x = $ > : < < d b | +XA.W.4X8X8XE.`.W.r.} 8.h.[.C.f.y.r.p.%.( ( ( u.e.A.A.C.#.[                                                                                                                                                                                                                 ",
"                                                                                                                                                              . . . . . . . . . . . . . . . . . X X X . . . . X o # $ ; 8 k Y E E ~ 8 = $ + & + ; : ! ! <.! t * # + + X X . X . O O o O X X X X X 7 > 7 7 ; e 5 e 8 e 8 8 8 : w 5 5 8 5 8 : : ; 5 ; 7 6 ; 7 @ @ X X X X X X O . . . . . . . . . . . . . . O O . . . O . . . X O . O O X X X X X # X X X + + + + = 3 j ' :.D.A.W.}.}.jXeXlXeXAXlXeX.XK.W.$Xf.I.r.Z.i.u.+XoXo.H n 1 - - @ ; + + @ ; = = 0 = 5 , ; $ 6 & & & + @ ; w z 3 < p B *.G b n d K ..l.O.D.'.g.f.K.L.L.}.^.}.2X2XdXkXkXjXmXBXGXGXJXJXDXJXKXLXIXUXIXIXKXKXKXJXJXJXJXDXDXBXBXBXBXzXkXkXBXsXvXsXsX6X(.'.} g g f S -.*.x < @ > e c j d :.D.C.I.(.H.>X4XnX!.K.8.L 8.a.'.a.r.8.C.u.{ { G ( #.y.Z.V.C.e.) l                                                                                                                                                                                                               ",
"                                                                                                                                                              . . . . . . . . . . . . . . . . . X X . . . . . . X + @ @ : 8 k l E ~ 8 : ; @ + + $ @ : ; 6 t t t % X X X X . . . o o o o X X + @ > @ ; ; e y e 9 8 9 9 Y c k 9 e w w 8 c 8 e 2 e 8 e ; 0 0 ; 6 $ $ # + X X X X O X . . . . . . . . . . . . . . . . . O O . . . . . O X X X X X X . X X + X + @ = - 3 m S.D.[.`.4X}.2X6XjXvXSXjX6XcX8X4X4X}. X(.wXg.{.W.I.@X[.+Xe.>.N 3 - = @ @ > ; = - : - : 5 6 > > + + + + ; 0 ! ! < j B *.M ` i d i f F O.c.k.7.s.g.U.(.!.}.^.2X6X2X.XdXhXdXBXBXCXGXGXDXJXGXJXLXLXLXKXKXJXJXJXJXJXJXDXGXDXBXBXBXBXmXBXBXdXmXdXsX,X,X!.'.0.g g F g S ..B z = = 4 v B *.x.S.Z.g.(.rX_.4X^.4X X[. .r.r.C.a.C.r.8.z.{ { G ( {  .A.A.C.e.) E                                                                                                                                                                                                               ",
"                                                                                                                                                              . . . . . . . . . . . . . . . . . X X . . . . . . X # $ $ = : e c v h 2 = @ + + $ + @ @ $ $ $ % # * X X X X X O O X X . X X + @ ; 5 e w Y k k Y Y Y E Y l l k Y k Y 9 9 9 k k 9 9 9 8 8 8 8 5 5 5 7 $ + + X X X X O O . . . . . . X . . . . . X X X X X X X X X X . O X X X X X X . X X + + @ ; : < j / $.t.I.`.E.2X2X2XsXvX2XDXsX2XfX2XcXcXjX>X!.,X4XAXlX X4XQ.|.D.+.j 3 = , > = > - : - 2 e e 6 $ @ + @ @ @ 0 r z 1 u b >.>.>.J i i d f O.} i.9.k.j.'.H.(.E.}.}.2X}.dXdXjXkXkXkXCXBXzXDXGXCXJXCXKXKXKXJXKXKXJXJXJXJXJXGXDXDXDXGXBXBXmXBXBXmXkXjX8X2X<X!.n.6.I g S f F -.;.,.2 - < h a n H } r.g.r.H.{._.rXlX(.P.8.} 8.h.a.y.y.y.i.u.X.G G | #.y.Z.f.a.[ l                                                                                                                                                                                                               ",
"                                                                                                                                                              . . . . . . . . . . . . . . . . . . . X X . . . X X + + @ @ = : e ~ 3 C : : > + $ @ $ + + X X X X X X X X X o & & # X X + @ @ : 0 w Y 9 Y Y Y Q T T R ' R Q l T j T T Y k l j j 9 9 8 c e 8 : : 5 7 > $ + + X X X o O X . . . . . . . X X X . . . . . X O X X X X O O X X X X X . X X X + @ : 2 2 p b ` %.D.f.K.K.6X}.cXcXMXSXjXvXgXfX7XcX}.7XcXcXMXjX8X>X6X XjXQ.%X+X$.j - 4 y , - - - : w w e ; @ + + ; ; , r z x a M -.:.*.J i J i d g o.i.i.k.9.m.'.].(. X^.}.}.6XjX6XkXkXkXmXzXkXGXBXGXGXGXDXJXJXJXJXJXJXJXJXJXJXGXJXBXJXBXBXBXGXzXvXmXmXjXjX8X<X>X~.{.w.I #Xv.O.S g J ,.x - - p ~ B D L 8.P.P.[.(.L.eXwX(.K.I.6.} a.D.r.e.e.i. .( { ( {  .Z.Z.Z.e.| T                                                                                                                                                                                                               ",
"                                                                                                                                                              . . . . . . . . . . . . . . . . . . . X . . . X X X + + + @ @ ; 8 2 ^ 9 <.8 @ ; + + + X X X . X X X X X X + % % + X X X @ ; ; e c k k Y T T Q Q +.+.+.+.+.[ [ [ +.R Q T T l l k l h k 9 9 w : w : 5 7 > $ @ + X X X X . . . . X X X X X O X . . . . . . X o o X X X X X X X X . X X X + @ ; 0 q 9 p ` X.{ y.A.{.`.^.,X,X:XjX2XVX6XvXvXjXdXMXsX>X}.jX2X6X6XjX X XW.f.a.:.M p z ! 4 - : < 2 e c 8 ; @ + @ @ = 4 z s u b ` X.x.G f f J i f F L i.k.k.7.k.'.P. X`.^.}.2X2X6XdXdXdXmXkXzXkXBXGXCXCXJXGXGXGXJXGXDXGXJXJXJXJXJXGXDXDXGXBXGXBXBXCXkXdXkX6XjX8X>X~.).d.w.v.4.0.S S D ] OXp 1 < p a J ..L } L 9.I.wX4XL.J.4X{.r.r.h.h.e.e.e. .u.o.( G { #.a.Z.f.B.| T                                                                                                                                                                                                               ",
"                                                                                                                                                              . . . . . . . . . . . . . . . . . . X . . . . X o # # # $ $ $ > : c 9 c 9 ! 0 r ; + + X # X X X X X X X + % t > + X + + ; : 8 w Y Y T T Q Q +.+.+.S.1.1.S.1.S.1.1.+.[ R R R T T T l l 9 h k 9 w 8 : : : ; $ @ + X X X X . . X X X . . X X X . O o . . . . X X X X . . . X X X . X X X @ ; 2 q v x =.-.G %.a.D.Z.{.W.E.eX4X^.2XjXjXvX}.6X}.E.}.cX}.4X6X}.4XE.{.I.g.f.} u.M p h q C < 3 3 3 2 2 ; @ @ + = = - 4 1 1 d ` ` -.:.` f i i n D ..0.i.k.q.m.d.n.d.(.K.`.}.}.6X2X6XjXdXkXkXvXBXkXCXBXCXBXCXGXGXJXGXJXGXJXJXJXDXGXDXDXDXGXBXCXzXBXCXkXkXkX6X}.^.>X_.).n.w.#XpX4.F S g d H d p < 1 x a n x.{ oXj.'.g.U.{.!.L.4Xr.} r.D.y.e.e.e.e.| X.( H  .C.C.Z.e.$.W                                                                                                                                                                                                               ",
"                                                                                                                                                              . . . o o . . . . . . . . . . . . . . . . . . X o X X + + + + @ ; : 9 2 c 2 e 5 ! 6 % # o X o X o X X + 7 > > @ X + $ 7 8 e k Y Q Y +.R +.[ [ 1.1.F.G.G.F.G.&X&XF.F.B.1.+.1.+.+.Q Q l l k h c 9 e 2 : : ; ; $ + # X X . . X X X X . . . . . . O O O . . . X X X X X X . X X . . X X X $ 6 w c v m W _ M ..o.D.8.9.r.A. XeX6XeX}.}.2X2XjX8X6XnX/.6X6X_.4X4X].g.P.m.7.F L H b v v ~ h h k 3 - = ; @ @ @ ; : 2 3 1 a J ` :.D -.J K i g U S F 0.0.q.w.d.n.q.J.I.Q.E.}.}.2X2X6XdXdXkXkXkXkXzXBXCXBXBXBXCXBXGXGXGXGXDXDXJXGXDXGXGXBXBXBXCXVXsXvXkXjXjX4X6X}.}.!.R.n.w.5.5.5.I P H f ..g a Z < < ~ M n ..H r.9.'.U.(.-X>X4XV.r.f.C. . .e.8.e.o.( ( ( #.a.h.f.a.$.W                                                                                                                                                                                                               ",
"                                                                                                                                                              . . . o o . . . . . . . . . . . . . . . . . . X o o # + # + + + $ 5 : 8 c ^ c : ; ; @ % * % * X X X X % t t % + + @ ; 8 e k l T Q +.+.[ +.&.F.B.B.1.B.&X&X|.&X%X&X&X%X&XG.&.1.+.[ Q ' l E k 9 h 9 8 0 5 : ; $ $ # # X X . X X X X X X X X . . . . O o X . X X X X X X X X X X X X X X @ 0 ! ! ~ N _ b M ( X.u.z.D.[.I.f.V.K.^.jX}.SX}.}.4X4XH.`.H.L.L.{.b.b.d.4.7.k.9.F ( n j ~ ~ k 9 l 3 < = 4 = : ; : : 2 3 p J ` M.-.D K i i J f g S I 0.v.7.q.d.d.d.g.(.V.}.^.}.6X2X6X6XdX6XjXdXkXkXzXCXCXCXCXCXBXGXDXGXBXGXBXGXDXGXDXCXDXBXBXBXkXBXkXdXjXjX6X2X}.}.!.-XJ.w.m.m.w.4.P l.L F uX*.p 1 < 1 b b f H 8.9.g.f.g.H._.`.I.f.r.h.a.e.e.e.e. .( ( G  .e.h.C.a.%.'                                                                                                                                                                                                               ",
"                                                                                                                                                              . . . . . . . . . . . . . . . . . . . . . . . X o o X + # + + + @ > : 0 w w 9 2 - : r t # X . . X + @ 7 t 7 + @ @ ; : w k l T Q +.) 1.&.1.B.B.G.G.|.G.%X|.%X%X.X|.|.aX|..X%XF.G.1.+.' T l Y h k w e w e e ; $ $ $ # + X X X O . . X X . . . . . . O X o o o O X X X X X X o o X X X + > r w q z p l j m -.>.o.u.D.f.'.{._.4X}.2X2X}.}.^.}.H.H.b.q.d.9.q.6.7.s.d.d.q.9.j.} D n a 2.3 h 3 < < C q < C - < 1 Z 1 OXH M.OXK D d d f J g S S P I v.w.w.7.q.d.b.U.K.Q. X}.}.6X6X4XdX6XjXmXdXkXkXBXBXCXkXCXCXBXBXBXBXGXGXGXBXGXBXGXGXGXkXkXkXmXkXkXjX6X6X}.<X}.>XR.n.w.n.m.w.n.I 0.l.S D oXOXb p 1 b *.` o.e.[.K.{.L.rX_.4X{.s.r.h.u.p.t.a.e.%.{ H H  .p.C.D.r. .M                                                                                                                                                                                                               ",
"                                                                                                                                                              . . . . . . . . . . . . . . . . . . . . . . . O X # + + $ $ + + @ @ @ , w c 9 9 e y 6 $ # # . . X + @ 6 t $ + + @ ; e k h T R R +.1.@.&.S.F.G.G.|.|.|.|..XaX.XhX.X.XXXxXaXxXaX%X&XS.1.[ T Q k k 9 w e 8 5 5 ; $ $ $ + + X X O . . X X . . . . . . . . X X X X o & # + X # o o X X X + 7 r 0 2 3 3 3 h p a M ..H e.r.'.I.eXSX}.mXSX6XkX6X6X!.tXU.].{.Y.L.(.(.wXtX{.wXH.I.[.u.g ;.N E h < h ~ x 1 ~ p x v < Z B ` oXx.H f f d g J f S g S I 4.0.4.w.w.k.g.g.I.K.I.W.`.^. X6X6XjXdXjXdXjXkXkXkXkXBXkXBXBXCXBXGXBXDXCXBXGXBXGXCXGXBXzXBXvXkXhXkXhXdX6X}.^.^.4XR.w.7.m.m.qXw.4.6.0.0.S S.HXZXb a u B ` x.D.I.$X{.4XH.4X`.(.9.8.c. .e.a.C.e. . .{ H { u.a.Z.h.e.]                                                                                                                                                                                                               ",
"                                                                                                                                                              . . . . . . . . . . . . . . . . . . O . . . . . X # + + $ $ + + + + + ; 8 e c ! ! r ; + + & X . X @ : 6 > @ + @ ; 5 e Y T T +.+.+.$.F.F.B.B.G.%X|.F.Q.%X.XhXxX.XhXxXhXhXaXaXxXHX&X&X&X1.+.[ T Y w c 9 8 5 5 5 ; $ $ $ # X X X . . X X X X . . . . . . X X X X o & # + # # & # o X # + ; r 8 - - 1 1 1 p a u i H D 8.Z.I.I.I.eXA. XeX6X}.4XrX_.4XJ.>XL.!.L.4X4X=XrX8X>XwXW.D.| M _ p W l p N x W j ' ' ,._ =.d OX....D g g i J K g f U S I P 0.v.w.7.q.s.s.'.W.W.Q.Q..X}.6X4XXX6XdXdXdXdXkXkXkXkXkXCXkXBXkXBXCXBXBXBXCXBXBXBXzXCXkXkXkXjXmXjXdX2X2X}.>X_.~.;Xn.5.m.m.w.w.7.l.l.P I L F.%XS.d u u n ..O.i.Z.Z.I.{.L.L.9.H.A.h.e.y.y.B.t. .{ H ( {  .e.y.h.u.$.                                                                                                                                                                                                              ",
"                                                                                                                                                              . . . . . . . . . . . . . . . . . . . . . . . . X # + # $ $ + + + X + @ @ = 2 8 : @ @ + # # X X X ; 6 6 @ + + $ 5 : Y Y T [ +.+.1.1.1.F.F.F.|.|.G.|.xX|.hXaXxXxXzXhXzXxXGXKXHXIXIXIX%XG.S.+.T E l k 9 e 8 8 ; ; ; > $ + # X X . . X X X X . . . . . . X O X X X X # + # # # # # # + $ ; 2 - - < < 1 u B b G o.} e.} r.f.A.A.[.Q.FXAXKXSXjX}.5X,X8X!.4XL.rXT.rX<X8X<X/.5X{.{.+XG d =.a W W u j OX>.m ,.b *.b OXG ` D f D S D K U f g g F S I l.4.w.7.j.9.n.r.I.V.`.Q.Q..X.X}.4X.XdXjXhXkXhXhXzXhXkXkXBXkXCXkXCXBXBXBXCXBXBXBXBXBXBXkXhXkXdXjX.X4X}.}._.>X).J.n.5.w.w.m.7.4.v.I P i.L D.+X] b B b d i F L 6.f.s.H.H.g.L.g.I.r.e.e.C.B.a. .{ D H {  .e.y.h.a.$.                                                                                                                                                                                                              ",
"                                                                                                                                                              . . . . . . . . . . . . . . . . . . . . . . . X X # # # $ $ $ + + + @ ; ; = = = = = > 7 + + X + $ 6 r 7 + + @ ; 5 w Y ~ ;.Q +.1.S.S.S.1.F.F.F.|.|.%XhX.X.XhXhXhXzXhXhXZXZXKXIXIXIXIXHXaXG.1.1.l E k 9 k e 8 : 5 7 > $ + # X X X . X X X X . . . . . . X X o o X X X + # # # X + + + @ ; 0 3 < h W b M G &.a.a.A.V.V.W.K.W.Q. XzXK.Q.V.A.}.^.:X/.J.4XT.)._.).~.T.,X~.<X_.eX X'.o.g n B ,.B i d / $.>.*.G i -.:.-.K F f F HXoXl.F S S g g S P I 4.7.w.7.7.7.'.I.I.A.E.Q.Q.}..X.X6X6XhX6XhX6XdXkXkXkXkXBXmXzXBXBXBXzXzXzXBXCXBXmXzXkXzXhXdXdX2X6XXX6X_.).).-XR.w.m.iXw.5.5.0.P l.I #X+XH S.d *.*.-.` ..L L } s.U.d.g.!.{.W.g.9.8. .h.C.p. .o.H G ( e.e.y.y.a.]                                                                                                                                                                                                               ",
"                                                                                                                                                              . . . . . . . . . . . . . . . . . . . . . . . O X o + + $ $ $ % $ + + @ ; = @ = 5 0 6 > + + X + > r 6 ; + + @ ; ; e Y Y T [ +.[ 1.&.S.&X&XF.|.|.%X.X.X.X.XxX.XaXxXhXzXCXCXKXIXIXIXIXCXxX|.G.F.+.T l k 9 9 9 8 8 5 ; $ @ + + X O X X X . . . X X X . . . . X o o X X X # o X X X X # + @ q ~ E ' >.M ) z.F.y.eX4X4X XK.E.eX6XeXA.lXjXmXmX>X8X:X8XL.T.-XY.d.R.L.).5X!.5X4X(.$X'.F g n =.K >.i B X.S.S./ H f F K f D f l.ZXc.0.l.O.S S g S S S I I 0.4.7.9.j.j.P.V.I.{.E. X^.}..X}..X6X6X.XdXkXhXkXkXhXdXzXdXkXkXkXkXzXzXzXkXhXhXhXhXkXdXdX2XdX.X}.4X_.4X-X-Xb.4.m.w.5.w.4.0.I g S iXpXH %.b *.J n M.oXc.Z.Z.wX{.(.4X4XwX{.I.r.} h. .a.p.u.o.H G (  .8.y.y.a.)                                                                                                                                                                                                               ",
"                                                                                                                                                              . . . . . . . . . . . . . . . . . . . . . . . O X o + + + $ $ $ $ % @ ; : : e w ! r 7 @ X X X + t r ; @ + + @ ; ; Y Y Q +.[ 1.1.S.F.S.G.F.|.|.|..X.XxX.XxXhXxXhXzXxXhXZXZXHXIXIXKXCXCXCXxX|.%XOX+.T Y k 9 9 e e 0 : ; $ + + X X X X X . X X X X X X X . . . X o X X # # X X X X X + ; = - ! ,.,.] :.{ S.Z.wXA.}.5X^.MX4XK.K.4XkXmXFXmX6XMXrX5Xb.).U.Y.Y.n.d.b.d.J.L.L.rX(.'.h.S S L ..-.K -.f x.%.G G H O.O.S -.D x.c.i.qXk.P l.g g g g S S I I P 0.k.q.9.s.s.A.I.K.W.E.`.}.^.6X.X}.kXhXhX6X6XjXdXjXmXdXzXhXkXzXmXdXkXkXBXkXzXdXdXdXdXdX6XXX.X}.4X4X{.-Xn.4.].iXm.m.m.v.0.0.I P } ZXD n d J B K -.} } I.tXwXH.!.rX>XrX_.K.6.r.} y.e.p.x.{ H G ( { e.C.C.a.$.                                                                                                                                                                                                              ",
"                                                                                                                                                              . . . . . . . . . . . . . . . . . . . . . . . X X # # + $ $ $ > $ > 7 : 8 c ~ ! r 0 > @ + X + $ t r $ + + + @ ; : e Y Q +.Q +.+.1.S.B.F.G.|.|.|..X.XhXxX.XhXhX.XaXxXCXxXGXHXHXKXHXGXCXxXCXaX|.S.&.+.^ T k 9 9 8 8 8 5 ; @ + X X X X X X X X X X . X X X . . . X X X o # X X X o + + @ = q ~ ~ ' -.x.o.z.Z.W. X4X/.8X8X8X!.}.>X2XjX^.mXrXcXrXrXT.L.b.Y.b.d.{.-X(.).4XJ.H.U.P.P P F c. . .H f x.{ x.G H c.l.l.L U f D oXi.m.iX7.4.S S g g S I I P 0.I 7.k.9.k.s.Z.Z.Z.Q.E.`. X}.6X}. XeX.X.X.XdXdXhXhX6XhXdXhXdXkXhXzXhXhXdXkX6XdXdXdXdX6X6X6X.X2X}._.-X].7.w.tXw.d.w.w.4.0.L l.L u.i.oXD n d B D f H } I.f.W.`.L._.<X_.rX(.f.P e. .y.e.u.{ ( D (  .e.f.f.e.X.                                                                                                                                                                                                              ",
"                                                                                                                                                            . . . . . . . . . . . . . . . . . . . . . . . . X X # # $ + $ $ @ 6 0 : w e ! w w : 0 $ + X X + $ 7 t @ + @ $ $ ; e e Y T Q [ +.+.1.&.F.B.F.&X|.|.hX.XhX.XxX.XzXxXaXzXxXxXxXCXCXHXCXCXxXCXaX.X|.&X&.&.;.l l k 9 8 8 e 6 ; $ + # o X X X o o X X X X . X X . . . X X o X X X . # X + + = - < x N m b J ..o.S.f.K.4X>XrX5X6X}.jX4XjX}.}.SXFX6X4X).J.-XL.{.yX4X4XrX5X-Xb.J.s.H.g.6.6.i.y.+XD.L  .x.u.o.x.#Xe.D.L u...D f S P #Xv.4.l.S g S S I S P I I 0.v.6.k.c.s.P.s.Z.V.W.E.Q. XQ.6X X XQ..X.X6X6XhX6X6XhXhXdXkXzX6XhXXXhX6XhX.XhX6XXX6X6X^.6X^.}./.eX(.4.4.].qXn.w.w.I I F 0.} } D.} o.-.n d f f { x.h.[.wXZXwXrXrX5X4X4XeXW.9.8.y.y.e.8. .H D (  .y.r.e.p.:.E                                                                                                                                                                                                             ",
"                                                                                                                                                            . . . . . . . . . . . . . . . . . . . . . . . . X X # # 7 ; 7 > @ ; = : C q e : 0 0 6 @ + X X + $ 7 $ + + + $ $ ; e e Y T Q +.+.+.1.B.1.G.&XG.|.|.|.hX.XxX.XxX.XxXxXxXxXzXxXzXxXCXCXzXzXCXaXaX|.F.G.1.+.T Q k 9 Y 2 8 8 : $ + + # X X X X X X X X X X o o O X X X X X . X X . o X + @ - z 1 p a b W d G X. .r.A.E.4X>X>X}.6X^.^.E.}.mXV.!.K.~.4XL.~./.>X/.yX5X~.b.b.H.Y.9.H.s.k.9.Z.I.W.$XZ.r.D x.} z.z.D.8.h. .oXx.D O.I S 0.4.4.I S g g S S S 4.P 6.v.0.k.9.9.j.j.f.I.V.{.E.Q. XXX}.}.eX.XXXXX X.X6XhX.XXXhX.X.XhX.XhX.X6XhX.XXX.X6X}.6X6X4X6X^.6X).7.7.7.w.7.4.4.7.I P I F S } c.l.x.:.d G { o.F L 9.} 6.g.g.g.H.T.!.rXwX{.k.6.r. .e.e.o...G ( | e.a.a.u.] T                                                                                                                                                                                                             ",
"                                                                                                                                                            . . . . . . . . . . . . . . . . . . . . . . . . . X # $ ; ; 7 7 @ @ = - 2 2 2 : 8 : 7 + X X X + 7 7 $ + + + $ $ ; 8 e Y E Q +.+.+.1.1.1.B.F.F.%X|..X|.%X.XxXhXhX.XhXxXxXxXzXCXCXzXzXCXaXCXxXzXG.|.F.B.+.+.R T l k w 8 8 5 ; $ + + X o X . . X X X X X o o o X X X X X X X X . X X @ e ! N j p b 1 u a p / )  .C.I.`.}.2XjXcX}.jX.X2X}.4X4X4X/.~.~.:X5X:X<X>XnX5X-Xb.q.9.9.9.s.s.j.P. XV.I.s.h.r.F O.L { o.+X+X+X( o.K -.S I l.v.6.S l.S F g S 4.I I v.0.0.4.k.9.j.j.g.Z.I.Z. XK.`.Q. X`. X XQ..X.X.X6XXXXXeXXX.X.XQ.XX.XG.XX X6XXX.X^.}.4X}.}._.rX-Xq.4.].iXiXw.w.4.5.5.O.U L F  . .O.o.H H H  .e.+Xc.h.s.s.6.6.6.6.q.H.b.H.Y.j.j.k.8.e.8. ...H H { e.r.y.a.>.m                                                                                                                                                                                                             ",
"                                                                                                                                                            . . . . . . . . . . . . . . . . . . . . . . . . X X # $ ; ; ; : ; = = - 2 2 : 2 5 ; $ + X X X + $ 7 $ + + + + $ ; 8 e Y T Q +.+.1.1.1.S.B.F.&X&X&X&X%X|.%X|.aXaXhXaXaXxXhXkXhXkXkXzXzXxXaXaX|..X%X%XG.1.1.[ T E 9 k 9 9 8 : $ # + X X X . . X X X . . X X X X X X X X X X X X + + : ! ;.>._ M >.a p 1 1 a [ ( t.Z.`.}.}.2XdXjX}.dX}.6X,X>X^./.<X/.*X/.7X,XyX4X).J.J.g.7.d.Y.'.j.Y.qX X4X[.r.Z.} S I K -.F L u.a.z.{ l.-.-.U S P P F P I I S I I 4.4.P c.4.0.P '.k.k.j.P.P.Z.I.K.V. XQ.Q. X X6XQ.6X.XeX.XeX.XXXXX6XXXhX.X.XhX^.XX6X}. X4X4X4X4XtX].q.4.d.pXd.n.4.m.5.5.l.U U D D u.z.0.O.H #X#.e. .L P '.wXiXtXtXAXAX_.^.H.g.g.Y.n.'.f.r.8.0...H ( { #.C.C.p.] E                                                                                                                                                                                                             ",
"                                                                                                                                                            . . . . . . . . . . . . . . . . . . . . . . . . X X + $ 5 6 5 5 : = : : : 8 2 0 7 $ + X X X X + $ $ + X + + + $ ; e e Y T T +.+.1.+.1.1.B.F.G.&X|.&X|.|.%X.XaXhX.X.XaXxXxXzXkXxXxXxXxXxXaXaXaX|.G.|.F.F.+.1.m T T h 9 9 8 : ; $ + X X X X X . . . . X X X X X X o o # # X X X + @ w ;.OXS.%.:.M ` a a j a M H  .e.[.E.6XjXvXmXdXmXSX}.}.<X:X8X:X<X7X7X9X,X~.=XR.R.b.n.b.-Xg.].n.{.J.(.4Xd.P.9.c.0.S g -.S D S.oX{ { -.l.S -.iXH D.c.0.#Xl.N.4.S c.4.4.I 4.0.c.7.9.j.i.s.r.P.V.K.W.I.W. X X X.X[.Q.`.XXXX|. X`.XXQ..X.X XQ.XX6X.X X4X XrXrXeX].Y.I 4.m.w.7.m.4.v.v.5.v.U S M.( ( a. .c.S S z.oXD.f.Z.} P F 6.9.P.tXtXnXMXnXrX4Xd.g.H.f.8.8.x...H ( | u.y.y.a.$.l                                                                                                                                                                                                             ",
"                                                                                                                                                            . . . . . . . . . . . . . . . . . . . . . . . X X X + ; 6 w e 8 8 ; 7 ; ; : : 5 > + + X X X X # $ $ + X # # # $ ; 5 e Y E T Q +.+.+.S.1.F.F.G.&X&X|.|.|.|.%X.X.X.X.XaX.X.XxXhXhXhX%XxXxXaXaX|..X|.|.&XG.1.$.+.Q E l 9 9 8 : ; $ + X X X X X X . . X X X X X X X o o o # X + + @ : Y ' @.D.p.x.X./ -.b u u n G x.i.{.W.}.6XsXVXVXFX4X}.4X8X7XfXfX9XMX*X,X8XJ.J.4X).T.-X).!.=X-X).R.).J.{.Y.P.k.P oXI U i f ..X.X.x.z.L F K K D uX#Xi.N.4.v.4.uX6.4.I I I P I 4.i.k.k.9.h.9.Z.A.[.W.K.V.A.W.B.[.W.[.Q.eXQ. XQ. X`..XXX`.^.Q.E.E.}. XeXwXwXU.b.b.4.n.qXqXn.w.k.m.v.I I I O.D D f G { S.0.D H o.a.y.$X[.@XZXwXU.g.g.s.b.L.:X>XyXrXL.L.L.P.8.} 0...( { (  .a.y.#.] W                                                                                                                                                                                                             ",
"                                                                                                                                                            . . . . . . . . . . . . . . . . . . . . . . . X X X $ ; 6 w w 8 w 5 @ $ ; ; @ + @ # # # O X X $ > $ + X # # # $ $ 5 9 Y T T Q Q +.+.&.1.1.1.G.F.F.%X|.|.&X%X|.%X%X%XeX%X.X.XaX.XxXxXaX|.aXhX.X.X%X|.|.G.F.[ 2.' l E h 9 8 5 ; $ + X X X X X X X X X X X X X X o o o X # X & @ = : E +.p.B.C.t.%.( -.-.n f f S 0.8.r.{.}.2XVX8XVXjXE.6X>X^.bXcXfXbX7X8X8X/.!.T.~.<X<X<X:X*X*X5X*X-X;XR.b.].g.9.N.'.'. .H u n *.` oXD o.l.f ` ..D O.P v.N.pX7.N.N.v.c.4.4.4.6.I 6.i.k.h.i.'.9.j.s.I.{.A.A.[.[.A.Q.W.Q.K. X X X|.Q.Q.Q..X}.Q.Q. XeX4XeX4Xd.d.7.4.7.m.pX4.w.w.7.5.S S l.I S F G M S.F.#.} S F H u.8.8.I.f.rXmXjXeXAXAXnX/.J.H.H.b.R.J.-X[.f.} } o...( ( p.e.e.u.] l                                                                                                                                                                                                             ",
"                                                                                                                                                            . . . . . . . . . . . . . . . . . . . . . . . . X X + $ 5 w w e w 8 ; @ @ @ $ @ $ # o o o . X # > $ + X X # # $ $ e e k Y Q Q Q Q +.1.1.1.S.G.G.F.G.&X&X|.|.|.|.%X%X%X%X.X.XxXaXaX%XaX%X%X|.|.%X%X|.|.G.S.&.1.;.T l k k 9 8 ; $ + # o X X X X X X X X X X X X # # # X + + & $ = - E m S.#.e. .H u.o.( :.H S L L i.g.g././.sXfXsXsX>XE.,XcXsXbXfXbXcX9X/.L.T.*X:X<X7X,X3X1X:X3X~.=X).;Xb.Y.d.q.'.'.j.C.S.x.i d f H x.o.H ..D ` M.F F P 0.I c.I I @Xc.k.0.i.6.6.P i.I D.6.9.'.f.g.f.Z.[.V.V.A.A.V. XW.K. XQ. X XQ.[. X`.K.{.H.W.(.L.H.d.4.7.w.w.N.#Xw.w.4.4.4.l.v.P S x.H K D x.+XD.e.D H { H D.h.6.9.V.r.^.^.!.4XrXnX5X,X8X<X~.J.b.H.P.I.h.0.0.H G | #.e. . .) l                                                                                                                                                                                                             ",
"                                                                                                                                                            . . . . . . . . . . . . . . . . . . . . . . . . . X + + 5 y k k Y 2 : = @ @ @ % * o O O X X X + $ + X X o # # $ ; 5 8 k Y Y T ^ +.;.+.+.1.1.1.B.G.G.G.F.&X%X&X|.|.|..X.X.X.X|.aX.XaX.X%X%X%X%X%X%X|.G.F.G.1.[ [ Q Q l k 8 w ; + % X X O X X # X X X X X + X # X + X X + $ > > ; 2 h m $.) %.{ S.D.8.D. . .} L i.9.Z.s.K.^.SX8XcXrX4X:X:XcXmX8XcXcX<X~./././.1X1X3XfX3X1X8X,X<X8X;XR.-Xd.d.].q.7.m.j.{.A.+X{ D d f M...D n M.:.H O.x...L o.} z.0.0.0.i.0.P '.'.9.} $Xx.P P S 0.+Xj.@Xg.P.H.s.U.V.V.V. XQ.K.K.{.I.[.g.{.iXb.wXqXb.b.4.P w.Y.AXiXtXm.4.4.4.k.6.0.L O.f G H n :.%.a. .u.f H o. .} '.[.'.6.9.g.K.g.H.g.].-XcX3X:X:X*XT.q.s.g.'.8.L L ( | u.e.e.e.] j                                                                                                                                                                                                             ",
"                                                                                                                                                            . . . . . . . . . . . . . . . . . . . . . . . . . . X + 5 y Y ! ^ Y c : = ; > > & X & o X X X + $ + X . X # $ $ ; : e c Y Y T T Q Q +.+.1.1.1.1.B.B.G.G.&X&XG.&X|.%X%X|..X|.xX%X%X%X.X.X%X|.%X|.%X%XF.F.1.S.1.1.' T k 9 c : @ 6 + # + o X X + + X X + + + # $ X X # # $ $ > > ; : 9 j ' *.` ( z.D. .e. .8.h.8.8.i.h.g.W.}.8XvX:XSX/.6XsXsXvXmXVX8X<X/.:X1XNX3X3X3X1X7X*X1X,X-X;XT.R.].b.w.n.d.d.d.@XP.P.g.h.D.uXg d D *.>.n f D ......( o.H F H 0.i.i.I c.c.F i.iX} O.c.c.i.0.P 6.9.s.g.s.HXZ.'.@X'.[.I.I.{.f.@Xj.HXiXY.].n.7.7.4.n.m.tXY.].7.4.I 4.k.v.0.0.} O.H D >.[ n ..{ S.z.f f ( H u.L #Xs.d.Y.yXrX4X`.H.g.b.4X8XbX3X1X7X8Xb.g.s.g.s.8.} H o.u.e. .#.] l                                                                                                                                                                                                             ",
"                                                                                                                                                            . . . . . . . . . . . . . . . . . . . . . . . . . . . + ; w ! ~ Q l ! 5 : , ; @ @ $ % # X X X # & o X . X # # $ ; : 8 w k l T T Q Q +.+.+.+.1.1.B.1.F.B.F.G.|.F.%X|.|.|..X%X|.%X%XaX|.%X%X|.|.|.|.G.G.F.S.B.@.+.' Q ^ k 2 ! ; = @ + + + > + + $ + $ + $ $ + + # + + $ $ $ $ $ ; : 9 9 j m n ( X.D.e.S.D.D.y.} '.c.9.s.g.L.6X}.MXnX^.8X2XSXcXMX:X}.,X<X/.9X7X7XNX7X1X7X<X=X>X).4XR.].b.d.].n.m.7.].d.P.f.wX@X'.h.z.o.i f D ` n ` H n ` K ..-.K S F L F c.L M.ZX .L iX%X8.iXr.9.tXAXq.9.s.9.7.P k.6.'.#Xh.9.iX9.9.7.k.w.7.4.I 4.m.qXqXAXw.q.m.m.4.'.k.4.4.S F S U f -.G d -.{ x.z.M.f D n x.{ } 6.'.4.s.tXtXrXrXrX).T.d.T.,XcXbX9XcXT.(.(.U.Z.r. .{ | u.e. .| ) Y                                                                                                                                                                                                             ",
"                                                                                                                                                            . . . . . . . . . . . . . . . . . . . . . . . . . . X # $ r ! Y k 9 e : = = = @ ; 7 $ + X . . o & o O X o o # $ $ 5 0 w c Y E E T T +.+.+.+.1.1.S.1.1.G.G.&XF.|.F.|.|.%XhX|.xX%X|.|.%X%X|.|.|.|.|.%X%XG.F.B.&.S.R ' l E h 2 2 = = ; @ : ; ; : ; 7 > > $ + $ + + + * $ $ $ $ $ ; : 8 9 3 h j _ ` x.z.z.a.8.Z.Z.f.9.s.r.[.g.f.mX^.4X>XE.FXcXvX2X}.6X6X,X7X8X:XcXfX3X7X*X*X5X=XT.R.n.b.d.b.b.].Y.Y.7.n.Y.qXY.[.P.'.D.a.#Xf g G K n n -.K d D >.f g K f K M.S F D oXx.F } +X+Xh.+X9.} '.#XP 7.c.#X0.6.P 6.h.P 7.0.6.6.P k.7.tXm.qX@Xm.w.4.n.k.7.m.#Xj.7.P I I U M.l.H n n ` (  .S.uX..g n :.| oXoXL P.Y.q.q.].nXrX8X~.5X8X=XJ.=X8X8XSX4X!.-X].I.r. . . .u.e. .| [ l                                     l m N                                                                                                                                                                   ",
"                                                                                                                                                            . . . . . . . . . . . . . . . . . . . . . . . . . . . + @ ; e 9 9 2 - - = = : 5 5 ; + X X . . o & X X X o X # # $ 7 7 e e Y Y T T T +.+.+.+.+.1.1.&.B.B.G.G.F.F.F.|.%X|.|.|.|.|.|.|.%X|.|.|.|.F.G.|.G.F.B.&XS.$.>./ ' j h h 2 3 c 8 h 3 9 2 8 0 0 5 > 6 @ + + $ $ $ $ @ @ @ @ = ; 5 2 3 3 3 a B -.X.S.a.+X[.f.[.h.'.9.P.H.W.4XAXrX^.}.vX2X8X:X8X6X8XcX1X8X9X9X7X,X:X,X=X~.=XT.;Xb.b.b.R.n.n.].m.].n.b.].d.@Xg.g.$Xh.+XS.G f D d D J G OXn d OXOXg f n K -.l...H oXpXL H  .} #XHXiXi.P 0.i.#X#X'.HXKX@XiXHXiX9.9.'.#X@XtX@X].d.d.4.7.d.4.7.#X0.v.4.I F F L z.x...D i G S.+Xe.e.{ D K -.oX| #.e.L @X].m.9.b.rXyXcX3X/.*X8X4XJ.T.>X8X5X!._.).{.f.8. . .8.e. .| [ l                             x W M G H H ( X.[ M                                                                                                                                                             ",
"                                                                                                                                                          . . . . . . . . . . . . . . . . . . . . . . . . . . . . X + @ : 2 2 2 3 z h 9 9 e 5 $ + X . . X o # X X X + # + # $ > $ 6 8 c Y T T T R Q Q [ +.+.+.+.1.S.&.B.S.F.F.F.G.|.|.%X%X%X|.%X|.|.|.|.%X|.|.|.F.&XF.&.&.[ / ;.R m 3 E h l E ,.E ~ l c c 2 ! r 6 ; + @ $ @ + > @ @ @ @ @ @ ; : : : - < 1 p m _ %.#.D.I.8.r.k.s.+Xj.g.9.H.4XrX^.sXvXvXsX:X}.jX7X7X/.:X*X5X8X*X*X=XT.~.J.R.n.n.b.qXb.n.n.Y.n.Y.b.d.qXY.Y.{.[.P.tX[.Z.a.z.f G ,.f ` ` -.` i ` OX-.g d f K -.M.K -.oXo.{ } O.0.pXuX@XiXi.0.'.c.6.} 6.9.j.6.6.j.'.j.'.tXtXm.qXm.HXm.k.m.#X0.0.6.0.L L oXu.S.{ H D D S.#.a.%XS.H ..-.G H { +XZXf.f.tXY.g.d.s.~.cXNX7X<X5XnXyXL.J.<X8X=X>X-X(.f.8. . .e.e. .| / l                         h B G o.u.0.9.i.i.a.i.u.X.M                                                                                                                                                         ",
"                                                                                                                                                          . . . . . . . . . . . . . . . . . . . . . . . . . . . X + @ ; 8 k Y E E ~ ~ Y Y e $ # X . . . X + @ @ @ + + + + $ $ $ 7 r e Y Y k T l T R Q [ +.+.&.&.+.&.B.1.S.B.G.F.|.&X|.|.|.|.%X|.|.|.|.G.G.|.|.&X&XB.B.&.) #XuXb OXa 2.j 2.' 2.j ;.W =.Y v 9 c y ; ; @ @ ; ; ; @ @ = = @ @ @ ; ; : = = 2 2 3 p W { { D.D.Z.Z.r.r.P s.@XP.wX`.jXK.}.6XMX8X8X:XcXSX~.*X~.T.*X*X5X~.-X).).R.).-XR.b.R.-Xn.b.].Y.d.q.b.-Xb.n.Y.d.{.V.wXI.{.D.D.o.f D n -.*./ G d i *.OX>.` i n -.-.` g D M.M.-...S L F i.#XHX$X9.j.@XtX@X'.'.tX#X9.P.9.6.4.9.7.4.4.4.5.4.v.P P I S g S S D { oXf D :.G p.D.S.D a.x.D D D  .8.Z.f.6.[.wX].g.g.).5X8XcX:X~.~.8X8X~.J.*X=X=X>XL.s.8.}  .u.u. .{ / l                       x _ (  .s.m.Y.n.H.b.H.P.n.k. .G                                                                                                                                                       ",
"                                                                                                                                                          . . . . . . . . . . . . . . . . . . . . . . . . . . X X + @ 2 k Q ;.;.' ' E v ! 0 @ # X . . . X @ ; = 7 = @ @ @ $ @ ; ; 0 8 w k k T T T T Q Q [ +.+.+.&.1.@.1.B.S.B.G.F.G.|.%X%XF.&X&X|.|.G.%XG.|.&X|.B.F.) PXOXS.n M n M b OX' ;.' Q >.R E N ! c q : ; = = ; 0 : ; : = = ; = @ @ ; > ; : : - - 2 3 x / z.a.a.[.f.9.s.[.6.9.g.U.V.jX^.cX8XFX}.}.JXvXsX*X5X:X<X*X5XT.b.~.J.R.b.n.b.).).J.).J.Y.R.].n.n.{.b.R.b.b.-X{.4X4XtXW.[.C.D.%XD g i D -.>.G i b M / >.G n g n ( ` K g g D -.uXM.l.L I F z.9.+X+Xc.'.k.#X9.iXHX#XiXpXqXc.N.6.v.l.5.I I F F S S -.K K -...n G o.( +X#. .G  .z.D D ..S } D.{.I.P wX(.wXH.{.d.d.=X8XMX8X8X:XyXcXH.T.=X*X5X=XH.6.L  . .u.%.{ M h                     l _ :.i.j.n.R.R.R.R.R.).-X;XU.m.8._                                                                                                                                                     ",
"                                                                                                                                                          . . . . . . . . . . . . . . . . . . . . . . . . . . X + ; w ! ;.,.*.;.>.' E h 4 - $ + # o X X X + ; : r - : : = = : = ; 5 5 w Y k Y l T T Q Q Q Q Q [ 1.+.+.1.1.G.G.B.G.G.G.|.F.%XG.&XF.F.%XB.F.F.F.G.S.%XPXOXM [ G M / >.uX$.1.M / R T ' ;.E h 3 2 = - 2 w : e : e 8 q : : 5 = @ ; @ ; , 0 = - - < p G (  .e.[.g.Z.s.j.j.j.r.{. X6XcX8XmXvX^.jXmXmX!.cX<X<X=X=X=X~.T.J.R.R.b.R.).-X-Xn.-XR.).d.b.n.b.d.d.{.T.R.b.T.4X4XrX4XwXf.Z.+XiX0.D i g n M.OXn M n M #X) | n f H OX-.` H g i D ..l.x.{ F S L P 6.oX7.6.6.P 6.P I I 0.l.S S S S F I F S F O.-.H ..-...D D | oX%XS.o.f H  .u.u.H F H H tX'.j.P j.wX_.yXT.R.J.J.L.5X1XNX*X:X8X:XT.=X5X=X4XL.9.8. .u. .u.X.M j                 h b G u.r.g.U.R.T.).T.).).~.<X4X;XR.g.x.Q                                                                                                                                                   ",
"                                                                                                                                                          . . . . . . . . . . . . . . . . . . . . . . . . . . X $ 6 ! ! ^ ' R R R W E p < = ; @ $ # X X + + > - r 4 3 2 < - - : : e 8 9 c h k T T Q T Q T ' R [ [ [ @.@.1.B.G.G.G.G.F.G.F.G.G.F.F.G.F.&X&XB.F.@.iX1.>.R ] / i uX>.>.b >.R >.$.m ,.;.E E < - = 2 4 C 8 ! w 2 3 ! 9 8 w = 5 7 @ ; @ ; 6 = - - < s a H %.z.r.f.9.g.s.P.9.s.U.E.nXmX}.mX>X6X2XMXvXvX8X:X*X~.=XT.~.T.R.J.b.R.Y.R.R.).n.;X;XR.n.Y.Y.J.g.(.).T.4X=X-XL.(.-X4Xb.ZXV.f.[.$Xc.x.D g u n M.*.b b M / OXOX) :.b D G ` x.-.f f f D l.x.L z.F g F S S I S S F S S S F F S l.l.i.F L L -.l.:.{ { D d f H :.#Xu.H f }  .z.#Xu.H L F L i.@XiXk.d.wX4X~._.).J.b.J.=XcXfXgX3XcXNXT.~.5X=X_.L.f.8.e.u. . .o.] b               j ] | i.9.Y.{.T.).=X~.=X=X~.~.~.=X;X;XY.C.+.k                                                                                                                                                 ",
"                                                                                                                                                          . . . . . . . . . . . . . . . . . . . . . . . . . X X + 5 ! Y ~ R / R l j 3 < < 2 c 0 6 $ X # + + > ; 2 q 9 z h 3 < < 3 < : 9 9 h v l l T Q T Q R [ [ [ &.+.) 1.B.S.S.G.|.G.G.F.G.G.F.+X+XF.F.D.S.D.IXuX+./ M uXG >.*.` / >.>.S.m M ;.^ ~ x 3 < 3 9 3 2 ! ~ 3 Y Y ~ h 9 ~ 9 ! 8 = 7 @ @ ; 0 : 2 - - 1 b n ` | a.[.I.I.[.'.9.g.I. XnXnXjXnX}.>XcXMX<X/.8X1X*X5X4X~.T.T.R.).-X;XR.R.5XR.;XT.-Xb.R.d.n.wXL.4X-XH.yXH._.4X4X)._.!.!.!.s.g.I.tX+XiXz.-.d i n ,.n J i n -.:.X.X.] d f D M.-.OXg g f D L M.M.#Xl.x.l.x.o.iXM.uX#Xc.} } F O.F L u.L H g g f D f D x.x.-.D D f O.F } a.i.H f { D.C.I i.qX'.j.4.T.yX8X=XT.4X).).-X,X9XgXbXfX9X*XJ.4X=X~.).W.9.8.i.e.u.u.x.G           l m X. .a.f.(.R.).>X>X*X<X>X>X~._.T.T.R.).].j.%.Q                                                                                                                                                 ",
"                                                                                                                                                          . . . . . . . . . . . . . . . . . . . . . . . . . X X + 7 w c N j M j 3 3 < 3 m W ;.! r > + + X X @ ; : 3 3 v ~ ~ j p 1 3 < 3 v v h E m T T Q R Q R [ [ [ [ 1.1.B.1.B.B.F.B.F.B.F.G.B.F.S.D.S.+X&.n ) / m OXS.M -.pX/ *._ -._ _ m ' m l 3 3 3 v h z v ^ h p h l l j j h h h ~ 9 : = @ = - 0 4 9 < < < 1 a ` G u.8.@X{.g.[.9.g.U.`.rX4XK.mX}.}.SX^.vX8X<X~.~.T.rX~.-X).T.4X-Xb.;X).;XT.5X=X~.;XR.J.J.wXT.^.4X4X-XnX4XnX=X=X_.5X5X_.).H.K.W.$Xf.+Xz.x.:.g d n B -.B d ` ] / x.:.G d d G x.OX` n g d i f D O...D F ..H o.o.o.H u.oXL x.0. .H  .M.O.x.x.#XM.M.H o.D H ..M.L z.tX$Xc.L H @X$X[.8.6.s.iX[.q.b.5X>X8X*XT.5XT.=X=X9XbXfXfXNX7XJ.=X4X~.4X{.f.8.r.r.h.r.u.( M     j M / o. .r.Z.H.T.T.=X*X*X*X<X>X4X-X(.H.b.b.b.n.i.u.] Y                                                                                                                                               ",
"                                                                                                                                                          . . . . . . . . . . . . . . . . . . . . . . . . . X X $ ; 0 9 h 3 p 1 < h m ;.>.;.;.! e $ X O X . + + = : < z N ,.=.B j 1 p x h x v v N W T R R _ ' ] ] ) ) $.) &.B.&.F.#.S.t.S.S.D.p.S.| x.G n G %.( S.S.X.` M.] n _ G M 2.R m N h 1 p 3 3 N v v h x N j W =.^ m W p j p l h ^ c = ; = - 4 9 Y h p 1 1 u i D {  .Z.Z.[.[.6.6.g.{.L._.rXE.`.eXmXrXcX/.8X8X:X~.T.).T.;X;XT.T.R.;XT.R.=X=XT.=X~.b.wXb.J.=X4X_.4X4X4XtXnX4X>X/.<X4X=XT.4X!.K.lXnX$X$X+Xz.OX..d d g K -.,.d d G G -.M.-.` d g G :.K K f H G -.G -.-.M.M...x.:.X.G G H D { l.z.z.z.D. .z.oXO.L H H z.u.oX .Z.Z.[.[.D.} 8.[.{.V.9.6.P.{.-X).H.).yX<X8X<XT.yX5X*X1X1XbXbXfX8X~.T.5X~.=X).U.g.f.f.P.g.r.e.#.) ) | %.u.h.f.H.(.~.~.*X1X*X<X1X*X,X-X{.H.r.6.6.} 9.9.u.o.Q h                                                                                                                                             ",
"                                                                                                                                                          . . . . . . . . . . . . . . . . . . . . . . . . . . X + @ ; 8 9 3 p p m +.1.OXS.+.T h : @ X o X X X X + @ - 3 a =.=.J B b p 1 x x p j b m _ b _ _ *./ ) ] :.$.| @.S.&.| x.D.+X| D. .{ f D G ( ( x.x.>.n uX>.` -.*.>.OX/ >.b W N p 1 p < p ~ N ~ N m a p N a ' j m 2.' b m j 3 E c 2 @ - - 2 c ~ E N p 1 1 a B H o.r.I.{.tX9.s.g.V.{.tXg.L.wX`.E.>XjXcX:X8XyX8XT.J.b.tXT.;X5XT.T.=X-X5X=X=X1XT.R.T.tXb.T.5XJ.b.4X(.T.L./.4XcX>X5X5XrX4X4XH.`.rX{.W.ZX[.a.S.z.X.d i f =.OX>.i d d J -.M.-.` #XM.d ` J d i u G d J J J J g f :...-.OXX.x.K ..oXz.S.oXu.f S } D.z.L  .e.$X[.f.iX'.i.u.f.[.W.W.s.9.Y.H.4X-Xb.).MX5X<XcX,X~.9X1X3X0X3XbXgXbX5Xb.=X*X=X_.-XH.g.g.U.[.H.g.C.e.h.C.r.Z.Z.U.L.).~.,X=X5X8X5X<X<X=XT.J.s.} D D D F P 0.o.` N                                                                                                                                             ",
"                                                                                                                                                          . . . . . . . . . . . . . . . . . . . . . . . . . O X + @ @ : 2 9 h ' 1.S.D.S.] M p 2 = + X o o X + + X @ = < p a d n J b b p p j a p a b b M M _ / / OXX.{ X.%.%.oX%XPXx.D G D D H { ..X.H X.oXM.oX( pX>.M M >._ >.' m W m p < 3 s 3 N m ,._ ,.b W b p b b a m j 2.' *.' ' T h ~ 4 : - < 3 l ' ' ' j 3 < p i ` { r.I.g.g.6.9.d.].].{.J.b.L.^.}.E.>X/.5X^.5XL.yXb.R.b.-Xb.-X).~.~.=X1X~.*X<X=X;Xn.-Xn.;X=X).4X-XJ.5XrXL.5X>X!._.T.4XJ.b.-Xq.4XrXlX`.AXeXlX#.e.:...K i J ` pXOX>.u _ n ` *.n b =.-.,.>.` G b d d B B J =.K d G D n D ..H :.` ` f f D H D.$X .D.r.F a.8.K.s.[.h.0.L Z.tXtX'.q.4.{.).rX=Xb.).8X5X*X7XNX9X*X1X3X3XfXbXNX5XrXb.*X*X*X=X4XJ.H.b.H.(.L.L.V.V.I.H.U.H.(.L.).!.~.=X=X8X5X1X<X*XT.b.d.9.K f d d d F P 0.-.'                                                                                                                                             ",
"                                                                                                                                                          . . . . . . . . . . . . . . . . . . . . . . . . . . X X + @ : 2 v E OXB.F.D.%.b a 3 8 @ # o o X X # X + @ @ = s 1 u V V J =.b a i a B b i d d n d G X.n G n H | %.( D D ( H { l.oXM.{ D D x.x.>.H G pXb n b a a M M ' j j 3 < Z C p x *.*.;.m =._ *.b ' ' M m j j m ;.] >.m m ~ v 3 - - < 3 l ' ;.$.M N x 1 i ` { 8.8.g.s.g.d.q.qX{.L.d.(.)._.K.4X>X:X/.rX4X,Xb.J.b.J.).R.4X=XT.=XJ.5X<XT.1X*X5X;XJ.J.=XR.yX5XJ.4XT.=XnXT.~.5X5X4X).wXtXn.-Xd.H.4XrX^.}.6XAX[.F.H { -.i f D OXOX` n d d J -.>.d i n G ] >.OX>.-.=.d d i d -.K f -.i g d i g g f { D.#X+Xr.$XZ.} [.Z.[.W.[.h.8.O.0.F } [.9.'.Y.9.(.!.).T.J.4XcX8X8X*X8XbX<XfX3X3X0X9X5X9XT.=X1X~.~.>X)._.).J.T.T._.W.(.J.T.!.).R.~.^.~.>X,X<X8X8X5X<X~.J.b.q.O.f d s u d D L l.l.] l                                                                                                                                           ",
"                                                                                                                                                          . . . . . . . . . . . . . . . . . . . . . . . . . . X X + @ k l $.>.oXD.F.p./ a j c 2 ; + + # + X X X X + @ @ 2 < < p V =.=.d B B D f n n G ..K D F D f D { D { o.u.0.M.H uXl.o.f G %.oXOXoXd uX>.HX/ >.b a M M *.*.p 1 3 3 ,.N p m ` ] $.] M _ _ =._ _ d b b M m p *.-.>.R ' N 3 9 - - - 3 E ' $.( ( G b n i J -.u. .P.P.{.9.b.(.4X_.b.s.-XH.H.L.!.rX5X<X/.8X~.~.J.).=X~.~.5XR.T.*X=X*X=X9X*X5XT.b.b.rXT.=X-X~.5XrX!.=X/.5X5XcX5X).J.-X5XJ.4Xb.d._. XeX XK.lXtX@Xa.H x.U f f D D PX=.n d g d OXPXX.i i i i b d d J J -.d f f d f n f K K M.x.#XoXD.Z.[. XtX XwX[.Z.D.'.'.} L l.I } @XU.tXwXH.U.yXrXL.!._.=XcX<XNXcXcXfXbX3X1X1X1X1X1X5XT.*X5X=X,X=X~.T.~.!.J.T.L.E.!.L.T.T.T.!././.<X:X1X1X5X<X5X~.J.q.6.L D d a u 1 i f D  . .:.B                                                                                                                                           ",
"                                                                                                                                                          . . . . . . . . . . . . . . . . . . . . . . . . . O X + ; : 3 / S.D.B.C.#.( M 2.;.c : @ + + $ + X X X X # + + ; = - 3 Z Z b d d D D K K D D ....L ..H x.M.oX..{ ..{ L o.S H D H x.oXz.( G n pX>.OXM M n a B ,.OXM j h 3 v ~ < p b >.S.%.X.G ` M _ M ' M >.b / M b j m ] [ M Q l v C : = - < j ;.$.| | ( ( >.f i K o.8.r.{.U.g.H._. XyXY.J.(.).^.rXcX8X5X:X<X=X~.5X;X).T.~.8XT.;X;XT.*X5X=X9X*XyXT.b.T.5X=XyXJ.-X).J.4X>X8X5XT.<X4X~.=Xb.5X5X~.-XJ.q.wXFXeXjXE.r.tX{.'.0.} #XL g ..K K M.OXg d g n -.S.x.X.:.n X.D ` ` K D f D M.K -...o.O.} D  .c.D.D.[.I.A.I.[.$Xh.i.9.c.I c.P v.6.'.V.eX XL.g.wXSX6X4XT./.nXcX7XcX3X9X3XgX0X1X1X1X8X*X*X~.8X1X*X=X=X=X-X~.T.!.!._._.~.~.=X~.!.^./.<X<X3X1X1X=X).H.s.} H n d u 1 1 1 u i D { #.%.K                                                                                                                                           ",
"                                                                                                                                                          . . . . . . . . . . . . . . . . . . . . . . . . . . X X @ c E >.x.p. . .( M @.+.Q : 5 @ + + $ # + X X o o X + @ @ = < s p 1 u u d B =.B n n K -.-.>.:.:.` H D H L f D g -.o.o.oXpX{ X.uXG pX` _ M b a a _ =.=.j u 1 p Q ;.v p 1 -.X.%.X.G / b _ m =.R ' b b -.M a j m _ R ;.;.E v 8 - : = 2 j _ / %.( %.u.-.H D G { e.[.U.(.s.(.rXV.nXH.L.L._.~.^.:XcX9XNX5X4XyXT.~.=X,X,X=XJ.-XR.T.*X*XJ.5X5X).b.~.~.1X=X~.b.rXtXrXJ.rX4X8XNX^.yXrX5X<XT.~.-XR.wXb.).4X5XrX_.4XtX{.wX@XD.0.x.oXD i D *.D PXOXf d d -.#Xz.oX+XS.%.( %.x.o...OXx.uX%XHXD.%X+XiXe.H  .H  .} } 0.} 0.i.L i.} i.0.i.c.8.9.U.nX XE.J.U.wXnX!.H.=X~.cXSXMXcXNXbX9XfX0X*X1X9X9X*Xn.4X<X*X~.T.5X5X~.T.!._.4X^.~.!._.).T.~.*X<X1X1X3X<X>XH.f. .G b a u < < < 1 u i n H %.o...V                                                                                                                                         ",
"                                                                                                                                                          . . . . . . . . . . . . . . . . . . . . . . O . . . X $ : c E *.| | G ( #.S.%XQ T = : @ + + # # # + X # o X X + + @ = - - 3 < 1 a Z V a u u i d d n n D n D n g g f oXOX-.-.M.( n :.D G >.n b _ u a b ] OX=.p p j p E ^ h p j ;.M $.) :./ M b m b M b M G ] b -.,.b p _ j R E v c 2 : = 8 3 h ;.] x.u.z.oXu.{ d f  .L j.I.(.L.wX_._._.L.{.4X_.cXcX8XfX7X8X9X9X~.8X5X8X*X*X=XrXJ.J.5X~.*XR.5XT.R.b.=X!.yX5XT.).4X-XR.rX>X=X!.*X7X4X4X5XT.5X=X;XR.R.;XJ.J.5X4XmX_._.eX{.f.g.9.i.F M.#XD f f D :.x.OXx.d F S %XoXz.HXpXz.oX{ z.{ n G G #.{ C.[.B.%XHXZXiXu.z.x.I L L x.c.} L F I } } 6.h.6.tXSXE.H.d.4XeXnX=XL.,X/./.8XSX9X9XNXNXNX3X*X*X1X1Xn.5X8X*X,X).=X8X8X*XH._.4X>X=X!.)._.~.=X,X1X3X7X,X4XL.Z.} H b p < < - - - 1 u u f G o.o.-.B                                                                                                                                         ",
"                                                                                                                                                          . . . . . . . . . . . . . . . . . . . X . . O . . X X $ 0 ! ~ _ / H G #.S.OX>.k 2 = @ $ + + # # $ + X X X X X + + + @ @ = : - < 3 z 3 s p p a a i i d d d d i d -.>.OXG -.K D K J n ` ] ' _ a u 1 N W ;.m p j 1 1 N ;.p j a / $.( @.S.] b b b _ b B M M _ / / >.-.W j j j N E ^ ! 8 - = - 2 l R ) S.e.} +Xz. .H D F  .Z.U.H.>X5X8Xg.nXL._.4X!./.5X1X<X1X7X*X9X<X*X8XT.NX*X~.-XR.n.*X*X=X=X;X).b.-X=X5X8XL.4XnX).J.;X).rX4X,X/.8XMX4X>XyXT.5X-XR.;X-X-XR.b.5X4XSX8X>X4XyX4X{.[.+Xz.f x.M.-.i d ....OXOXI F S O.l.x.{ oXi.%X+XiXiXS.%.D n G { (  .#.e.D.c.O.l.-.O.oXL S L L Z.I.g.'.P k.[.U.-XwX(.d.).-XcX8X>XSX/.sX7X:X9XfXbX7XbX0X*X*X5X1Xn.b.9X8XT.T.=X1X8X*XH.4X>X_.4X~.)._.~.=X,X1X3X3X5X!.Z. .H d 3 - - = = = - < u u d D { o...B                                                                                                                                         ",
"                                                                                                                                                          . . . . . . . . . . . . . . . . . . . X . . . . . X + > 0 c N b M { S.p.&XOXW v 2 = + 7 $ X + # $ $ + X X X X X X + + + + @ , - 2 - 2 2 < < 1 s j a a a b b b b =.=.J *.d d i d i *.G *.u a a ~ ,.OX,.j p j h h ~ ,.~ p a >.X.M &.S.&./ M n M m m b b d _ ` / $.] >._ p l h 3 z q 0 : = q 2 l R ) %.a.e.h.h.a.8.} L r.f.Z.4X4X4XMX>X~.b.4X-X5X<X9X7X1XcX:X1X9X1X8X<X<X8X*X1XT.-X~.*X*X=XJ.R.;XJ.J.8XyX4X8X8XrXJ.-XJ.yXT.J.,XcXSX}.cX<X,X~.=X5XrXJ.J.-X5X).T.~.5X8XrX4XeXAXtXtXr.[.r.D L x.x.K f g f D M.M.S S S S } z.8.L 8.e. .D.#X#XHX#XS.+XD.+XS.L D L D S S } } c.+X'.[. Xg.[.].'.k.9.U.(.{.H.!.5X4X5XL.}.MX/.,XfX9X<XbXfX9XMX1X*X*X5XJ.b.5X5X=X-X~.=X8X<XJ.T.~.4X>X!.!.~.~.=X5X8X3X8X>XK.r.{ D a - = = = = = < < 1 u i D H o...B                                                                                                                                         ",
"                                                                                                                                                          . . . . . . . . . . . . . . . . . . . X X . . . . X + @ : 3 p M :.z.p.B.oX] j 3 = = 5 5 $ + X + % > $ + X + # X X X X & @ + > , , = , 2 < 2 < 3 p 1 a p p j ~ B B B d i i i B d =.,.B a u B ~ x Z ,.j < ,.3 E ^ OXv p u G %.( p.F.@.( b n =.a J n _ n *.b ] _ ] -.>.m j p 3 < C ! r ; = - 2 l j [ %.i.h.@Xr.} h.y.} 8.s.U. X4X^.NX4XL.T.).T.>X*X~.~.3X1XNX:X1X<X3X<X,XNX=X*X~.=X=X5XT.;X-XJ.R.R.).4X5X5X8X4Xb.b.R.-XT.=XyX<XcX~.3XjX8X<X<X5XT.rX;X;X;X5X5X1XT.*X*X=XSX_.H.H.4XrXtXwX@XD.} F L uXO.f g S O.#XuXD.'.D D  .8.S F S f S D f S L F D f F S F F x.#X+X@X$X[.[.Z.tX XwXwXwXd.].6.].yXtXL.d.5XnX8X:X,XNXcX:X:X0XfX1X9X1X9X5XR.~.-X-X~.T.=XT.T.=X*X<X<X~.R.)._._.L.L.~.<X5X8X9X9X5X4Xf.e.n d 1 - = = = : 2 3 p u u i f G ..` B                                                                                                                                         ",
"                                                                                                                                                          . . . . . . . . . . . . . . . . . . . . . . . . . X + @ = - p / $.z.D.t.&.j l c - : : 6 $ + + + > ; ; + + + + X X # X X X + X @ + + @ @ = , - < 3 3 C z h h Z p 1 a u u u b _ ,.B V a p Z Z j Z Z 1 1 A x ~ Y 2.h p p *.( ( D.+XF.X.n b J J J M B b B b _ M _ ] ] M ' E 3 2 < 4 4 , , : 2 9 v M ] | i.} [.9.C.[.8.8.9.f.{.`.>X/.NX5XT.T.J.rXT.*X1X7X:X:X*XcX7XbX7X7X*X*X1X*X<X1XyX*X;XJ.n.yXn.d.4X4X~._.H.b.).).wXb.4X=X=X8X8XSXSX6X}.8X*X5X5X=X=X=X*X1X=X8XyXT.!.nX4XAX4XnXrX6X`.E.K.[.h.i.0.S L I M.O.S S F e.$XHXZXiX+X'.D.#Xz.i.0.o.} } L L } oX#X#XL i.L 8.[.A.A.'.{.{.W.V.{.W.P.W.9.q.U.-Xb.J.J.SXSXrX^.sXfXNX,X<X<X0X7X3X1X<X~.b.5X;X;XJ.~.R.-XJ.*X*X=XR.b.!.L.`.H.H.!.1X8X1X1X5X-XL.y.{ f i 1 < - < 2 9 k l j u i g f D ..` n q                                                                                                                                       ",
"                                                                                                                                                          . . . . . . . . . . . . . . . . . . . . . . . . . . X @ : < N _ ) %.z.H G m E 3 - 8 : r > + + + > 6 r @ @ @ + + + + X X + + + X # X + @ = = 0 r z z z z z 3 < < 1 p p p Z V ,.j p p Z u a N ~ x 1 s s Z x uX=.h 1 j =.>.{ e.C.B.| *.n J _ J J n d n B b ' b ' M >.] m ~ z < - - : , 7 = : 2 h M / G } h.r.Z.I.s.P.s.f.[.U.L.^./.:X8XT.L.J.~.5X1X8X<X/.3XNX9XcXfX7X7X<X<X1X5X*X1XyX=X;Xn.-X].b.q.b.J.).rX-XJ.).R.-Xw.yXb.R.=XFX8X/.cX8XrXcX5XNX*X1XcX8X*X*X=X5XyXT.5XrX5XrXjXK.4XSX4XeX XW.{.r.@XoXl.N.P P L f H } u.+X[.{.A.[.[.ZX@X+X@X+XZ.r.} } L } P #Xc.i.L I P 9.s.wXtX{.lXAX6X^.L.].].d.].n.wXL.nXMX,X}.8XMX<XFX0XbX0XfX:X8X*X=XT.J.5X;Xb.b.b.T.=X*X=X=X-Xb.L.L.(.L.L.,X1X1X1X8X=X{.g.r.D G n d p h p j j ' M n n d d g G ` ` B 3                                                                                                                                       ",
"                                                                                                                                                          . . . . . . . . . . . . . . . . . . . . . . . . . X X @ @ z ~ _ >.| n ( $.>.3 2 9 - = 0 , + + + > 5 r : = @ ; $ + + + + + X X X # # + $ ; ; 0 4 2 2 < < - - < 1 3 x ~ Z ~ x j p x x 1 p ,.;.j < 1 1 =.x ,.N h 1 p M ] %.S.C.Z.D.( n n =.n *.-.D n B b b B B B =._ ;.m ~ C 3 - - = ; = 0 = - 3 W ] D { } h.'.f.I.r.g.'.I.g.4XL.*X~.=XT.J.b.=X5X=X8X8X:X9XNXfXfX3XcX:X8X3X*X*X1X*X1X=X-Xn.).m.Y.b.b.b.-X).b.{.b.n.b.qXqXR.;X4X=X~.5X5X<X8X>X<X<XMX9X9X1X1X1Xn.*X*XyXJ.rXMX4X6XrX!. XAX4XAX4XH.tXj.6.c.S D.0.S H l.S H } i.'.s.[.9.P } L '.[.Z.@X#X#XiXc.#XD.6.P s.'.g.s.6.s.AX[.wX_.5X<XH._.qXd.q.n.].(.>XSX8X8XcXMX7XfXbX3X9X1X9X5X1X=X;XJ.;X).b.b.b.J.=X<X=X5XR.J.J.(.H.T.!.:X<X0X0X<X=X(.s.8.L H G n n n i B G ` X.X.D D g f K G -.B z                                                                                                                                       ",
"                                                                                                                                                          . . . . . . . . . . . . . . . . . . . o . . . . . X X @ 0 c =.R ] n ( S.:.;.p 2 9 2 3 2 5 @ + + > 5 w 0 ; @ = 7 ; @ @ @ + + + + + X + + @ @ = = = - - - < 3 3 3 c ~ <.~ p < p x 1 x ~ N N p < s =.~ j 2.Z p p p *.>.G a.D.D.z.%.:.i =.` G D G f i *.B a N x N j 1 W ~ z q 2 - = = = ; @ : 4 z m b H | } D.h.f.'.g.P.W.g.L.!.>X/.4X5X>X_.J.~.5X8X9X8X,XcX7XfX7XfX,XbX7X0X:X<XJ.5XNX;XT.n.-Xm.7.q.q.b.J.qX].d.n.d.tXb.qX].R.b.J.4X5X*X^.rXcX8X8X8XMXbX3X1X9X8X<XT.~.=X~.^.4XmXrX!._._.nXeXnXtX(.W.wX9.P.P F uXx.D ..I O.O.c.#X#XiXwXwX[.+Xh.0.c.@Xk.k.j.P.g.g.{.wX$Xs.I.g.g.9.].4XcX/.8X>XJ.{.].n.{.d.tXg.2XvX8XsX7X8XVXNXfX1X9X1X1XT.=XwXn.R.-Xb.4.4.J.-X=X1X4X{.g.K.(.L._.=X1X3X3X3X<XR.W.j.8.}  .a.#.%.H { H {  .{ u.o.U f f K H ..B z                                                                                                                                       ",
"                                                                                                                                                          . . . . . . . . . . . . . . . . . . . o . . . . . X + + 8 v j ' b ( p.u.+X' v ~ z - h 9 w $ + # % ; e r t : = : e 0 5 = @ ; @ $ + + + @ @ @ = = = - - 2 2 3 3 z C C h h 3 z ~ <.x N N N p p p Z uX1 ~ N j u p M S.( p.F.C.oXo.G n n ` G G ` G G D b B p j 3 ! z h v v c w q : = = $ ; ; @ : - x ;.G D { z.} h.g.'.].H.(.b.rX4X~.~.8X=XJ.T.>X4X*X,X3XVXMXMXbX,X7XcXVXNX1X0X*X*X5X5Xn.=XJ.wXw.k.7.q.Y.].Y.d.4.d.7.k.'.tX].qXn.-Xd.).=XrXrX5X5XL.:X8X1X9X1X9X8X5X1X=X=X=X4XrXrX>XMX>XL.rXAX4XAXL.tXs.tX[.wXD.F L uXK O.S S g P P k.s.P.j.6.k.6.7.7.'.].[.wXg.g.I.(.wXZXtX{.{.b.d.T.>XcX6X5X_.-Xb.tX-Xd.rXrX,X8XMX8X<XcX7XfX:X0X1X<X1X*XT.R.R.R.;Xb.7.7.n.4X,X5X4X{.b.H.K.L.~.<X7X0X3X7X8X).g.9.9.h.f.I.I.e.8.} } 8.} i.u.l.H D f H o...` x                                                                                                                                       ",
"                                                                                                                                                          . . . . . . . . . . . . . . . . . . . o . . . . X X + ; 8 3 m b G #.t.F.oXa ~ <.z 3 h Y Y > + X + @ ; 6 r r : ; 8 w ! w 5 5 = ; ; = @ ; : : : 4 4 q 2 c q q c c z h z 3 < 2 h v x z p 1 1 a OXb 1 ~ V 1 u a *.:.a.B.C.+XD.%.-.D G ] / ( X.D ( ..G B b ~ h z < 2 2 3 3 C w 0 : ; @ @ @ + 7 = 2 h N ` n ( | a.i.Z.g.{.b.T.4X_.4X4XyX,X>X~.=X=X<X!.sX7XfXcXsXsXfXfXNXfXfXfXfX5XT.T.5X;X=XJ.-Xn.4.4.4.s.q.m.q.4.N.7.v.c.q.#X4.@Xb.-XJ.J.J.nXrX5XcX<X8XNXcX1X8X5X<X<X5X=XT.4X/.yXMX/.5X4X!.lXAX4XtXeXE.eXV.wX[.r.} F I l.l.L c.i.9.@XP.tX'.@Xf.wX'.7.I S 9.7.].@XwXY.U.H.(._._.-X-XL.H./.nXyXH.AXL.rX4X).~.4XMX8X,XcX3X9X3X1XNX0X9X9X1X*X=X).b.b.;X-Xb.4.].=X5X8X4XU.n.H.H.!.,X8X3X3X3X1X>XL.H.s.s.Z.{. XE.V.9.i.} 6.8.e.a.x.} L D L o.} ` x                                                                                                                                       ",
"                                                                                                                                                        . . . . . . . . . . . . . . . . . . . . o . . . . X + + = - ! Q ] ) #.S.iX[ p C C - 3 3 E e $ X X # + @ ; 6 6 : = : w ! <.! e : - : : ; : 5 : 0 w w c q 2 8 8 9 3 3 3 3 - 2 z h h x z 1 A j ~ p b ~ V 1 < j >.x.D.} r.r.a. .x.D G M M / ) G ( :.:.>.G p < - q - 2 - : 2 : : ; = @ @ + + $ + = : h ~ W M n x.u.oX9.P.g.L.L.T.-XT.rX~.nX<X~.J.!.T.NX2XsXVXvX2X7XsXfXsXfXgXfX1X5X=XR.T.R.;XT.J.d.4.4.w.4.N.0.4.I F S I S 4.I #Xj.'.n.b.wX).).rX~.5XT.cX:X:XcXNX5XyX9X9X*X*X5XJ.5X5XSXMX<X4X!.rXlXAX4XSXrX X(.{.@X9.L l.l.#X0.I 6.k.} k.9.#XP.'.'.P.j.'.#X6.F I 9.g.[.@X{.wXrX4X!.nX4XJ.J.L.L.J.yXL.>XrX5XcXcX8X8X<X8XcX1XNX<XNXfX0X5X=Xn.;X;XJ.b.R.-X].w.].>X<X5X>XU.s.s.H.~.,X8X3X7X7X5X^.H.s.g.[.{._.,X,X`.I.i.9.i.} r.y.z.u.{ F } 0.0.H N                                                                                                                                       ",
"                                                                                                                                                        . . . . . . . . . . . . . . . . . . . . O O . . . X + + : 8 x m M | S.iX( b W k 3 3 j ~ v 8 @ # o # + @ @ @ @ = = - 8 k ~ ~ ! 9 : : - : 5 0 2 8 8 3 9 2 9 9 9 2 9 c h - 3 2 4 z 3 < 1 Z Z x =.2.B a a a m [ %.x.h.'.8.r.D.p.%./ / >.b / X.{ ( :.:.>.;.m v 4 : = = = = = ; ; ; @ @ $ # + + @ + : 9 N *.M b $.o.x.h.g.b.J.4X~.(.L.=X4X=X*X,XT./.,X}.2XMXsXcXVXbX2X7XbX1XfX3X9X=X5X5XT.J.].R.R.].4.4.w.0.v.P I I F F g S S I S P 7.qX].-Xb.).rX>X~.MXNX8X5X*X*XMX9X1X0X0X3X~.=XT.NX~.rXNX8X>XjXjXnXmX XB.eXH.-X{.Y.tXP L 6.'.k.P S P P 0.l.N.4.'.'.j.9.@X'.'.j.P P g.{.L.!.!.5XrXT.=XnX4X-Xd.tXyXMX8X<XnX4XMX8X,XSX8XNX8XbX<X*X*X1X*X1X5XR.wXn.d.R.R.R.7.].5X<X~.>Xd.9.6.K.>X5X7X7X9X1X:X!.g.s.g.U.>X5X8X:X}.K.j.9.9.9.r.C.r.8.} F 0.v.c.O.Z                                                                                                                                       ",
"                                                                                                                                                      . . . . . . . . . . . . . . . . . . . . . o X X . X X + @ : 3 l b ( | oXS.n M ;.~ 3 p l ^ l 8 @ % + + + @ + @ ; ; = = : 2 2 ! <.^ 9 2 - 2 : 2 : 2 2 2 q 8 8 c C C 8 < - - < q C < z ~ ~ 3 Z ~ a a p u u -.$.S.D.e.8.'.f.h.D.S.( ( / G X.( ( $.%.%.S.] m j h 2 = ; = @ $ $ @ @ $ @ @ $ $ # X + @ ; 2 v ' M a ] { z.j.P.].).T.L.b.b.).~.T.=X5X~.5XcXcX}.cXvXvXFXvXsXsXsXgXfX0X9X1X~.8XT.n.R.R.J.n.n.q.4.4.v.4.P c.c.c.c.I I S I I 6.4.q.@X{.J.;X4X~.5X5X4X>X~.5X<X9X3XfX0X1X*X=X=Xb.rXrX8XcX/.:X2XSXFXrXlXlX_.rXT.-Xg.wX[.[.g.s.@Xj.'.4.I S P 6.6.9.d.s.g.Y.g.g.[.tXqXg.eXnX~.5X5XrX4X8XyX5X-Xb.^.cXcX:XyX=XcXMX3X<XcX8X9X7X9X1X8X*X1X5X*X~.4XJ.b.b.J.-Xb.].=X=X<XL.9.6.s.L.~.1X9X9X9X5X>X`.g.s.K.`.<X<X9X7X^.E.f.8.8.8.r.e.C.8.8.F } c.i.O.N                                                                                                                                       ",
"                                                                                                                                                    X X . . . . . . . . . . . . . . . . . . O # # X . . X o # @ 8 9 m / | oXx.G b _ *.p a W M l Y : @ $ ; 5 = = @ = @ @ @ @ ; = 0 r q ~ c ^ 9 3 9 8 : - 8 4 : 2 0 w 2 2 - = 2 2 4 < 3 p ~ m N OXN ~ N p i d o.#. .t.[.e.'.8.C.S.S.%.( G ) X.o.D ) $.&.u.u.X.a N 3 - 6 = ; @ + # $ $ ; @ + $ $ * # + $ : 9 E W a M ) ( a.C.[.H.L._.d.L.b.).5X!.^.>X4XrX<XcX:X7XcXFXFXmXcX<X7X3X0X8X8X~.~.=X;X).d.T.R.J.n.n.4.w.7.4.k.m.n.Y.H.-X].#XP S S P v.} '.].5X~.>XL./.5XrX5X=X1X1XfX9X3X1X1X<X<XJ.*XNXyXcX8X,X<X8XjXjX6X4XL.4X`.rX4X(.4XL.tXf.V.s.n.'.tXP.m.tX'.].{.L.tXH.(.].g.Y.g.d.s.H.nX8XNX<X*X7X,XyX5X8Xb.~.cX>XnXmXcXsX7X2X1X3XMX1X1X1X1X1X=X1X*X=X=XT.d.J.].].].b.-X_.(.s.6.P r.V.<X3X7X9X1X<X).H.g.f.E.>X3X7XfX1X,XE.g.9.8.9.8.r.f.i.6.6.0.i.i. .M                                                                                                                                       ",
"                                                                                                                                                X X X X X X X X . . . . . . . . . . . . . X X # + + X . . o # @ 8 3 R ) &.%.n n ;.>.p b b *.>.+.9 ; = 6 0 e : 0 0 : = @ @ @ @ @ @ = 0 2 8 2 2 - 9 8 8 8 q 2 : , = @ - @ - 2 = 4 < 3 < N =.M =.j N N p u a x. .h.C.D.y.'.e.r.D. .| ) G G G H { { x.| { | | n m v C - = @ $ + # + $ @ @ @ ; ; $ $ + + @ : c l m / M ( | { C.{.H.`.J.H.U.).!.=X~.4XE.4XnX8X<X:X2X2XkXkXvX6X}.3X9X9X1X9X*X5X=X;XR.d.T.J.J.qXn.q.n.d.'.d.n.b.T.-Xb.-X].m.4.S S F l.8.j.n.).6XL.^.!._.).-X5X1X1X3X7X8X8X8X5X5X~.<X8XNX7X,X8X6X}.MX>XmX4X{. XrX`.4X_.rX_.4X(.{.(.H.{.-X].{.H.{.T.4XL.).4X-X).-XwX(.{.b.L.4X8X8X8X1X8XyX8XNX/.=XL.4XnX8X2XMX2XSX:X1XfX3X9X<X5X1X=X*X*X*X5X=Xb.n.R.-X).b.).].'.6.P } Z.`.<X3X7X3X,X=X).b.g.g.^.6X7XfXcX7X,X^.L.f.i.8.8.Z.s.s.6.} 0.c.c. .M                                                                                                                                       ",
"                                                                                                                                              o + X X X o X X X o . X . . . . . . . . . X X X # # # X . . X # $ = l ' $.S.( ( ` J a u / [ 1.%X>.3 = = 0 0 2 - 2 ! ! Y 8 = @ @ @ @ @ ; ; 0 8 e 8 w 0 6 , ; = = = ; @ = = : 2 r <.< z ~ N j m ,.OXx u 1 _ X.%.C.C.ZXy.Z.r.8.'.a.{ G G M ` ( ( o.z.| ( | ( M / m h 3 r = ; + + + 7 5 : ; ; : : ; @ @ $ ; ; C h j J n X.( t.e.Z.V.s.T.b.R.).4X4X*X>XL._.nXNXcX7XvXSXBXFXGXDX}.7X:XNX*X*X:X*X=X;Xn.b.n.;XR.-XqXd.qXq.d.Y.].n.R.-XR.b.AX].n.'.g S S P c.'.[.H.eXJ.J.rX;X5Xb.8XyX5X,X<XNX1X1XMX8X!.*X5X,XNX,X,XMX/.rXnXnXFXrXr.AX X`.rX4X4XrX(.L.-X{.tXwX{.rX).=X~.>X!.H._.nXnX-XAX!.L.L.H.8XcX:XMXNX9X7X8X8X5X!.L.4XcXmXsX,XcX3X<X9X9X1X*X5X1X5X1X=X=X<X=XR.n.n.d.Y.b.(.W.P.P P 6.I.4X3X1X3X1X5X~.T.H.H.L.4XrXfXgXfX9X8X_.K.g.k.i.9.r.h.9.} 6.i.i.h.u./                                                                                                                                       ",
"                                                                                                                                          X # # # # # # # o o X o X X X . . O . . . . . X X # & % # o . . X # @ = v Q $./ ( d *.;.a m R R @.S.m < - - 0 4 8 2 9 ^ ^ ^ Y w e = @ @ + + @ ; 7 : , , ; = @ @ $ > = @ = 0 - 2 ! q - 3 1 2.=.b ,.=.a a u b :.u.F.+XZ.D.Z.Z.y.D.D.{ o.n G n ` ( X.X.x.( | n M a W ,.~ 8 w @ @ @ @ @ : 8 e 2 e 2 8 : 5 @ ; ; - ! x a d d n %.e.f.Z.U.(._.-XT._.=X*X,X4X!.=XnX8X^.sXjXFXmXBXJXFXdXsXsX1X8X<X<X<XT.;Xb.J.R.).b.R.].b.n.n.{.J.{.b.].R.wXyX5XrXg.H.'.g g S S F 9.[.s.(.q.T.b.b.4Xb.=XrX5X5XNX8X9X8XNXNX*X*XyX<XNX,XyX8X8XSXjX X6XFXE.nX}.rXeXFXlXlX{.(.(.(.H.eXrX>XrXcX/.rXcX>X!.4XrX8X5XrXcXMXE.:X7XNX7XcXMXNXcX>X>Xb.<X8XsX8XfXcXfX7X3X*X=X=X*XT.=X;X~.1X<X5XT.n.b.n.b.b.U.I.s.P 6.k.U.>X8X3X1X,X4XT.J.L.g.(.4X8XfXgXfX9X<X,X).g.r.r.9.i.9.i.6.P 6.h.Z.8./ h                                                                                                                                     ",
"                                                                                                                                          # # # + + + # # # # # X X X X . . O . . . . . X X # & % # X . . X + @ - v m ) | ( :.>.a a / >.+X&X/ j < 3 9 8 - 3 3 h *.' ;.~ ! ! 8 - @ @ @ @ @ + @ @ @ @ @ $ @ @ @ @ = r = q z 3 3 v =.l j p Z Z p u i b X.x.a.C.[.wXe.Z.e.C.+Xc.x.g D G n G H -.{ { x.o.:./ W m l h 9 = ; + @ ; w 3 Y Y h k h 2 : - = = : 2 ~ v V d G -. .r.j.P.b.wX(.4X)._.!.8X/.cX_.T.rX=X<X8XFXBXCXJXBXFXkXVXsX,X9X9X1X1X;XT.J.J.R.J.T.-XR.b.b.J.R.).).qX-Xn.b.rX8X/.cX_.P.9.S g f L O.0.].].].b.w.yXY.(.).nX>X<XcX:XMXfX1XcX1X1X:X*XNX/.!.*X*XNX^.4XrX6XlX6XrXeXeXeX`.SXrXL._.rX4X^.^.rX8X8X8X:X8X>XAXnX4X>X8X8X4X6XcX8X<X7XcX8XMXcXNX*X~.~.*XNX9XfXbXFXSX9X1X<X*X=XT.=X=X1XJ.5X<X*X=Xd.n.7.d.s.g.s.} 6.9.'.(.>X,X7X1X:X~.T.H.g.K.{.4X8X7XfX9X9X1X8X>XL.g.s.r.i.i.6.P 6.9.r.g.a.[ k                                                                                                                                     ",
"                                                                                                                                        o # # # # # # # # # # # o X X X X X O X O . . X X X + % % # X X X X + @ 8 k Q M M x.X./ a M / %.+XS./ b a ~ ^ v < 9 h b ' ] *.W m l 9 2 - : = , = > @ @ @ ; , ; = = = - r - q h 3 ;.~ j N j x ~ N 1 u V n ` x. .D.[. Xf.C.y. .D.z.z.{ d J ` J J G -.X.| 8.z.:.,.,.~ N 9 2 = ; = @ e l N ;.W W m W p h - 2 = 8 w C x B n ` o.{ 8.'.s.{.4X5X=XL.>XH.,XNX8X>Xb.~.5X:X8XvXkXDXBXJXJXJXdXvX7X:X9X*X8XT.;Xn.R.R.5XJ.n.R.].b.4XT.=XJ.R.R.wX-X*X8X:X:X4X{.'.N.S i f K l.4.'.@XtXJ.J.b.].R.J.rX=X8XcX/.7XNX7X7X1X8XcX9X*X9X*X5XNXrX6XjXjXeX^.SX XmX^.nX}.FX4X XFX}.}.}.nXcX<XSX4X^.6XnXrX4X8X8XjX6XcX2X6XcX,XvXbX,XMX:X<XNX!.~.yXcX7X3X<X1X8X1X*X5X;Xn.;XT.;XT.rX5X1X4Xb.n.7.j.j.s.8.L 9.9.'.`.4X,X8X,X:XL.L.g.g.U.{.4X5X7X9X9X7X9X3X*X!.L.g.r.9.} 0.6.} 9.j.'.h.) l                                                                                                                                     ",
"                                                                                                                                        # # # + # # # # # # + X # X o X X X o X O X X X X X $ % $ # + X . X + @ = k T j [ x.x.b a / { #.p.M b p j =.;.k - 4 x m / | X./ b j j 3 < < - 4 4 w 2 : 2 0 4 2 4 4 q C 3 C 1 1 b b b =.W W V 1 u a d B X.u.a.@XA.$XV.f.e.r. .e.z.( f G K J J J G X.X.%.c.u.( M j ~ h c 2 2 @ 2 c ~ m R *./ / *.-.R ^ h 9 2 4 q z j V B :.H i.h.g.H.).-X/.5X4X_.8X<X<X,X=X4X=X5X}.,XSXBXXXDXJXJXVXDXvX2X*X1X1X1X=X;Xb.R.5Xb.=Xb.R.R.R.=X<X*XyXT.J.=X5X5X9X9XNX/.4X{.n.i.D u g U l.4.m.q.tXY.b.{.b.-XyX8XcX:X1X9X:XNXcX1X:X*X1XNXNX5X,X<XnXhXrXE.jXmX.XFX4XjX6X6X4XmX}.4XeXrX}.E.4XjXnXcX2XrX4XcX8XmX,X<XcXsXvX6X8XsX2XcXMXcX/.^.5XT.8X~.<X1XfX9XcXNX1X*X=X=X=X;Xn.J.n.=X9X=X-Xd.n.7.c.9.r.} } 9.s.P.).<X5X1X<X:XE.H.V.g.g.H.!.:X,X1X8X7X3X7X,X>X(.g.s.i.0.} P 8.s.P.U.P.o.T                                                                                                                                     ",
"                                                                                                                                      X o # # + + + + # # # # # # X X X X X o X o X X X X # % 7 $ # # o X X + @ 8 k l m _ S.M i d | u.+XoXX.a R ] >.;.h - 3 z b X.%.| | ] ] _ j p p ~ h ~ v ~ v z z 3 3 z h 1 1 1 1 u _ >.n -._ a u u p b b J ..{ +X8.$Xf.f.Z.I.r.y.a.z.D ..n J *.B J ` H ) | u.c.H D M ' N h q - = - 3 ;.B *.[ ) ( H x.X.] _ j 3 3 2 < 3 v V b .. .a.y.g.s._.!./.rX!./.8X:X8XrX~.T.~./.^.}.SXdXKXJXDXKXJXJXvXsX!.1X:X*X=X;XJ.R.5X=X<XT.R.=X=X*X~.<X1XyXT.T.n.*XyXNX8X8X5XrX(.g.} D i i S P l.j.s.n.Y.].d.d.-X5X*X,X8X8X9XcX*X7X9X:X~.5X<X=X=X/.jX6XMXMX6X2XjXmXmX6XhXjXlXKXQ.6X6XrXSX^.mXE.rXmXMX>XmX6XSX2XcXVX2X^.2XsXjX2XvX8XfX,X,X<XcX:X<X<X:X8X9X1XcX:XyX=X=X5X5Xn.n.n.J.=X5X1X=Xb.q.9.i.i.u.L } 9.k.Y.-X>X4X,X>X^.L.H.I.g.g.g.!.:X,X:X1X5X0X9X1X,X=XJ.g.9.6.0.} 6.k.'.{.P.p._                                                                                                                                     ",
"                                                                                                                                      o o X X X # + + # # # # # # X X X X X X X o X . X X X # 7 $ $ & # X X X @ : c h B ;./ d M / #.y.oXX.G M / >.>._ N 9 q z b ` ( :.] ] R R m ' m =.N ,.m j j h p 3 1 < p x p p V OX=.>.-.-.` i i B d n M G D.e.r.$XV.P.I.f.A.Z.C.+Xu.G D G J B n ` n n X.( {  .H oX] =.x 3 - = - 9 =.M [ :.) %.{ D. .z.%._ m h 2 3 < < x N b G u.y.y.r.s.4X!.8X<X>X>X/.7XNX/.T.~.8X8XL.>XmXhXkX.XBXBXBXvXbXcX8X:X1X1X-X;XJ.;X=X=XT.rXJ.5X=X=X~.=X1X=X9X9X*X5X1XNXSX9X5XT.8X_.r.} f i i K S #X8.'.n.Y.q.R.J.~.yXL.NX8X1X1X8X8X5X<X<X8X8X5X~.*X8XSX6X,XjX8X6XjX6XhXmX.X}.hXGXkXhXjX}.nX,XnX6X6X6XFX2XcX8XjXcXMXMXSX6XcXvXcX<XfXvXfX:X3X8X1X9X*X*X~.NX1XNX5X1X9X;X;XR.n.n.n.b.R.5X5X=Xb.9.6.c.i.} H 8.8.9.g.T.~.4X>X_.E.V.V.g.g.g.b.T.~.*X<X<X8X3X1X7X<X<XL.g.s.6.} P 6.s.g.].W.e.)                                                                                                                                     ",
"                                                                                                                                      o o X X X X X X + # # # # # X X X + X X o o X X X X + & 7 $ # # # X # + @ : ! v ~ _ M b n | D.C.r.x.` b [ S.) =.p 3 3 p a a b >.*.>.b a _ W b a b a a p 1 1 p 1 1 N ;.u Z ,.,.B =.M i i d J J =.J J H u.{ [.y.tXV.P.[.@X'.D.a.e.p.{ D G J J J d G X.( | o.{ { { M.;.3 - 2 - 3 =.] G { G X.%.D.H a.S.{ S.M j 3 3 2 3 x V b $.p.a.D.f.g.{.-XT.5Xb.5X:X8XMXyXrXT.L.8X!.^.MX}.BX6XdX2XsXsXbX3X:X8X8X~.5X;Xn.R.;X1X=XNX=X=X1XT.=X5X=XyX*XT.8X*XT.NXMX1X9X8X<XJ.P.8.F D i g d f u.h.P.7.Y.].R.rX>X~.5X=X5X5X1X5X1X<X=X/.8XSX8X4X>X6XrX8X}.4XmX>XjXjX}.nXAXjXXXmXmX8XnXeXjXK.jXmXrXnX8XmXcXSXMXvXMXcX6XvXvX2X2XvXfX8XfXbX9X9X1X*XyX<X*X<X1X5X9X5X;XT.).n.d.n.n.wX5X*X=XR.n.I c.l.} { u.u.r.g.T._.=X_._.L.K.P.s.8.H.L.J.T.*X:X<X*X1X3X3X<X=X).Y.s.6.} } 6.j.Y.Y.J.h.|                                                                                                                                     ",
"                                                                                                                                      o o X X X X X X X o # # # # # X + X X X X o o X X X + $ 7 $ + # o o X X + 5 2 c v ~ u M / z.C.+Xa.| ( n [ | b B a j x j j B m j j a m =.j m a j 1 u a a B =.;.B p N V ~ ,.~ j j a u b *.*.-.J ` H -.| 8.D.V.wXV.K.[.9.'.r.[.f.a. .H X.n J d J n X.o.( ( x.H o.o.>.' h 2 = - ~ 2.n ( o.( %.u.u.u.} +Xu.S._ j 3 2 2 2 h x j ] | e.C.s.Z.H.T.L.>XJ.~.>X,XnXnXyXT.5X!.rXL./.nXSX^.vXcXFX2X7X9X8X<X<X~.-Xn.R.n.R.T.5X5X5X1X~.*X;XR.5X;X5X~.1X1X9X1X9X9X9X5X1X=XtX9.0.U g u u J ..} j.].b.U.U.J.5XT.~.=X5X*X8X5X=X,XNX~.J.=X8XyX*X8X4XrX6X8XrXcXmX/.6X6X6XSXSXmX6XjX}.rX}.6XE.4X2X6X8X<XsXvXsX7XcXMXVX2XvXVXsXbXMXMX7XfX7X*XyX*X*X<X~.1X9X9X*X=XT.n.;Xn.n.b.n.R.*X=XyXd.].9.L o.o.u.u.8.8.s.L._.~.!.!.K.Z.A.9.9.s.(.~.~.T.~.<X5X1X1X:X1X<X=XJ.g.i.6.0.P 6.g.(.].Z.|                                                                                                                                     ",
"                                                                                                                                      O X . . . . . X X X X # # # # # + # X X X X X X X X + $ $ * + # X # X X + 5 8 q ~ h p m X.| D.a.p.| n / x.$.M i i p j W m j a b b B b u p p b i _ J >.-.*.;.*.a m p B =.j a p a u M >./ ` :.x.H { L z.e.[.I.W.A.f.f.Z.s.D.'.D.a.u.) n b J ` J ` n :.{ %.%.:.n x._ b N - 2 z =._ n o.}  .S.{  . .} u.z.X._ j 3 2 - 2 3 h j ` ( #. .r.g.U.4X!.!.L.L.8X~.4XnXnXJ.T.=XT.eX6X/.6XSXsXcXsX,X8XcX*X5X<X5X;Xn.n.n.=XR.5X;X5X5X=X=X;X;X;X5X=X1X*X9X<X1XNX1XNX5X5X).-XY.P L K i a u d f i.k.].'.q.Y.R.J.T.=XJ.~.5XJ.5X5X>X>X~.~.4XL.rX>XcX4X~.!.yX>X>X6XjX}.4XrXAXmXmX6XmXMXeX4XSX>XjXmX2XMXsX}.vX2X8X7X7XVXsXMXcXcXVXbXbXfX9X:X*X1X1X~.1X*X1X9XT.5XT.b.].].7.].d.].=X5X=X).j.6.F { H u.o.u.r.s.g.L.).(.(.I.P.r.8.Z.H.L.5X*X~.<X!.:X<X:X*X5X1X=XJ.g.9.9.0.P 9.g.H.{.P. .                                                                                                                                    ",
"                                                                                                                                      . . . . . . . . . . X o # # # # # # X X X X X X X X X # $ $ + # X # X + $ ; 5 ! z 3 p R R D.D.D.&.G n ( x./ n n J n M / b _ M _ / -.b M n / -.-.X.>.OX( -.*.d b b J *.B u a u u b >.] ( x.oXH u.} i.j.s.A.wXZ.A.y.A.I.j.'.f.D.z.{ H b B J J D G n X.( x./ X.$./ >.b 3 < 3 ! ,.b n H } x.x.{ x.H u.{ :.] =.j 9 2 - - < 3 h W [ |  .0.8.g.{.(.H.J._.T.!.-XJ.rXrXL.4Xb.T.H.rX^.^.MX,X5X,X,X:X5X~.1XJ.).b.n.n.;XR.5X;X5X5X=X~.R.n.;XJ.;X;XT.yX1X1X9X3X1X5X=XrXR.Y.k.i...d u u i ` D } } '.'.9.U.R.).-X-X5XyX4X~.=XnX=X=XT.).rXJ.5X~.5X5X5XH.!.~._./.6XL.!.4X>XnXnXE.}.mX4XeX_.rXL.rX,X2XsX2X2XfXfXNXvX8XsXsX3X<XvXfXcX9X9X1X1X*X5X*X~.1X1X1X*X=XR.].-Xd.n.d.b.).4X=XT.s.6.O.H { x.{ } } 9.g.U.L.(.W.I.Z.r.8.'.{.wX=X1X5X*X,X~.:X:X1X5X5X>XT.b.s.} 0.6.6.j.Y.J.U.e.'                                                                                                                                   ",
"                                                                                                                                      . . . . . . . . . . . X o # # # # # o X X X X X X X X + $ $ + + + # + + $ ; 5 8 q - h m [ S.#.OX( b G S.x.G n ( G H X.` -.( :.oXx.G { o.X.X.{ G ) :.( G H d n X.>.M n u i i G X.G { { z.x. .x.L 9.9.'.P.g.tXI.A.A.C.C.Z.'.8.a.z.n n _ J J J D G ( n { ) G ] >.*.p 3 < < z ,._ b G X.H o.o.x.{ { H o.H ` _ j h 2 : - - 2 p a G G X.0.i.s.g.H.T.L.L.).rX).).!.rX_.rX4X).yXJ.~.8XNX<X/./.L.<XT.=X~.4XR.d.w.n.;X;X=X5XR.5XT.J.;Xn.R.].R.n.;X=X-X5X=X*X5X~.5X;XqX9.j.h.o.-.i i i i -.D z.L '.@Xd.g.J.L.R.J.R.5X).J.=XrX=XT.4XT.~.=X=XrX4X4X=X4X>X).=X).L.J.4XrX}.6X_.rXL.{.{.{._.rX5X8X8X^.8X<X3X:XfX8X,XMX8XvXsXfXsX3X,X7X1X*X8X*X*X=X*X*X*X5XR.n.].R.d.Y.w.b.).).-XR.[.6.S O.{ %.{ }  .r.g.P.J.(.U.V.f.e.8.Z.{.{.5X<X<X<X/.>X:X:X1X5X5X=XT.J.g.i.0.F P 9.b.(.U.r.'                                                                                                                                   ",
"                                                                                                                                      . . . . . . . . . . . . o o # # o o # o X o X X X X X + $ $ + + + & & + + 7 ; 0 2 3 h E >.&.| S.u a / -.:.n ) p.#.e.o.G ..z.8.u.L L oXL z.u.{ z.#Xf f f ..( X.x.X.n f H ` ....o.x.z.u.L z.{ 8.} h.s.n.s.@X@XZ.y.[. .y.[.[.h.a.F G G n =._ ,.D ` D H { ( X.n R j ~ 3 q - x ~ B B b [ ( x.( :.{ o.{ o.D *.B h z : - : - - < p n b G O.N.D.g.{.H.U.L.)._.d.R.~.~.).).R.n.R.d.T.~.>X<XNX/.>XL.5Xb.=X-Xn.n.w.m.R.;X;XR.rXJ.=Xb.n.d.n.n.R.;Xn.;XtXJ.-X;X=X5X1X=XY.9.s.j.8.{ *.u u V 1 J H o.P i.g.].{.wXH.R.J.=X~.~.).J.=XJ.b.J.-XT.T.J.).=X;Xb.T.~.b.=XAXT.T.-X_.H.L.s.d.{.{.b.-X).H.rX~.4X8X5X3XcXNX,XMXcX2X2XsX2XfXfXfX1X*X8X1XNX9X*X*X*X*X=X=X-Xb.R.7.n.d.n.J.-X).4Xs.9.L S o.o.| H } r.f.P.U.(.I.f.e.8.8.j.[.{.5X5X5X1X*X=X:X/.=X1X1X~.T.L.g.k.l.O.P 6.H.L.J.r.[                                                                                                                                   ",
"                                                                                                                                      . . . . . . . . . . . . X X o o o o # # o o X X X X X + $ $ @ + % % t $ + + ; 0 : 8 z m *.:.) ' a b ] M.G D S.t.a.8. .G ..oXi.F } c.i.#Xc.} u.S f H o.H l.x.x.x.G G z.{ o.oX} z.i.8.L r.i.H { a.j.9.].].wXf.C.C.B.D.f.r.Z.D.z.H D n =.=.=.n H H ..{ D G G S.a l 3 - = z x N =.p B b X.x.( H G X.D G n =.j 3 q - = , - : < z a M n ` L } 6.g.H.U.{.T.-X).b.=XJ.T.-X-X).).b.J.T.T.4X!.<X*X5X=X-X;XR.b.7.w.m.-Xn.;X;X;X-Xn.n.w.w.b.m.d.n.m.n.w.n.n.;Xn.=X~.).@Xq.9.Z.D.{ :.f u u a i =.O.0.k.j.q.].d.-Xd.Y.R.b.T.rX).J.-XR.b.b.J.T.-XR.).5XrX-X-XJ.n.n.rX5X-X4XrXb.b.b.d.d.{.J.-XtX-XJ.4X=X4X~.~.8X,X5X8XcX8XcXcX7X3XfX8X*X5X9X=X=X*X*X*X=X~.J.T.n.b.n.d.d.b.b.).4Xb.j.i.S L } } u.} u.i.s.g.H.H.A.r. .H H r.s.U.T.T.~.*X>X>X<X<X,X1X1X*X~.!.b.j.0.P 6.6.b.J.R.f.)                                                                                                                                   ",
"                                                                                                                                      . . . . . . . . . . . . . X X # # # o X o # # X X X + & * $ @ $ ; 5 r $ $ + # % ; 8 l m ] ] >.j b M _ G n H  .h.e. .e.{ z.u.F } i.D.i.oXoXH S H L { } L z.{ uXH {  . .a.a.8.8.z.} z.i.z. .e.e. .f.s.@X{.f.r.a.'.a.a.8.s.'.S.u.G ) G n *.-.H { D x.o.G ..G *.W h 2 = - 8 v x m N m W *.:.:.H ` G n ;.b j h C q - - - = ; : 2 s x W ` o.} 8.k.g.Y.{.tXH.4Xd.J.T.-XR.).T.-XR.b.T.).J.-XT._.>X~.4XT.R.b.w.n.w.d.m.n.m.m.n.m.w.7.w.w.7.i.4.4.4.w.m.d.qXn.J.-X(.m.7.I i.D. .u.G d u u u i n l.P P k.6.@XY.b.b.(.).b.].d.b.n.b.R.R.b.J.b.b.{.R.J.R.d.-Xb.].-X4X!.=X8XyX-Xb.b.].b.].d.Y.{.{.wXT.~.T.~.T.rX4X8X8XSX3XcX3XNX5X*X~.1X3X*X5X*X=X=X=X=X-X~.b.b.n.q.q.d.R.-X@XD.z.D L P 0.i.8. .e.f.j.g.b.H.a.| G b n { 8.s.g.U.(.R.=X=X<X5X1X5X*X*X~._.H.j.9.6.4.6.d.U.U.g.X.                                                                                                                                  ",
"                                                                                                                                      . . . . . . . . . . . . . X o # # # o + + # + X X X X # % $ @ : 5 e w ; $ X & & ; 8 h R ] _ _ m a M >.G H u. .r.r.h.a.C.D.} } u. .e.h.{ H H O.x.oXD L c.#Xx.D H u.a.r.y.e.8.h.h.D.oXc. .H e. .y.r.P.'.[.g.Z.e.C.e.D.} Z.D.oX{ M M M / G :.(  .z.H x.X.X.] b E 3 : : - 2 ! c p 1 p b W / G _ M b b *.m x h 9 2 - - - ; ; - : 2 3 x B ` H } k.s.s.b.d.wX(.H.Y.).R.).T.).T.d.b.b.-XtX4X=XT.T.!.).R.].n.w.k.w.7.k.w.w.w.w.w.I 6.0.l.L I S F 4.5.4.m.w.w.].b.].Y.7.P #Xr.a.z.x.G J 1 p V d g #X0.'.k.m.n.{.b.].{.Y.{.tX].Y.n.b.b.n.d.n.].Y.U.J.b.tXb.q.b.R.).J.=X4XT.nX4Xb.Y.d.n.d.j.7.n.n.R.yX).).4X).5X4X:X<X*XNX*X1X*X*X<X*X1X=XT.8X~.T.,X=XT.~.Y.b.n.j.k.q.J.{.@Xi.H S } i.j.j.j.8.Z.f.P.n.J.g.x._ a p a M {  .8.k.j.H.).=X=X<X<X5X1X1X~.L.U.n.k.7.4.9.g.(.R.Z.$.                                                                                                                                  ",
"                                                                                                                                      . . . . . . . . . . . . . X o # # # o o # # X X X X X # % $ @ 0 e ! w : @ X $ % 7 8 h ' / ;.p B m m _ G G u.D.C. .Z.S.D.e.L } z.D.a.L L H uXM.O.L } c.oX} H } z.a.C.C.h.Z.i.r.i.#Xc.} { {  .e.C.8.r.Z.P.Z.Z.r.} D.a.8.a. .%.[ M b _ n X.( {  .z.{ x.x.G *.j v 2 = = = : C 9 h z h p a M ' =.b i a N p 3 < 9 2 : - : = = = = - < p b / G L } 9.9.n.Y.H.).d.b.n.J.U.{.].J.b.R.b.].J.R.R.).R.].U.].n.7.7.w.4.w.w.7.0.0.O.{ -.-.B i 1 u i d f S 4.4.7.4.4.q.Y.m.w.P k.8.h.8.c.H K b 1 u d ` { L 0.6.'.q.Y.].Y.b.U.J.J.].J.Y.].b.n.Y.q.k.j.d.d.q.R.].].qXH.g.rX).T.).T.wX).qXd.n.{.'.Y.n.d.J.(.wXeXT.).!.5X5X8X:X!.NX8X<XyX1X5X1X1X5X1X~.=X=X~.5X;XR.d.n.d.k.q.d.P.'.8.D L 8.9.P.U.A.f.Z.Z.'.j.j.8...V < < p a G H L 8.k.j.Y.T.=X=X=X,X<X<X*XT.(.n.j.6.4.q.d.(.(.P.%.                                                                                                                                  ",
"                                                                                                                                      . . . . . . . . . . . . . X X o # # o o o # X X X X X # % $ ; r w ! w : @ $ $ ; ; : h ' ' W a B B =.b ( |  .e.i.e.h.a.S.{ D D.c.h.e.F D } } } x.F } 8.8.8.8.} C.a.h.h.h.j.6.8.j.'.8.L u.} e. .C.h.9.j.'.s.h.+XD. .H c.L D.( G M M M -.G ( %.{ z.z.o.] ` j N 9 - = + ; 0 8 3 2 1 1 1 1 p x V a p a s 1 3 2 q 0 2 - = ; = @ = = - 3 j B G { 0.i.P '.g.b.b.d.7.7.d.d.Y.d.b.d.d.Y.{.R.J.R.b.].b.n.j.7.P 0.0.0.0.0.P F K *.W N < = = - - < u u g S I I 7.w.@X'.d.n.I c.h.@X8.} x.D J u u s d ` o.oX0.6.q.g.Y.d.].4.].d.d.].n.n.qX].'.7.9.s.d.'.d.b.m.@Xn.Y.b.L.L.J.tXR.-X(.U.H.H.g.P.9.d.Y.].U.J.wXL.).H.J.>X~.4X*X~.cX=X~.rX1X1XT.T.~.=X).5XT.R.b.b.b.m.j.9.9.g.P.h.F f } 9.g.U.(.H.K.V.P.j.j.i.} n 1 - - < 1 a d D L 0.s.b.J.T.~.=X1X1X<X<X~.T.H.j.6.4.q.g.R.).Y.#.m                                                                                                                                 ",
"                                                                                                                                      . . . . . . . . . . . . . X X X o o o o X o X X X X X # # $ $ r w ! e : = @ @ 7 ; - v m W j u W B m b x.( u.+Xh.h.C.+XH H } i.D.8. .} } L i.O.F 0.i.C.L h.} Z.e.e.iXr.h.8.h.i.j.c.8.}  .e. .i.e.h.@Xf.r.r.Z.8.8.p.S.{ } o.x.M / m *.*.X.%.G z. .x.{ >.M W h 2 = ; + > 0 2 w 2 - 2 2 < < 1 3 s 3 s 2 < 4 2 : : : = ; ; ; = = = - - p x B =.K { } 8.j.g.{.n.q.j.m.k.w.j.k.d.Y.n.d.b.U.(.b.Y.d.w.7.6.6.l.I O.F F D =.=.2 = @ + + @ > = = < 4 a f F 5.I 4.7.m.].k.4.7.'.'.j.I i.M.-.i u 1 a b G o.l.c.c.'.d.{.].b.b.d.b.q.9.d.j.k.9.k.c.9.k.9.q.m.w.m.n.6.7.{.K.].-XJ.Y.b.H.g.J.K.P n.g.@Xd.q.{.R.wXeXrX!.L.L.8XJ.~.J.~.).R.=X=X=X=X~.).).R.-Xb.b.n.n.Y.m.6.I h.c.u.D } z.s.H.L.^._.!.U.g.g.k.6.H j < - , - 1 p a n H O.s.n.R.T.T.~.<X1X1X<X~.R.U.n.q.7.q.H.R.).K.#.m                                                                                                                                 ",
"                                                                                                                                      . . . . . . . . . . . . . X X X X o o o X o X X X X X X # # $ 6 r w 5 : : = @ 0 : 2 v j m p p N a M M ) { S.{ h.h.+XH D u.z.D.i.e.a.8.8.i.z.L L } i.} h.I.8.C.'.r.+Xr.8.8.h.@XD.} L h.e.a.e.i. .C.j.8.h.i.e.8.z.z.o.( { :._ m b m / / $.( | #.D.D.X./ M j 2 0 @ @ + > : 2 2 2 2 2 : - - 2 < 4 : < - - : = : 7 7 ; > ; ; $ = = : = < 1 a V J K x.0.9.'.g.n.s.q.w.7.7.v.w.k.d.d.Y.b.n.d.n.n.k.w.4.P L D d K _ =.j < = + + + & + + @ & @ - < u V S S P 0.0.q.w.7.4.c.'.'.j.9.P } x.D a s p a f K L x.} j.n.].-XR.b.J.wX'.P.9.s.k.0.6.P } i.0.0.P k.m.m.@Xg.P.[.'.[.b.4XH.{.(.H.s.Z.[.g.[.Y.qXJ.).(.(.(.L.-X_.).).).~.T.;X;X;X~.=X>XT.-X).-Xd.n.d.q.b.m.'.} P c.i.F f z.'.P.(.T./._.}._.U.g.9. .H a < - , = 4 < u d D L 9.d.J.T.*X*X1X1X1X1X<X!.(.n.q.7.q.J.R.).H.e.m                                                                                                                                 ",
"                                                                                                                                      . . . . . . . . . . . . . X X X X o o X X o o X X X . X X + $ > 0 5 ; : 5 0 : 5 : 2 c k E p p N j M [ { %.z.h.D.D.8.L D z.D.'.} D.} r.z.i.i.8.} h.8.h.Z.f.[.[.I.Z.r.} f.D.s.+Xh.8.8.C.i.a.8.c.} r.}  .8.a.}  .{ OXG H ( M m a *.m *.$.S.( { #.u.S.X.*.b N 2 6 + X X @ , : 2 < : , , - - : = = = = ; ; > ; > > > $ $ $ $ $ @ @ ; @ - - < u V J f L 8.j.'.j.s.I 4.I 4.4.0.k.m.'.Y.n.d.d.n.q.7.4.0.F S f B ~ v < @ @ + X X X X X & @ > @ = < 1 d f K F 0.P k.m.k.6.k.'.j.9.k.6.'.v.M.V u < u i d f H c.9.k.d.].-XR.J.U.d.{.P.s.4.P P F H F O.{ F 0.P N.'.P.9.7.'.{.b.(.(.(.H.qX].g.wXn.[.Y.n.qXb.J.d.(.-XJ.{.).R.-XR.J.b.-X).-X4X4X5XT.).7.d.].n.q.'.Z.D.F H } { D 8.'.'.H.T./.*X!.>X_.{.H.g.r.{ b 1 < - = : < u n K } 9.d.J.J.<X<X9X9X8X1X<XT.L.n.d.7.d.J.).~.H.e.R                                                                                                                                 ",
"                                                                                                                                      . . . . . . . . . . . . . X X X X o o o X o o X X X . X o X # $ 6 ; ; ; 5 : : 8 0 c c 9 h < ~ ~ p m / (  .u.e.D.8.L F o.u.D.8.8.8.i.r.'.D.} L 8.i.8.Z.A.I.I.[.@XZ.h.} } 8.h.D.i.8.h.D.+X .u.i.8. .z. .}  . . .x.X.G G M ' B x j B ] >.oX#.a.+X .{ ( _ p 3 : @ X # X % 6 = 2 2 : , ; = = ; $ @ + + + X X X X X X X + # % 7 $ $ 7 @ = = - < 1 V =.D L P 9.6.i.I P F I I 4.7.9.j.d.d.].d.j.q.0.P l.S f V ,.4 = + @ X . X X O @ @ $ + > @ = - 1 u d K F P l.6.v.4.S k.P [.s.P.d.4.0.oXM.b p < u u B >.f i.k.P.Y.R.{.R.R.qXs.W.P.c.F L L K n i d f D O.0.c.j.P.9.g.g.b.{.].(.].H.[.P.[.].].'.U.q.{.J.{.b.s.b.U.R.R.b.b.).b.-XJ.).R.T.-XR.7.n.k.4.q.s.Z.8.z.H ` o.( f a.'.U.H.L.=X=X~.~./._._.{.I.e.( b < - - : 2 3 V D L 8.s.L.).,X=X8X0X0X1X:X~.J.Y.d.q.b.Y.4X~.H.t.R                                                                                                                                 ",
"                                                                                                                                      . . . . . . . . . . . . . . X X X X X o o o o o X . . X o X X + $ $ ; ; 8 : : 0 8 w e e 8 2 ! h p M ] (  .z. .u.H F  .x.x.a.S.e.L h.i.z.D.} } i.j.s.Z.[.I.$X{.g.r.[.H 8.8.'.i.i.} i. .a.L c.} } } } D.z. .D n X.:.-._ M B p a b M / ( { a.F } u.:.OXa N < = @ X X X + ; 5 : - = ; > > > > @ + X X X X X . . . X . . . X X # % 7 $ @ = = - < 1 p n G L 0.oXc.O.P F I F I 0.k.9.j.j.'.'.s.k.i.L D n d ~ < @ + X X . . X X X + $ @ @ ; = = < < s g f S S P O.0.P I k.6.s.d.qXY.q.7.v.c.G b 1 u 1 u d ` H 0.9.Y.d.-XJ.-X(.ZXs.7.k.0.O.G n d a p a J ..H 0.j.9.P.P.s.].Y.n.{.n.s.9.wXY.U.Y.(.(.tX7.J.Y.b.d.].n.Y.n.b.Y.b.b.d.Y.-X).R.4Xg.Y.4.6.6.c.0.z.o.{ G J ..f  .Z.W.K.L.4X=X=X~.=X=X:X,X>X`.Z.8.n a < < - < 1 d n } 6.s.b.(.=X5X1X1X9X1X:X~.T.J.b.d.d.R.=X-XK.#.T                                                                                                                                 ",
"                                                                                                                                      . . . . . . . . . . X . . . X X X X X X o X o o O X . . . X X X # # $ > 5 0 8 e 8 8 8 2 : 2 ~ 3 h R ] $.|  .8. .F } u.u.8.u.D.H L i.h.c.} 6.F Z.Z.r.$Xf.[.Z.r.Z.} e.h.8.8.r.'.r.r.8.D. .{ u.} } } x. .u.#Xo.X.D *.*.=.j j x a ;.b M $. .S.e.F x.G _ N h - = + X X X + ; : - - = ; > % % % # X X . . . . . . . . . . . . . + # $ $ $ $ = = - - 1 a n D H 0.} o...-.S U S L L i.j.k.j.'.6.c.0.o.d B A - = X X X . . X X X X + @ @ @ = = = < 1 u i J D U I F P I } '.P '.qXU.n.Y.4.k.#Xx./ u 1 1 p a n D o.0.j.n.].-X-XJ.b.wX].'.k.S f =.j p 1 1 u V ` o.i.Z.j.'.s.g.].n.d.d.m.d.].d.n.g.J.H.d.Y.7.d.Y.n.d.Y.d.n.d.Y.n.].n.U.R.b.-XH.P.9.9.0.L } H { ) ] b b n n  .[.`.!.!.=X!.-XT.-X=X8X,X8X~.(.r.{ M 1 3 < < 1 a n L } s.g.L.~.~.5X1X3X1X1X*X).Y.d.d.J.).-X-XP.#.                                                                                                                                  ",
"                                                                                                                                      . . . . . . . . . . X X X . X X X X X X X X o O O X . . . . . O # # + $ 7 w e e w q e 2 : : C 2 h W ] :.{ u.u.} L x.u.u.z.z.D  . .8.D.i.8.P 8.'.h.r.Z.Z.Z.6.I.8.8.} a.i.8.h.D.h.} e.z.z.u.} } H o.( :.:.X.:.G d ] =.;.j p u V =.] n | | u.D.8.X.X.,.j - 0 @ + X X X + ; : : - = ; $ $ & + X X . . . . . . . . . . . . . . . X # * * $ @ @ = - < p b M G ( ..G D f D K F H 0.L 8.8.8.8.c.P } D M Z 2 + + X X X X X X X + # + $ $ ; = = - 3 1 u A V i S S P I L 6.k.m.'.Y.wXn.Y.4.n.[.+Xo.n 1 1 1 u a B -.l.c.P d.d.R.-XJ.b.U.Y.} c.` i V p 1 1 < p B H } e.r.} '.s.s.d.qXd.Y.j.7.'.W.U.U.{.].'.Y.s.9.s.9.7.q.j.q.].n.n.d.Y.b.b.Y.P.h.i.} O.O.{ { ( ] ' a a i ( a. X_.^.~.4X-XR.R.~.=X1X3X:X<X~.W.8.G n < q < 1 a n I O.i.h.n.(.).=X1X1X0X1X<X).J.b.b.J.;X-X).P.@.                                                                                                                                  ",
"                                                                                                                                      . . . . . . . . . X X X X X X X X X X X X X X X X X X X . . . O O X X $ 7 5 2 2 w 8 8 2 - : : 2 3 m *.X.{ u. .H  .S.8. .D.u.} }  .c.8.r.r.} '.h.Z.r.Z.'.r.f.r.8.a.i.} u.i.} tX8.e.} u.x.{ { x.H { G X.( X.( n G M >.,.1 x < u m _ $.| z. .u.x.:.-.N 3 2 @ @ + X o X X @ ; = = = $ & + + + X . . . . . . . . . . . . . . . . . X # % $ @ @ = = - < h b m B n i B d J d K K D H o.o.i.x.L x.H d W h @ $ + + + + @ + + + + $ $ $ $ = @ = < 1 A u i g K ..U F ..F S @X{.Y.wXJ.Y.{.b.7.@Xf.i.( b u 1 1 u d K H 0.9.].n.].wX).4XY.P.'.} O.` J B x < < 1 a n ( { u.r.h.Z.s.d.9.m.m.'.P.d.U.d.U.U.Y.s.n.j.k.9.'.6.9.m.k.'.s.j.k.s.q.q.P.i.oXx.o...D G *.*.*.m p j M | C.`.,X:X*X=XJ.(.R.T.,X<X3X3X<X=XR.j.} n u 1 1 u d f F P 0.i.m.n.R.T.<X*X1X1X*X~.b.b.b.J.).-X).j.)                                                                                                                                   ",
"                                                                                                                                      . . . . . . . . . X X X X X X X X X X X X X X X X X X X X . . . O O X @ > : 2 9 c 9 2 e : ; ; 2 3 m _ X.{ { D D o.z.z.D.+Xx.H o.{ u.z.8.8.r.y.'.f.9.'.r.r.} C.i. .x.x.} u.D.8.a.D.e.} { x.{ { { H >.` ` n :.M -.M W Z 3 z x N m _ G @. .#.u.{ :._ p q @ ; @ + X O O X @ ; = = @ @ @ + + + X X . . . . . . . . . . . . . . . . . X + $ $ @ @ @ = - 2 p h x j a x V B d V n J G n ..H H o.O.D =.p - = ; + + + @ @ @ @ @ @ $ $ $ = = - 2 3 u u i i g g S U F L S j.].q.tXb.L.(.d.Y.d.b.d.'.oX` d u u u u d K F 6.s.q.].].J.{.].K.f.D.L D ` *.,.h < 1 p p b / ( u. .8.s.'.s.j.'.j.k.s.@Xg.s.s.s.@X9.6.c.k.6.c.6.k.i.h.i.h.c.k.8.k.i.x.x.:.G G i n ' *._ p j M / | I.`.<X:X/./.R.R.R.-X*X1X3X3X:X,XL.P.i.G a 1 1 u i V F L O.0.k.d.J.J.T.*X:X<X*X).R.d.d.J.).).W.a./                                                                                                                                   ",
"                                                                                                                                        . . X X . . . . X X O o X X o o X X X X X X o o O X . . X . . O O X + ; 8 2 k v k 3 c 0 = , - 9 m M -.X.X.D | oXD.S.a. . .{ } L z.c.} r.r.C.Z.I.Z.9.Z.r.8.i.L x.o.F {  . .h. .D. .{ o.o.{ x.n -.n ] b >.$.-./ m W h < h < x N m ) ) z.u.{ x.b j h = ; X @ + X O O X + $ @ @ @ + + + + + X X X . . . . . . . . . . . . . . . . . X # $ $ @ @ = = - < 1 3 z z 1 3 p V x a B d J n J K D d B W < < : , @ > @ = = = = = ; ; ; ; = - 2 p p u i g i f g K U U L i.tXd.b.wXq.tX{.{.d.].b.(.g.'.x.G i 1 u u d =.U 0.9.'.d.{.].J.L.L.[.k.h.H D G _ B 1 < 3 1 p =.G H 0.u.#X9.9.9.6.j.s.s.s.j.6.9.k.k.k.i.P i.0.i.P L L } 0.6.8.0.8.u.o.( .._ b a b W _ B b u m / G  .{.4X:X:X*X>XJ.J.b.~.5X7X3X7X7X,X~.H.r.{ a p 1 u i f F P } 0.9.k.Y.b.T.<X<X:X,X=XR.b.b.J.~.(.P.e.m                                                                                                                                   ",
"                                                                                                                                        . . O O X . . . X X o o o o # # # X X X . X X o X X X . X . . O O X + @ : < l v v 3 v 8 ; 7 = 3 N b -.-.X.n ( u. .a.C.a.o.{ { 0.x.8. .r.D.f.g.'.f.'.s.r.r.8.x.} o.H H { a.S.a.+X8.o.o.H x.n G :.` _ ` ] ` M M M j 3 3 < 3 N j R $.:.u. .S.( _ =.z ; + + # + X O O O X + @ @ @ @ + # + + X X X X . . . . . . . . . . . . . . . . X X # $ @ $ = = = = - < - 4 3 < < < p u u Z a V d b B =.N 3 < 3 < 4 : , = ; = = = = = ; = - - 1 p a i V i i f J f K D L O.9.qXT.J.n.R.{.W.{.q.].R.R.qXs.+Xx.K u u 1 u V K O.0.k.j.d.Y.P.{.H.'.j.k.D.L H [ ;.Z < - < < a J ` ..{ } i.9.j.P.'.f.9.k.s.6.9.} i.0.c.i.P L F l.o.O.} } x.i.8.L H D n J b j j j m B a u b _ [ ( e. X6X3X7X8X/.L.J.~.4X5X1X7X7X7X7X*XL.f.( / j 3 p i D H } } } 0.7.d.g.T.~.:X1X8X=XR.n.b.R.~.(.j. .j                                                                                                                                   ",
"                                                                                                                                        . . X O O X . . . X X X # # # # o o X X . X X X . . X o X . . O O O + @ : 2 Y ~ ~ 3 v : ; = : 2 l M *.x.n G x.x.{ S.p.{ H H { H u.u.e.i.r.f.r.h.8.8.D.8.8.} x.oXH x.H  .u.e.u.{ { { ..H X.o.x.n n M M b ' m W l l 3 < < h x W m / ) ( oX{ -.*.v 2 ; X X # + X O O O X X + @ + X X X X X X X X X . . . . . . . . . . . . . . . X X X X $ % > > ; ; = - : , , = - - - < - < 1 1 u x i b _ p 3 < < 3 1 < 4 2 - - = = = - - < < 1 j _ J K -.D D -.U S F F l.L @X{.J.;X;X).tX].{.{.n.b.-XR.'.j.c.x.f i u 1 a V -.L 6.4.g.n.g.U.g.P.s.'.'.6.u.x.` b 1 - < 4 < a n G X.H z.} s.9.'.f.Z.'.'.s.8.} S L 0.L O.H L :.F D H H -.{ o.n G B V p p 1 p l E W p u W [ / ( e.wX4X9X3XyX!.H.H.b.1X5X9X7XsX7X3X8X!.Z.e.G m p p i D H } } } 9.k.9.b.b.=X1X8XNX8X).b.b.R.J.d.h.{                                                                                                                                     ",
"                                                                                                                                        . X X X X X X . X X X X & # # # # # X X X X X X . . . X X X . . O . X $ = 2 c ~ c k 8 = : = : 2 h m _ -.G ( %.a. .#.u.o.H { ( { z.z.u.i.8. .e.D.8.L e. .u.( %.z.o.H o.l.x.o.{ X.D D ` M.:.X.( >.G b a j j 3 h ! h z 2 < 3 N W M ] G G n [ M N 9 ; + X % # # # # # o X X X X X X X X X X X X X X X X X X . . . . . . . . . . . . . X X + $ > , = = : - - = = - - - - - - - - < < a a =.b p p a 1 x Z u s s 3 2 3 - < < 3 p a a n ) X.x.{ I I F I I l.O.P 6.ZX(.yXJ.R.J.4X).R.4X).b.;X-X-Xd.j.v.H d i < 1 a J M.0.k.6.P.{.8.{.{.wXg.P.Z.L  .{ B a < - - 4 h N a B H :.u.c.} Z.s.'.I.g.8.r.L L L L H -.K D n ` n B J =.M b B x x z < < 3 p h l k 3 m *.G H  .y._.,X9XfXrX/.H.g./.*X9X3XfX7X3X7X8X4XK.r.{ G M b b n D H { 8.8.9.n.b.J.5X9X9XNX5X=XT.n.b.Y.P.8./                                                                                                                                     ",
"                                                                                                                                        X X X X X X . . X X X X # # # # # # o X X X X X . . . X X X . X . . X + @ : Y ! w 8 8 : = = - 2 3 N B *.M (  .a.#.#.%.o.( ( H ( { z. .z.} u. .{ L  .o.{  .%.z.x.H H ..H ( G G ` n G D ` >.:./ ` i a a p h 3 3 3 3 2 < 3 v m m M M -.G ( _ ' l 8 = + & o # # # # # # X X X X X X X X X X X X X X X X X X X . . . . . . . . . . . . . X X & > , ; ; : : - - ; ; = = = = = = - q < s =.u b a u n V J i B u u p 1 p p N 1 p d d X.z.x.u. .i.0.l.v.I v.P F } 9.AXV.wXAX4X).R.5X4X-X-XT.4XH.tXJ.[.s.i.O.i 1 < 1 V D l.7.9.'.H.@Xs.{.s.g.8.'.} 8.oX-.=.1 < , - < 1 x j *.n H L 8.r.P.6.P.[.f.f. .} L { ` D K g J d J a N N p x h h 2 - - 2 3 3 v ! 3 9 N M ( { e.y.^.<X3X7X8X=Xg.L.L.5X8XfXfXfX2X3X8X4X`.V.8.( G M d n n H { 8.9.9.n.R.T.5X9XcXfX1X*XT.J.Y.Y.j.o.M                                                                                                                                     ",
"                                                                                                                                        X X X X X X . . X X X o X + # # # # X X X X X . . . . X o X X . . . X X @ ; w ! w 2 2 : = : : : 2 N W =.G H { p.e. .{ o.) { H o.{ u.}  .u.L u.u.{ {  .z.| G G :.X.{ H ( G G -.( / b ` ` X.n ( _ G j a v 3 9 8 q q 2 2 3 3 b _ i ` G X.X._ m c - @ $ X o # # # # o X X X X X X X X X X X X X X X X o X X o X X . . . . . . . . . . . X X + $ ; ; ; : - - : ; ; = = = = = : = < h ~ N ,.d d d J >.D n J n -.a b M _ M G -...H x.u.8.i.} P 7.N.v.v.P F 0.9.{.tXW.tXnXL.T.-XT.-Xb.wXR.T.).4XH.{.g.9.oXf d 1 1 V J K i.i.j.{.d.s.9.[.g.'.g.h.8.H :.=.p - 2 = < 3 s a b i D o. . .c.'.Z.h.Z.'.e. .} H H H d =.i b a j N p < 3 9 3 - - 4 2 2 h Y 9 9 h E _ G u.#.y.^.3X9X7X5X_.H.H.>X*X9X9XfXfXfXsX7X,X_.I.y. .( K d D n H L } 0.s.Y.R.~.1X9XcXfX1X=XJ.n.Y.].j.o.m                                                                                                                                     ",
"                                                                                                                                        . X X X X X . . X X X # X + # # # + o X X X X . . . . X o X X . . . X X $ @ 8 w w 2 : : ; ; e - 9 l =.=.n n H #.| ( G { X.) X.{ { D.} S.a.{ u.u.H %.o.X.S.x.X.X.H ( ( ` G G M G n ` ` ` ) >.G >.*.B ~ p 3 < 4 ! 2 - 8 - h 1 M ` n ) OXG R N 2 : @ X # o # + + + X X X X X X X X X X X X X X X X # # o X o o X X X . . . . . . . X X X X + @ $ ; ; ; - : : : ; = = = = - - q h x N B J B B n -.` K ` X.-.x.x.x.z.o.x.x.{ o.c.oXc.c.'.'.q.k.c.6.oX4.I 9.j.I.W.{.H.AX4X;X-Xb.-X).;XR.b.R.rXL.(.{.s.P #X=.1 < 1 a *.H 0.P s.'.s.6.s.'.@XP.'.} L :.B j 3 = - - < - x x B i d n {  .i.i.Z.8.8.9.0. .{ D i b b b b p x < < 3 9 q 2 - 2 q 2 2 c 3 3 3 N ' / { %.#.y.`.,X3X8XrX-XH.!.~.4X7X7XfXfX7XfXfX8X4X(.f.} { K n J D H L } i.k.Y.R.*X<X3X9X9X1X=Xb.b.Y.'.h.X.h                                                                                                                                     ",
"                                                                                                                                          X o o X X . . X X X # + # # # # # # o X X . . . . . . # o X . . . X X $ @ ; 8 w 5 : ; @ @ 5 : k k ~ =.M b ( &.| { ( -.n ( G H  .u.} a.D.oX .H n o.X.o.) $.X.G H ) ..( n G >.] ` / >.>.] -./ _ *.m ,.h 2 c : - w : - h 1 b M d ) :.] >.W h 8 = + + X # + + + + # X X X X X X X X X X X X X X # # # o X # o o X X X X . . . X X X X X X + + $ ; , ; ; : ; ; ; ; : ; - - w 2 3 x =.=.i D M.` x.:.L l.0. . .e.8.'.@Xh.c.i.9.k.k.s.s.m.j.k.k.v.c.i.j.k.9.d.g.L.{.].4X_.R.-Xb.R.4X;X-XR.R.4X!.^.4XwXP.i.F d i 1 1 a G H k.k.k.c.6.7.m.{.[.s.h.L H ` N < - - = - - - 1 3 a b J ` o.u.D.8.@XL L r.i.{ -.n M _ ~ N Z < 2 - = w 2 - : 2 2 2 4 0 - 3 h W *./ X.| { r.`.1X7X7X5XL.L.H.4X=X7X7XfXfXfXfXfX8X4X(.Z.r.{ K K D G D } } i.k.Y.).=X<X3X0X8X=XR.b.b.Y.P.r.]                                                                                                                                       ",
"                                                                                                                                          X o o X X . . X X X # # $ $ # # # # X X . . . . . . . o o X . . . X + + @ ; : 5 ; ; > @ @ : e 9 k j N M b / $.{ ) n G n G X.H %.x.H u. .u.{ | D G G ( $.X.X.) :.( G G G _ M ` M *.] ] -.m m W m ;.x ~ q 2 8 : w 2 c h p p M >.G X.>.;.m c - @ + X # X + + + # # # X X X X X X X X X X X X X # o o X X o o o o o X X X X . X X X X X X + + + $ ; ; = ; ; ; ; : : : : : 2 c h N ,.i f M.f M.K O.x.i.P D.L 8.'.r.j.@Xj.j.w.@X6.].Y.q.m.4.7.7.m.q.j.j.g.g.{.H.{.{.rX5XJ.-Xd.).R.-X-Xn.-Xb.>XyXJ.(.Y.'.O.L 1 u < 3 b *.O.0.v.6.I q.'.n.].@X9.i.{ i M p < = = @ = = 4 z C p B B G o.} u.8.+XD.h.D.z...` b m N x c 3 - - : = = ; 2 2 - 4 r : - 3 N Q [ { { |  .y.^.,X1X1X4X!.H.!.~.5X7X3XfX3X3X7XfX7X4X`.g.8.} H ` D H D } } 0.k.b.R.=X<X3X7X8X*XR.n.b.n.P.u.R                                                                                                                                       ",
"                                                                                                                                          X o o X X X X X X X # # # # # # # o X X . . . . . . . X X X . . . X + + @ $ ; ; $ $ > ; ; : w 9 h p V W _ / ) $.$.d n G [ G G { |  .u.z.u.| ( n ` >./ / $.X.G G n n _ / M _ b b b G M *.=.W m j N v 2 2 - : : e 8 2 3 j m _ ] S.) >.R v 2 = + + # X # + + + + # # X X X X X X X X X X X X X X X X X X X X # # # # X X X X X X X X X X + + + @ ; ; = = ; ; ; ; : : 2 2 e ! Z ~ u J =.K D K l.P 0.I 9.9.j.'.9.wX'.q.q.k.w.k.k.7.4.7.7.k.w.7.w.m.9.7.Y.{.wXT.b.J.d.-Xb.J.d.tX-XR.n.J.R.).=X~.4XT.].].k.L -.1 3 < u =...S 6.I 7.6.9.].H.].'.i. .{ b x < = = ; ; , = 2 3 3 x a n D H { u.i.a.C.e.z.-.R m x h v - - = = : 7 ; : 2 < 2 z r - < Y m ] | { x.{  .f.4X8X7X1X-XJ.b.L./.,X<X0X3X3X3X3X1X<X~.L.g.9. .{ ` G H F L } 8.k.g.T.*X<X3X7X9X=XR.n.d.d.h. .m                                                                                                                                       ",
"                                                                                                                                          X o o o X X X X X X # # $ # # # & # X . . . . . . . . . O O . . . . X + # + $ $ $ + $ ; ; 5 8 8 9 h N B _ M M >.>.i B -.` ` ( ( ( | | | %.%.G n b b b G *.` ] ] / b M / b m a b b n a j p p j 3 v h q 2 2 = 2 8 C - h 1 B *./ $.$.R m ~ 2 @ @ & X X # X X X X X X X X X X X X X X X X X X X X X X X X X X # # & & # X # # # # o o X X # + + @ $ $ $ = ; ; ; ; : : 2 8 e z h h x n f f D O.l.F c.c.j.'.P.tX@Xs.@Xq.'.4.q.7.7.P w.7.w.q.4.7.q.7.7.].{.tX4XrXd.(.(.R.b.Y.b.R.-X-XR.-XR.-XT.5X4Xb.R.d.@XI x.d - 1 1 V =.-.l.6.k.@Xj.6.wX'.'.j.8. .G a A - 7 = @ ; ; 6 0 q 3 x b b G X.H { e.{ S.:.>.b v 9 z - q - : 7 , , 7 : - < z z 2 - C ^ ] $. .#.p.{ { A.4X5X,X,X=Xg.g.L.=X*X1X3XsX3X<X,X<X/.!.J.s.8.0...( H H H L } 0.j.g.J.=X<X3X3X0X<X=Xn.b.s.9.H j                                                                                                                                       ",
"                                                                                                                                          X X X X X X X X X # # # + # # + o X X . . . . . . . . . X X . . . . X + + # $ $ + + @ $ = 5 : 2 2 3 x Z _ ] / G *.B B B M *.] $.:./ | OXx.>.M b B a b b ` M ` n / b b _ W =.N j b b m m l 1 3 3 v 9 8 e = = = 8 8 2 h x =.-.>.[ [ ;.j 8 = + + + X # # X X X # # # X X X X X X X X X X X . X X X X X # # # # X + + # # # # # # # # # # X + X + % > > @ = : = = - , 0 - 2 2 3 3 p u V J M.D I l.} c.P 6.#X6.k.k.9.c.c.6.6.0.P 7.c.k.m.7.j.q.P 6.qX-XtXrXeXrXT.J.yX7.-XJ.R.R.tXJ.).n.wX-X5X;XrX-Xb.b.tXk.z.-.1 1 1 u V -.F z.i.g.g.].Y.Y.].P.r.u.n a Z 4 : @ ; = @ = - 0 q 3 h N n ` X.H  .x.:.] W j 3 < - 8 e 5 7 = ; , ; = - z C z < < N *.X. .{ a.S. .{ Z.4X,X5X=X`.H.g.(.=X8X3X7X3X7X>X_.T.L.b.H.s.9.} O.( ( G ..{ } 8.6.d.R.).=X<X7X3X1X=XT.Y.k.} G h                                                                                                                                       ",
"                                                                                                                                          . X X X X X X X # # # $ # # # # # X X . . . . . . . . X X X X . . . X X X + # # + + + @ $ 5 : 2 2 1 p N b _ b b j B b N b B b _ / M n >.>.>.-./ j b W a b >.*.>.b M b b ~ N p N m m =.N E h 3 < z q w q : = : : : - h a *.M $.$.>.j l 2 @ + + # # # # X o # # # + X X X X X X X X X . X X X X X X X X + X X X + # & % # # # # o o X X # + + + @ > > $ , , - - = = : , 2 0 2 3 1 p b b g g x.L v.6.i.@Xk.h.i.i.0.c.P P P S I c.6.'.'.#X9.m.9.Y.Y.{.nX4XeX5XrXT.R.-Xb.-XJ.d.-Xd.R.-Xb.;XR.tXJ.(.b.(.9.iX8.x.-.1 < p 1 Z -.H } g.f.g.'.{.d.{.'.{ :.d x q , @ = = = ; = : 2 2 3 j b _ ` G { ) _ m h 3 - : : , , 7 : ; ; ; @ : 8 v c 3 2 h m ' %.(  .e.p.#. .I.4X8X5X4XL.g.g.L.5X8X8X7XvX<X_.(.(.H.H.g.g.r.i. .H D D H { } 8.r.n.J.~.*X<X1X3X1X*XT.d.9.L B                                                                                                                                         ",
"                                                                                                                                          . X X X X X X X o # # $ # + + # o X . . . . . . . . . X X X X X X X X X X X # # X X # + $ ; 5 : 2 < 3 p N B W W j p a x N ~ j W m M M M ] *.*.W j j p a b M ;._ >.m p j v p 3 h x E ~ E ! v 3 < 3 w q : : = 2 2 2 3 v W / -.] ] R ;.9 : @ + # # + # # + + # # X X X X X X X X X X . . X X X X X X X X # X X X X # # # # # # X X X o X X # + + + @ $ ; = ; = - - = , , - - - 3 h p V B -...F L c.#X0.c.0.0.} } l.L L I F L } F P } k.k.P.P.g.W.-X4X4X).-XH.5XrXb.b.4X5Xb.b.].-XR.5XT.-Xn.;XR.J.-Xd.Y.].@XL x.n u < 1 Z B ..e.y.P.g.d.b.{.(.H.8.{ n V z 4 = @ @ = ; = = : : 3 3 p b _ M M M j h 3 = = = ; = = = ; = = = - 8 c c h 3 3 N m :.p. . .e.e.a.} I.4X8X>X_.g.9.g.^.<XcXcXcX7X6X(.P.g.g.g.Y.g.s.r. .H H G G H L 8.9.s.Y.R.~.*X1X1X3X<X=Xb.8.H b                                                                                                                                         ",
"                                                                                                                                            X X X X X X X X # # # # + X X X . . . . . . . . . . X X X X X X X X X . X X o X X # + + $ 5 ; : - 2 3 h N ,.^ j p 1 3 h v j m j m b m M ' _ W =.x p j p B j W ' E h 3 3 < 2 3 3 v l Y h c 9 2 - 8 0 0 = = : 8 2 9 h m M -.>.M ;.h 2 = + X # # # + + X X # # + X X o X X X X X X X X X X X X X X X X # X X X X X X X + + X X X X X o X X X + + + @ @ @ > = = : 6 6 = = = - 3 h p x J =.d H L oX0.8.c.i.L F L } S z.c.oX8.i.#XD.i.h.F j.g.Y.{.b.(.).b.yXrXT.nX).{.).J.-XAXb.wXR.5XR.-XqXb.-Xb.(.].7.Y.@Xq.i.M.i < < p =.D %.e.} Z.].d.J.b.K.[.a.H d x 8 : = @ ; : = = : - 8 3 h N ;.,.m j x 2 - ; + @ @ @ @ = ; = = : e c c 9 3 1 h R >.&.| H C.S.a.{  .K.}.4X_.!.g.s.g.}.5X9XNXcX6X XV.s.g.q.b.g.'.'.s.8.{ H D D H O.L 9.q.b.b.=X1X1X1X3X5X=XY.} H a                                                                                                                                         ",
"                                                                                                                                            X X o X X X X # # # # + + X X X . . . . . . . . . . o X X X o X X X X . . X X X X X X + $ 7 ; : = 2 2 c v E ;.N x 1 3 2 2 h j p j j N m W ^ W E j l p 1 j l *.^ v ^ < w = - q 2 9 v Y 9 c q e : 8 : 0 = : - 4 3 3 x _ _ M _ >.b h 4 @ X X # # X + + X X # # # X X o X X X X X X X X X X X X X o X X X X X X X # X X + X X X X X X X X X X + + + + + > , @ @ @ = ; @ ; 0 4 2 3 x Z V g D K -.x.oX0.L } 8.} #X8.#Xi.i.8.D.r.i.h.h.6.j.g.P.{.(.J.g.4XH.5XAX=X4XT.R.-Xb.R.].b.tXq.wX).w.yX).-XR.w.Y.Y.q.{.[.i.H -.a - - u B G  .h.j.9.].{.R.H.W.e.S.n a 3 4 = = : 7 ; = - - 2 - < < h v h v 2 : = @ % @ @ @ = ; : : : e h c z 3 3 3 j R %.S.{ p.e.e.e. .e.K.}.4X`.H.f.f.E.!.1XcXNX5X4XU.f.r.6.g.b.{.(.W.g.r.8.L F D L O.0.9.d.b.R.J.*X:X3X0X9X~.s.} ` j                                                                                                                                         ",
"                                                                                                                                            X o # X X X X o # # # # # o X X . . . . . . . . . X # o X + o o X X . . . . . X X X o X $ $ $ ; = - 2 8 c k v ~ ~ 3 2 2 < q 3 3 x v l E j l l h v h v x p 3 E l 2 2 : 0 = - 0 8 e c w w q 2 4 2 0 : : @ = : - z h ~ R m -.,.=.~ h - + X X & o X + + X + # # # X X X X X X X o o o o X o o X X X X X o o o o # o X X + X X X X X X X # + + # + + + + @ @ + $ @ @ @ = : 0 4 3 z Z x u b ` :.:.x.L F L } r.h.Z.'.@X8.tX'.Z.'.'.9.pXs.j.'.{.(.U.H.H.b.H._.T.4X-XL.-X-Xd.Y.wX].n.R.wXR.R.=XyX).b.w.].d.7.].m.c.0.D a 3 < 1 V M (  .i.9.].Y.).4XV.[.#.D u p w - = : : : - = = - - 3 3 h h 8 4 0 @ @ % + # + $ = = - : 8 c c c 9 2 2 3 m ] p.p.| p.S.#.u.{ y.E.}.4XK.g.9.s.E.<X7X7X9X5X{.f.8.9.g.H.L.T.(.(.I.f.e.} L H L I I 9.7.n.b.<X1X1X0X9X5X).9.8.G p                                                                                                                                         ",
"                                                                                                                                            X o # X X X X X # # # # + X X X . . . . . . . . . X # # # # + X X X . . . . . X X X o X # $ $ $ @ = = 8 8 8 9 Y 9 3 - - 2 4 2 < z v h v 3 3 j l ~ j h ~ h 3 h Y c w : = = , : : 8 : 2 8 2 - - : 0 : 5 ; - 2 2 z h N j ] / =.a x z = + X # & o X + + + # + + X X X X X X X X o # o o X o o X X X X X o o o o X X X X X X X X X X X X # X X # # + @ @ + + @ 7 7 $ > 7 ; : : q x s a i a n >.n G D } r.'.h.Z.A.r.wX{.f.P.wX'.@XwX'.g.H.H.H.wXJ.(.(.-X4X5X5XR.rXb.wXJ.Y.q.q.AX].b.wXb.rXrX>X).n.w.n.].d.d.@X].} o.M 1 = < 1 B G D c.'.j.m.d.).E.K.a.:.i z C 2 - 2 2 2 - , , : 2 4 4 2 2 - 2 = @ $ + & + + $ = = : 9 9 h v k 3 2 2 h R &.&.p.| p.S.x.{  .f.`.4X4XH.f.s.Z._.6X7X1XcX_.H.r.8.9.s.(.(.=X~.R.{.V.9.L L F L P v.6.j.b.).~.1X7X9X3X5XR.9.u.M h                                                                                                                                         ",
"                                                                                                                                            O o & o X X X o # # # # X X X X . . . . . . . . X o & # # # + X X X . . . . . X o o X X # # * $ @ @ 7 = e 8 8 2 2 0 2 = 2 - 3 < h 3 Z x h 3 h c c c ! ~ k 9 2 9 8 : = @ @ @ t 5 @ = = : : = - ; : 0 5 = = : z h x j m ] M B a x q @ + + # # + X + + + X X X X # # # X X X # # # o o X X o X X X X X X X X X X X X X X X X o # # X X X X + + # @ $ $ + + + + @ @ ; @ ; 2 - < < u b V >.n ( n H D.+Xr.Z.Z.A.r.[.f.$X{.g.b.H.'.U.s.q.b.wX{.wX(.tXs.H.4X!._.rX(._.-Xb.q.n.4.-X].b.-XR.T.cX4XyXw.;Xw.qXY.7.@XP.h.L G j 1 < 1 V n -.c.i.s.d.J._.`.A.C.u.b j Z 3 - 2 2 2 - - : - 2 - 2 < 0 , ; @ + + # # $ $ 7 : : 9 v l h E k 3 3 h j R @.@.#.p.| x.| G e.f.E.4XE.g.r.P.W.4X6X<X7X>X_.f.8.8.r.U.).-X=X=X=XL.g.r.8.} F I P 0.7.s.b.T.1X3XfXNX1X5XJ.9. .M j                                                                                                                                         ",
"                                                                                                                                              o o o X X X # # # # + X o o X . . . . . . . . X # + + + # # # X o X . . . . . o o X X # # # $ $ + $ ; ; = ; : 0 0 - 2 4 2 3 3 3 z h 9 2 < 2 0 e r ! c h 9 2 8 : = + + & $ @ = = = = @ = @ = = 6 r 6 @ : 2 c N x j M / ` b ~ q : + X + $ @ + + X + # # # X X X X # o o o # # o o o X X X X # X X X X o X X X o X X X X # # # # + + @ $ $ + + + + @ 7 > @ % % > @ - - 2 2 3 < u i i d d G #.t.%XD.r.@XZ.I.V.f.Z.f.'.{.W.{.n.s.g.q.n.'.].].U.-XH._._._.L.-XR.H.J.Y.k.k.7.n.AXb.-XwXb.5X=X;XR.b.b.{.d.7.n.].6.} M.M p < 1 s V >.o.c.P.b.{.R.T.4XA.h.D b =.1 < 2 q q , - - 4 3 q 2 2 - ; @ @ + $ + $ $ ; = 2 2 v h k l l Y h 3 j _ / x.) #.@.p.p. .{ e.V.{.{.W.s.s.H._.^.8X,X,X(.f.s.P r.f.!./.4X<X8X5X(.Z.r.8.} L P P i.w.d.L.,X:X0XfX7X8X-Xn.6.o._ 9                                                                                                                                         ",
"                                                                                                                                              O X X X X X # # # # + X X X X . . . . . . . . X # $ $ + # # + X X o X . . . . . X X X X + # # $ + + $ $ ; ; ; ; ; ; 0 q 8 2 2 2 3 3 3 4 : = = ; ; 0 e Y c k : = + + + & % $ ; : 8 ; = ; @ @ @ > 7 6 = - 2 h x N m *.M B p ~ : $ + + + @ @ + + X o & # # # # # # # X X o # # o X o + + + + # X X X X X X X X X X X X X X # # # $ $ + $ $ @ $ @ + @ + @ t t r , = 2 3 3 C Z ,.V i G o.iXD.+X+XC.D.r.Z.$XZ.r.V.f.Z.$XP.H.s.{.d.@Xs.g.].Y.Y.d.].).nX4XnX_.R.b.rX4XY.4.m.4.].).rX4X{.J.~.=XtX].J.b.-X].d.].Y.qX} { ..u < < 1 A =...h.[.d.J.J.-X_.[.r.{ d B a 1 < 4 4 2 2 < 3 3 c e 0 ; @ @ @ + + + $ ; = : 2 h v l h l k 9 3 p B M >.| @.#.p.&.#.H { e.V. X[.f.9.g.L.^.2X,XrX4X[.Z.} r.s.L.L.>X<X:X8X4X(.Z.r.8.} L P 6.7.k.H.L.1X7X0X7X8X=Xb.j.0...m 9                                                                                                                                         ",
"                                                                                                                                              X X X X X X # # # # + X X X X X . . . . . . . X # $ $ # # # X X X o X X X . . . . X X X X + # # + @ $ $ @ @ $ ; ; : 5 0 8 8 w q 2 3 2 2 : = = = ; : : 8 c 2 : @ + + + + $ @ ; w ! : = @ @ @ @ 6 0 , = 2 3 v j =.M _ ' m j q : + X # # @ @ + + X o & & # # # # X X X X X # # X X X + + + X X X X X X X + # # X X X X X X + + & $ $ @ $ % $ ; $ @ @ @ @ = @ = , q C C h u 1 V =.>.#XS.+X+X$Xy.[.I.r.8.V.{.W.wXW.{.r.K.W.'.d.j.q.H.wXU.J.q.s.Y.U.AX*X4X4X).J.~.(.m.w.k.'.n.(.).5X4X-X=XyXn.wXd.wXd.qX4.w.Y.qXP 0.D b 1 - < u b ( } 6.b.R.).4XH.W.Z. .G J B p < q C C 3 3 h h c q 8 = @ + + + + # $ ; = 8 9 v l N j l j 3 3 p =.-.X.) ) @.p.#.| ( #.C.K.{.{.V.g.V.!.}.5X,X4X{.P.r.} s.g.H._.4X<X5X=X_.U.g.9.} P P 6.7.d.b.T.,X1X0XNX5X=Xb.d.4.c.{ _ 9                                                                                                                                         ",
"                                                                                                                                              X o X X X X # # + # + X X X X . . . . . . . . X # # $ $ # # + X X o o X X . . . . X X X X + # # # + @ @ @ @ $ ; ; ; ; ; : 8 w ! e C 8 2 : = = @ @ @ @ 5 0 ! 0 6 $ + X + $ ; r ~ ,.! 0 = @ ; @ > 0 r : = h 3 W *.>.W ' b x < 7 + X # # + + + + o o # # # # # X X X X X X # # X X X X X + + X X X X # # # & & # + # # # + + + + # + % > > > > 7 ; 5 5 e : - - < - - 1 p j ,.*.>...S.#.D.Z.I.B. XZ.$Xr.wX$X4X{. XH.wX{.{.4.7.k.'.qXg.L.b.d.'.{.-XrX5X~.-XR.b.-XtX].7.7.m.b.-XrX4XtXd.b.).tXY.J.b.Y.qXd.n.d.@Xk.} o.G a < - 1 a ` { } q.qX(.L.H.I.P. .H ` J 1 < 3 z 3 3 h v h c 8 2 = @ + + + + > $ = 2 q c v l j l T ~ 3 l W =.>.>.) &.&.&.%.H { #.Z. X{.V.9.f.H._.4X>X>X4XK.f.r.8.h.j.U.{._.>X/.=XJ.b.s.9.P P 7.k.q.Y.T.=X<X1X8X1X5XR.n.q.6.0.o.R                                                                                                                                           ",
"                                                                                                                                                o X X X + # # # # + X X X X . . . . . . . . X o # $ $ + # X X X o o o X X . . . . X X X X # # + + + $ $ $ @ @ + $ @ ; ; ; : 0 0 ! 8 5 : = @ @ + @ @ + ; ; y y y 7 + + + @ : c ! ! y 5 @ ; ; ; 6 e @ 8 3 N m W *.;.m h 3 q + X # # # # # # # O O & # + + + + X X X X + # # + X + + + # + + X X X # # # & # # + # # # # # # + + + & % $ > 6 0 e w c ~ c ~ ~ ^ ;.+.S.1.>.) :.G G H e.e.[.[.[.A.f.} @XZ.I.K.yX_.wX(.L.H.w.q.'.j.{.yXrXH.s.].s.L.nX4XL.{.qXY.rX).q.w.m.n.n.rXT.FX(.b.J.wX].].d.qXw.qX].4.w.j.j.} } K B 1 < < s B ..i.j.m.H.wXI.[.[.} { x.-.a p p x h p j l j c q 0 = @ + + $ @ > ; - 3 h x j l m R T h v p j ;./ [ [ &.&.:.{ G { #.C.W.`.V.8.g.[. XE./.4XK.H.s.} h.s.P.'.{.(.R.T.R.b.q.7.6.6.7.w.m.n.;X*X=X8X<X1X5XR.'.9.7.6.c.../                                                                                                                                           ",
"                                                                                                                                                o o X X + # # # # + X X X X . . . . . . . . X X # % & # + X X X X o o o X . . X . X X X X # # + + + + + @ $ $ @ $ + @ $ @ @ ; : 5 5 8 6 ; = = @ X X @ + > 7 t 6 % + + + @ : Y ~ w ! r @ @ ; 5 7 r = 2 < h l m *.W h 3 < : + + & X o # # # # O O & # # + # # # # X X + # # + # # + + + + # # + X # # # # # # + # X # # + + + + + @ & @ = , : 2 9 k Y v E Q b $.S.OXOXuXX.G D n H  .C.'.r.[.@XP.j.8.9.P.tXwXwXK.{.b.q.7.m.w.].].tXeXd.g.tXqX-Xg.4XnXtXn.U.rX-Xw.4.k.q.n.yX!.yXeXb.b.d.].b.7.n.b.tXY.d.4.w.'.} } ..;.p < < p a G 0.k.7.H.(.K.I.j.} } x.>.b p u j m m m m h h 9 8 @ + + $ $ = ; : 2 3 p p m m ' R m l N N W ] [ [ [ | | X.G H ( e.F.{.W.f.8.s.I.{._.E.K.H.s.9.r.9.j.Y.n.].U.b.U.d.d.q.7.7.w.k.d.n.).;X=X1X1X5X5XY.n.7.I I 0.i.o.m                                                                                                                                           ",
"                                                                                                                                                X o o X X + $ $ $ + X X X X X X . . . . . . X X # % & # # X X X X o o o X X X X . X X X X X o # # # + + + $ % % # # + + $ ; @ = : 6 0 6 5 ; ; + + + X + X $ $ 7 % + + + @ : e w 5 y r @ @ @ ; ; 0 - 9 3 ~ m m m j j 3 4 @ + + & o # # # # o o o # # + + # # # # + + + + + + + # # X X X # # # X # # + + # # # + X X + + + + + + @ @ @ = - - - < < 1 j N ~ d b G x.#Xn x.D ( ..H H } r.h.e.r.'.6.k.6.s.g.{.wXV.[.9.qX7.j.7.].wX{.H.H.tXwXnX4X4X_.AXtXd.Y.J.J.m.w.].d.d.AX4X=XyX-X7.Y.qXY.7.@Xd.wXm.Y.4.w.@X9.L O.-.N - = - p K l.0.6.'.U.V.V.'.9.} o.x.-.m j a m W R M j h 9 2 @ @ @ $ = : 2 8 h p j b W R ' Q j m N W _ _ ] M @.| X.] n ( {  .Z.{.K.8.8.Z.I.I.K.K.V.f.f.s.k.k.j.g.Y.n.].d.d.d.7.q.7.q.n.b.b.Y.=X1X*X1X,X4XR.n.7.6.6.q.k.c.o.R                                                                                                                                           ",
"                                                                                                                                                O o o X X + $ $ # + X X X X X X . . . . . . X X + # # # # # o # X o o o o X X X X X X . X X o o X X # + + # + + + # + X + @ @ = @ ; ; ; 6 0 7 $ + X X X + + # $ $ + + + + = 8 8 ; 5 ; + ; $ ; 6 : e 2 h N W m m W l 9 : @ + & % # # # # # X o o # + + X + # + + + + + + + + + # & # X X # & & # # # X X X # + X & & # # # + + + @ $ = = - - < 3 N a a a d =.d D ` M.{ f ..-.n H o.L } C.@X6.i.c.I 9.s.'.wXtX{.@X9.7.q.Y.{.{.U.9.q.J.4XrX_.).J.4XwX].d.7.-X7.].7.m.m.].-X4X).tXtX7.d.qXm.w.'.w.wXqXd.5.n.@Xg.6.oXn =.3 - = p n K P '.j.I.W.Z.s.k.8.H :.>.n M b ' / ] ] m l h q = ; @ = = 0 w v j m M *._ ' Q Q a j j W _ ] M &.| $.X.G G | p.#.F.[.[.r.8.r.I.I.I.V.V.V.s.f.j.g.g.Y.b.m.d.7.q.7.d.q.d.n.b.b.n.R.;X;X5X5X!.(.m.w.4.I P k.P.j.| m                                                                                                                                           ",
"                                                                                                                                                  o # X X # # + $ # + X X X X X . . . . . . . X # # & & + X X X o # & & o X . X . X X . X X X X # # # X X X + # # # # + + + + @ @ @ ; ; 7 r r 6 $ + + X + X + + % $ + + + ; : : ; ; ; @ + @ ; > : : 2 9 p p b M j h w = @ @ & * + # + + + # o X + + + + # $ # # + + + + + + + + X # # + + # # $ + + + + # + + X # # # + # $ @ $ @ @ = - < h j E j b b b n d *.K K f f l.l.H ` H L L oXD.z.+Xc.P } c.9.@Xf.I.{.g.'.7.].d.n.{.d.qXd.{._.AXcXJ.wXb.tX{.w.w.tXd.d.m.m.q.d.).b.4XwXd.].7.m.].I m.d.qXb.d.m.4.qXn.6.M.{ *.h - 2 < u D l.P h.h.{.'.g.s.r.H x.X.G u _ / ] ` >.M h c w : ; @ ; 8 c E E j M ' *.] ' W m j j m M ] / M / ) X.-.n ( G %.t.C.[.Z.8.e.e.h.Z.f.f.f.Z.r.j.m.P.Y.b.d.d.7.7.4.w.d.Y.R.J.T.b.R.R.-XR.).(.U.j.7.4.I P s.W.U.r.| b                                                                                                                                           ",
"                                                                                                                                                  o # X + # # + # + + X X X X X . . . . . . . X # # & & # X X X o # & & o X . X . X X . X X X X X X o X X X # # # # + + + + + @ @ $ $ $ $ > 7 6 7 % $ + + X X + & # X X + $ 7 7 $ $ @ @ + @ $ ; : : - 2 h j b _ E v w @ + + $ % + + # + + + + # + + + + @ $ + + + + + + + + + + + # X X X + + + $ + + + + + + + + + X + $ > ; : 0 = 4 3 h ~ ;.' B =.n J M D f OXoXx.o.H %Xf n D oX} i.h.i.} v.c.0.j.+X[.ZXwXtXP.m.w.m.d.d.Y.d.s.b._.nXmX4XT.s.{.tXn.d.4.].{.d.7.w.d.Y.wXb.rX{.U.m.k.qXw.4.qXd.-X].d.N.4.qX4.k.v.l.` x - - - a D F P } r.f.I.P.'.r.H oX` M a M _ $.] $.' j v 4 - : : q 9 v E ' R R R ] _ ;.m b a m M M _ / M ) %.X.] ` n ( { B.G.Z.C. . . .e.h.f.y.r.s.9.j.j.g.s.b.n.7.q.7.4.n.].R.;X~.).T.R.b.Y.].Y.s.k.9.P P P 9.P.(.(.Z.H N                                                                                                                                           ",
"                                                                                                                                                  O # X + # # + # + + X X X X X . . . . . . . X X # & & & # X X # # # & o X X X . X X . . . . . X X o o o X X X X X X X X + + + + @ $ $ @ $ > 7 7 t $ 7 X # X & & # X X + # % > $ $ @ + + @ @ $ 7 - w h p W ,.W E v e @ + + + + + + + + + + + + $ $ $ @ @ $ @ + + + + + + + # + # # + + + + @ @ $ + + + @ + + # @ $ $ @ @ = = 2 q q < p ' a _ >.G >.G #X:.d H %.D.u.#.D.+X+X| H L 8.i.i.Z.'.iXh.+XZ.Z.$XZ.f.W.wX@X'.k.'.m.n.Y.b.{.4X4XeX4Xb.Y.q.{.d.4.q.qXn.].4.iXn.b.{.J.{.wX{.7.m.@Xq.4.7.n.wXb.4.c.4.qX9.6.0.x.H B < - - p V D U #X8.f.I.P.'.i.F { X.M B i J / M ] m E 3 4 = - 2 3 v E >.' R / [ ] *.' b a j b M M G M G ( X.] / G G X. .B.C.D.a.{ } } } u.e.a.a.i.9.j.d.n.n.n.w.n.7.b.d.R.=X5X<X=X=XJ.b.k.q.k.q.9.0.P S P 7.P.U._.(.r.X.                                                                                                                                            ",
"                                                                                                                                                    o X + # $ # # # + X X X X X . . . . . . . . X X # & # # X X + + # # o X X X X X X X . . . . X X o o o o X X X X X X X X X + # + + + @ $ $ $ 6 7 t $ % X + X & # # X X # % * % $ # + + @ @ $ @ 2 - ~ x =.M *.~ c 8 @ + # $ + + + + + + + + + $ $ $ @ @ $ $ + + + + + + + + + + # $ + + @ $ $ ; $ @ @ @ $ $ $ @ ; ; = = = < q ~ ~ ;.j >.b >.$.>.b >.x.X.f G n G #.D.{ +X+Xx.{ F L D.h.f.j.Z.j.'.[.Z.[.tXwX Xg.@X7.m.j.'.P.].(.{.nXyX{.nXd.qXd.tXn.4.4.tXb.n.w.q.4.n.b.R.yXyXY.4.4.].d.4.7.].].].k.7.4.g.P.6.v.c.o.=.p - - < a =.O.} r.f.s.d.j.+X} D H J a a W / ] ' Q N 3 - = 3 v l =.=.] b M M $.*.] b j a b M [ ` _ G G ( ( ] [ n G | #.B.D.D.e.L { {  .u.u.u.i.8.9.k.q.n.n.d.n.w.b.R.).5X1X5X5X<XJ.R.q.7.4.P 4.} } L I 6.s.(._.=XL.f.M                                                                                                                                             ",
"                                                                                                                                                    o X + # $ $ $ # + X X X X . . . . . . . . . X X # # # # X X X X o # o X X X X X X X X X . . . . X X o o o O X X X X X X X X o X X X + + + # $ $ $ % + X X X X X + X X X & * % & + X X # @ @ = 0 3 3 =.;.' M ~ z ; + + + % % @ + + # # + + + ; ; $ @ @ $ $ @ @ + + + + + + + + @ $ @ @ @ @ = ; ; ; = @ @ @ @ = = @ = : < < 3 b *.b ) ( G ( n :.X.[ oXD G i f ` ( H G %XD.u.#XL F i.Z.r.Z.tXf.f.f.[.lXeXtXK.wX{.qX4.7.7.m.g.H.4X_.L.tXwXd.{.qXwXm.4.7.tXwX7.n.].7.n.Y.b.L.tX{.w.7.n.w.k.w.Y.].d.m.I w.].'.6.i.'.D._ j < = < a d x.L h.f.P.'.j.D.8.D *.a V p ~ a R / m j 3 < < E m *.;.>.G n M / ] ;.M b p b M ] $.X./ M G / [ b M ( { x. .t.y.S. .H H { { o. .8.8.} 6.k.d.b.b.Y.n.R.T.).5X8X9X9X=X-XR.n.7.0.I I I L I L 7.d.J.).4X=X].8./                                                                                                                                             ",
"                                                                                                                                                    X X + # $ $ # # + + X X X X . . . . . . . . . X X # # # # + X X X # # X X X X X X X X X X . . . . X X O o X X X X X X X X X X X o o X X X + X + + + # # # X X X # # + X X # % # X X X + # @ ; = : h W M M R ~ 2 @ + # X & & $ + + # # # + + ; ; = @ ; ; ; @ @ @ @ + + + + + + @ ; @ = = = = = = = = = = = = : : - : < 1 1 a n -.%.| u.o.{ f f D uXOXuXf g d f ` oX .oXiXz. .L 0.9.6.s.9.'.Z.s.9.r.{.K.f.lXAX{.'.4.7.v.'.AX(.b.4X-XwXn.Y.n.{.Y.w.4.w.m.w.m.w.m.d.d.].].b.-Xd.7.4.k.7.w.d.].tX@X4.I 7.j.k.i.P c.c.G V < - < x b G x.i.'.s.j.f.h.} { n a x u x N =.>.m l < 4 3 W M ] >.M.( G G ` _ R M b j m ] $.$.X.G n G G / / [ / ) #.u.a.C.S.o...H K D H ( } } } 9.k.d.b.J.).R.R.=X9X1XcX9X5X5XR.n.w.7.I I I I P L P s.n.R.4X=X4Xn.8.M                                                                                                                                             ",
"                                                                                                                                                    X X + + $ $ $ # + X X X X X . . . . . . . . . X X X X X + X X X X # # X X X X X X X X X X . X X X . X X . . . X X X X . . . . X O X . . X X + $ + % X & X . X X + # # X X X # # X X X # # $ @ 0 c 2 =.m M ' x : @ + & X # + $ + + # # X + @ ; ; ; ; 7 6 ; + @ $ @ + + @ $ $ $ ; = = ; : , 2 = = = = = ; , : = : 4 4 4 u a J -.D D.h.} c.O.L l.f n G :.M.K K G G H H +XHXc.} O.v.P s.'.@XtX@X[.s.U.I.wXV.tXZX{.q.w.0.4.m.Y.s.J.!.b.Y.d.n.iX].n.4.I #XY.qX'.4.m.].q.d.{.tXU.{.7.4.m.m.5.w.qXd.@XP 4.I j.'.v.0.9.8..._ 3 - - p B -.L 8.j.j.P.9.D.8.X.J u x 1 x p m W m 3 h 3 c Q +.:.x.{ G n G _ _ b m j M M *.$.@.:.` G _ _ ] / [ M $.&.S.y.t.#.{ ( G G D ( { H } 0.6.q.n.Y.;XT.*X=X8XcXbX9X9X5XR.n.k.4.P P L P 4.0.6.9.n.R.=X4X4XR.n.L                                                                                                                                               ",
"                                                                                                                                                      X X + # $ $ $ + + X X X . . . . . . . X . X X X X X X X X X X X # o X X X X X X X X X . . . . . . . . . X . . X X . . . . . . . . . . . . X X # X % # & X X X X X # + X X X X X X X + + @ ; : 9 l l m / W h : @ + & X & # & + X + # X + @ ; : : : 0 0 : @ @ $ @ + + @ > > ; = = = : 0 q q 2 2 < - - - 2 2 2 3 3 3 s u d D ` oXi.h.0.#X@XO.D D D f D D f K G D { z.iXi.c.c.0.0.7.'.s.qX'.k.'.s.@XtXs.{.{.ZXY.g.7.7.7.m.].{.5XY.J.wXn.tX{.b.d.m.m.4.@Xm.m.m.m.d.d.d.n.Y.].m.I 4.m.4.k.w.b.-Xm.7.P I 9.k.0.I k.6.l.*.p - - 3 j n { z.r.'.s.'.8.{ o.-.B p u a j a W p 3 3 3 x +.$.:.| H H ` G M B m j j M _ ] %.@.X.( G ` ` -.M / ( ) x.p.a.#.%.( G n D J H G H L 0.7.k.Y.R.).*X5XcX9XcXfX9X=XR.w.w.4.7.P 6.0.0.6.6.7.d.R.;X;X=XT.Y.i.(                                                                                                                                               ",
"                                                                                                                                                      X X + # $ $ $ $ + + X X X . X . . . . . . X . . . X . X X X X X o o X X X X X X X X X . . . . . . . . . . . X X X . X . . . . . . X . . . . X X X X o o X X X X X # o X X X X X X X + @ ; : 2 c h E j m p c : + + # # # # # + + + # # + + = q 2 3 z z 2 - = @ @ $ @ @ ; 6 ; , @ - 4 3 z p p 3 z < 1 < A z 1 j a V a d n J K H L L 8.+X'.iXc...o.f D K K f ..x.} } } P '.#X6.4.i.'.n.U.tX@Xs.P.AXwXP.4.wX{.Y.].].].'.s.7.b.d.Y.Y.qXd.I iX9.d.].'.4.@X7.k.q.].n.m.d.m.@Xd.7.S v.qXI w.w.b.qXwX4.k.I 6.i.0.0.k.0...*.=.1 < - 3 N ] /  .u.i.D.} L  .:._ B j 1 a j j p 1 3 p E *.) &.&.H ( H ( / B B b b [ $.:.x.{ H o.{ X.X.X.G G / | p.p.{ ( ) ( ` n f d D D K ..} 6.s.n.R.R.=X1XfXfX9X8X;XY.d.7.4.4.q.w.s.9.k.9.9.q.J.T.;X;X;X].g.{ b                                                                                                                                               ",
"                                                                                                                                                      X X o # $ $ $ # + + X X X . X . . . . . . . . . . . . . X X X X o # o X X X X X X X X . . . . . . . . . . . X X X X X . . . . . . . . . . . . . . X o o X X X X X o o X X . X X X + + $ 7 : - c k E N =.E C ; @ + # # # X X # + + # + + + = c 9 z ~ C 2 = ; > > $ @ = : 4 - - - - - z h j 1 ~ Z a 1 u s N b J B i d n n f D ..O.l.u.L 8.iXS.H D D f D K ..F } 8.#Xh.} '.9.7.I '.'.f.W.@X6.6.[.s.AX9.7.Y.Y.m.d.qX].{.Y.n.b.{.{.q.7.@XZX@Xq.'.'.j.q.@Xk.#X4.d.m.d.4.].k.m.5.I #XN.4.n.k.tXb.].q.4.P N.v.P 0.P 0.o.X.W 1 - - < p m [ o.o.L } } } { o.*.B b a a a j p p s x W ] :.S.( X.( G n G _ =.a d &.%.{ { { ( { %.%.:.X.G G G ( | %.%.%.( G ` n d g n n K D { } 9.g.b.).;X=X5X8X5X>XR.q.7.4.4.q.k.k.s.9.9.s.d.d.J.R.;X;X;XY.i.H                                                                                                                                                 ",
"                                                                                                                                                        X X # # $ $ $ # + X X X . X . . . . . . . . . . . . . . . X X X X o X X X X X X X . . . . . . . . . . . X X . X X O X . . . . . . . . . . . . . X X X X X X X X X o X . . X X X + + $ 7 = : 9 9 v j j v w = @ @ + # & X X # + + + + # @ : c 9 z ~ ,.< - @ ; $ @ ; : : 4 - = 4 < < p p p =.B =.a j p a Z =.J n B -.f f ..f #XH L z.8.8.h.HXoXH H D ..M.O...D 8.L 6.#X#X6.7.k.6.s.tXtX'.L 6.6.s.@Xk.k.pX].4.tX].n.d.n.-Xb.n.b.].Y.].7.w.4.'.q.m.4.j.k.m.q.j.P.7.j.@Xm.@X4.I 7.m.I m.qX].d.qXq.4.7.N.P I 0.6.i.} -.*.l < - - x W / / :.{ L u.u.{ | >.J a b m N N p 1 p h E ] :.&.%.H ( n n -.M b b / &. .| ..H | { | %.x.H G D H %.x.| ( ) G M / M d d f f D K F L 6.9.g.n.n.].(.).(.b.d.7.7.7.w.m.m.m.g.s.s.q.d.b.).=X;X;XR.g. .M                                                                                                                                                 ",
"                                                                                                                                                        . X + # % % % $ + + X X . . . . . . . . . . . . . . . . . . X X X X X X X X X X . . . . . . . . . . . . . . . X O O X . . . . . . . . . . . . . X X X X X X X X X X X . . X X X + + $ ; e - : 2 2 h E v 0 @ + $ + # & X # # & + # + # $ ; c v 1 =.Z h - @ ; @ @ ; 5 2 3 < < - p p a B *.i B J V a u 1 B n ` D K K -.f ..f K L oX .a.a.Z.C.+X+XH F D O.M.M.} } c.pXS P P 9.P Z.[.'.A.9.h.6.#XqX4.#X9.j.j.j.k.].].4.w.b.qXd.n.qXn.w.].w.4.q.@XI @X'.w.s.4.'.k.9.9.qX@XP 4.4.#Xw.I m.].qXd.wX4.7.4.v.I 0.v.0.9.L X.>.E < - - q m M n ( o.o.u.u. .| :.J i b B W N u 1 h l W / ( %.| ( D G G >.] d M | &.x.{ { H ( | &.#.X.X.( G ( %.x.%.( G n G ` H n f n n n D ..L } 0.6.q.w.m.j.d.d.9.9.q.q.q.d.m.n.g.d.s.j.q.d.J.;X;X;X=XJ.r.(                                                                                                                                                   ",
"                                                                                                                                                        . X # # $ $ $ $ + + X X . X . . . . . . . X . . . . . . O X X o # # # # X X X . . . . . . . . . . . . . . . . X X X X X X . . . . . . . . . . . X X X o X . . . X X X X . X X X + + @ ; ; e e 9 k Y v c : @ + @ + # & X # # & & + + + $ @ <.h v b b j 2 : ; $ $ ; - 2 9 < < 3 a =.d d d n n J uXB u a d d f -.D l.K S D f L #XD u.+XL +XZX} H D S } l.O.c.I c.P i.0.#Xc.s.s.'.'.iXiXs.P 6.6.j.tX9.j.m.q.k.9.@Xj.m.4.m.d.m.m.n.7.w.k.7.4.k.7.I q.iX4.7.I j.P 9.6.qX0.4.4.7.m.#XI d.].@Xd.@Xs.4.S 0.0.I P 6.} } { >.m < - - < p j b G o. .}  .i. .) J a b _ W m 1 p x m m M | %.) ) G G X.>._ i G %.| e. .{ D { x.#.| X.( ( ( { X.%.%.o.H n G ] -.) G D D D D K L O.P I 6.v.0.0.7.7.q.7.s.n.g.n.n.n.d.s.q.q.b.].).=X;X=X).g. .M                                                                                                                                                   ",
"                                                                                                                                                          . X # $ $ % $ + + X X X X . . X . . . X X . . . . . . . X X O # # # # o X X . . . . . . . . . . . . . . . . X X X X o X X . X X . . . . . . X X X X o X X . X X X X X . X X + # + $ ; : 0 w 9 2 c ! q ; @ + @ + # # X X # + + + + # $ = c z j b =.b h - = ; , = - 3 ! z 3 x a =.>.G D D ` -.=.=.B u u f K -...-.M.K S F F D u.L 8.'.r.$XD.C.} S L } iXoXL 0.0.c.c.4.6.9.7.j.AXiXZX4.#Xc.m.'.s.j.4.j.'.9.k.'.k.w.m.7.w.m.w.4.7.P v.I I c.P I v.N.P 0.v.#X6.4.'.7.0.4.P I N.4.S ].Y.m.7.].q.I S v.6.P 6.6.} { ( >.R 3 - - < p a B ..o.D }  .h. .H G b b W W W p p p j m M ) ) :.( ( ] >.X.G M n | z.#. .{ | | #. .#.( ( ( ( X.x.%.X.{ ) G ( o.x.%.| H G D K D K L F L P P P 4.4.7.q.9.g.Y.H.Y.m.d.d.q.q.d.b.;X=X5X=XR.Y.e.(                                                                                                                                                     ",
"                                                                                                                                                          . X + $ $ % % # + X X X X . . X . . X . X . . . . . . . . X X o o # # # X X X . . . . . . . . X . . . . . . X X X X X O X . X X . . X . . . X . . X X o X X X X X X X X X o X X + $ ; @ : e 9 c ! c e = + + + + # # X X X + + + + + @ = 4 h j d >.n b < - 6 t : 2 c ~ p a a *.d OXD D H f :.K J i u d f i f K l.M.S F I L x.x.c.L D.a.iX[.'.'.F } F I v.I 0.6.c.k.c.k.w.q.q.@X].4.q.w.7.'.9.d.@XiXd.k.0.F c.0.P v.c.c.0.F O.g P F F l.P P I N.S F P 0.c.0.I 7.0.4.4.I 7.q.7.I d.].qX7.qXq.0.I v.I P P c.O.H G >.' h - - - < N _ G H H  .i.a. .( G J n b W W j p p j R ] M | :.[ n >.>.>.n G X.S.S. .z.{ ( { | { %.:.` X.( ( x.( | ( X.H { u.D.z.u.{ { H D L S D ..F L I I 6.0.0.9.d.H.b.b.n.n.w.7.q.d.J.T.;X1X5X=Xb.s.( B                                                                                                                                                     ",
"                                                                                                                                                          . X o X + # # + + # X X X X . X X . . . X X . . . . . . . X O o # # # o o X X X X . . . . . . X X X X X . . . X X X X O X . X X X . X . . . X . . . X o X X X X X X X X X X X X + $ ; : - 2 2 e q 8 = @ + + + + # # X # # + + + + + @ = C h j G n *.d 3 - 0 0 - < p p a u V B n -.M.-.D D G pX=.d 1 u B g K K l.M...-.g K I M.x.oXc.8.+X+XiX%XF } i.0.0.0.P k.c.9.7.7.m.m.m.w.m.j.N.6.P 6.I 9.k.c.6.S F K D K D L K L F -.*.f f d V V f D S S g f l.L l.P 0.0.P N.I 4.v.4.4.4.j.m.w.w.].7.l.S I v.I I #Xx.F ( $.[ p 2 = : 3 Z b n { e. .z. .{ ( G ` M =.W m p p j j b | X.) X.M M ] -./ n n | S.z. .e. .{ { { #.| X.H G ` ( X.G %.%.) H | u.D.D.h.e. .L H D F H F F F 6.6.6.k.k.s.Y.b.b.b.n.k.w.w.n.n.T.=X5X;X;XR.j.8.M                                                                                                                                                       ",
"                                                                                                                                                            . X X + + # # # # # # X X X X . . . . X X X X . . . . . X X X X X o o o o X . X . . . . . X X X X . . . . X X X X X X X X X X . . . . . . . . . . . . . X X . X o X X X X X + $ > ; = : : - 2 e e : + + + X & # X X # # + + + + @ @ : 4 1 B G :.-.d p < r : 2 3 1 N a u V J J D OX{ x.G ..=.n =.a u i n n B =.K f D f f K O.M.x.z.} #Xa.} HXuXi.i.P '.6.9.6.qXS c.@XP v.q.k.P v.P l.l.P N.i.0.} L D f d B B ,.=.B J V Z Z u p 1 1 1 V a =.i B B -.n -.D U S O.S I 5.c.4.S I P N.0.7.m.k.I I #X0.i.N.F S F H ) >.l < = - 4 p N J X.u.} D.e.e.%.n G b _ ' j p p B R ] ( %.X.$.d M *.G G G G x.z.p.e.u.%. .|  .#.%.X.( H ` G { ( { G { (  .a.'.I.I.f.r.8.} } L L L } P 6.9.q.k.m.'.n.b.n.d.k.w.w.d.n.R.~.=X5X;X).n.8.H                                                                                                                                                         ",
"                                                                                                                                                            . X X X + # # # # # X X X X X X X X X X X X X X . . . X X X X X X o o o o X . X . . . . . . X X X . . . . X X X X X X X X X . . . . . . . . . . . . X X X X X X o X X X X X X + $ ; : 8 : 2 8 0 8 = + + + X $ + + X X + X # + # @ @ , q Z b M.-...n u 1 4 C q < p p x u i V J g K ..G =.,.B ,.N < u u V V N ~ B n J f f K -.x.l.L D D S x.x.L #Xv.0.6.I c.oXiX0.P F c.6.P P I I F -.U -.D ..D f d d u A p p 1 1 1 - < < 3 < - - - 4 < < < p s 1 Z u d d K D U S F I I I g 5.#Xc.v.6.'.9.S I i.6.0.oXI D K f $.*.j 9 - = 2 z =.-.X.{ D.e.D.L u.H G n _ m j p p B ' ) :.:.) ] b M M M G n G x.%.z. .}  . . .e.| | ( ` ` ` G { { %.( ( | { r.Z.I.V.V.Z.s.9.8.} 8.0.0.c.s.H.Y.Y.n.b.b.n.n.n.w.w.7.n.b.R.1X1X1XR.Y.i.{ B                                                                                                                                                         ",
"                                                                                                                                                            . . X X X + # # # # # + X X X X X X X X X X X X X X X X X X X X X o o o X X X X . . . . . . X X . . . . . . X X X X X X X X . . . . . . . . . . . . . . X X X X X . X X X X X + @ ; 0 q 2 2 e e 0 ; + X + X & + + + X + X # + $ + @ - - v ;.J x.G ..i 1 1 z z - z < h p x Z =.B i _ B a N j p 3 z < < 3 p p p p p a V d i f f K K K -.H ..K ..-.#X#Xl.L O.O.#X#Xz.c.O...o.l.F f V V d d u u i u < 1 1 < < < < < 1 < - < - - - = = = = @ = - < 3 < < s Z Z d d d K D S g U -.0.P P P 7.7.I I 0.i.6.qXL S K g -.*.j h - = = 2 Z =.{ { e.z.y.e.D.H H G M W j 1 B W / :.:.z.X.b b _ _ b M i X.{ x.u.e.}  . .p.e.#.( ( ( ` ..X.X.X.X.X.| G } h.A.I.U.U.g.H.j.s.j.s.i.'.P.Y.U.Y.Y.Y.Y.Y.Y.n.d.n.w.n.n.R.=X1X;X).J.s.{ n                                                                                                                                                           ",
"                                                                                                                                                              . X X X + # # # # # # + + + X X X + X X X X X X X X X o o o X X X X X X X X X . . . . . . X X . . . . . X . X X X X X X X . . . . . . . . . . . . . . X X X X X X X X X X X + $ ; = 2 2 2 2 2 : @ X X X X & + + + X # X $ + $ + @ = q 1 ,.i >.D K B 1 A 3 C < 3 < 3 < z s s x p h h 3 < 3 < 4 4 - - - 2 4 2 2 < < 1 u u V d V a i u V d B n J -.D K f oXf :.D O.f J B d d u d d u u 1 s 1 1 < 4 < - 1 < 1 1 <.< < 3 < < - - 4 4 - r 0 = = - - < - < 1 1 u p V Z i i f f U l.l.I F @Xi.I I 0.'.4.h.0.f K K G -.b h = = = - p b { o.u.} e. .u.H .._ m m j p N b / $.%.%.] b M R W B b d { |  .u.8. . .#.#.S.#.| ( ( G G ( ( | ( ( ( ( { 8.A.V.K.L.(.g.g.g.j.P.'.g.{.].(.J.b.Y.Y.b.b.n.d.d.n.n.R.;X;X;XR.J.g. .M                                                                                                                                                             ",
"                                                                                                                                                              . X X X X + # # # # # + + + + + + + + + X X X X X X X o o o o X X X X X X X X . . . . . . . X . . X . . X . X . . X X X X X X X X X . . . . . . . . . X O X X o X X X X X X + $ : : w q 3 4 8 0 @ X X o X % + # X X # X $ + $ @ = - 4 < N b =.OXn b 1 x 3 C q - 2 w - 2 q 2 4 2 2 - 0 - = , = @ = @ @ = ; : : : : 2 2 < < < 1 1 1 s 3 1 x p a i n *.f i n =.n i B V a a p s u u < 1 1 < < < < 4 - < ,.OX1 u OX=.a a 1 ,.~ p s < 3 < z 4 - < - < < < < - < 1 x N p B g f J K L g l.c.c.4.P 6.i.9.'.z.S D U D >.b h - = = - 3 V H  .S.D.{ a.z.o.( *.M m a p B m / X.%.X.` b b m N b j / { o.o.o. . . .{ #.#.p.( ( ( ..G ( { %.{ X.( H { e.I.I.K.J.J.J.b.d.Y.n.b.(.L.Y.Y.J.b.b.b.b.b.b.b.n.n.R.=X=X=X;Xn.s. .M h                                                                                                                                                             ",
"                                                                                                                                                                O X X X X X + # # # # + + # # # $ # + + + X X X X X o o o o X X X X X X X X . . . . . . . X . . X . . X . X . . X X X X X X X X X . . . . . . . . . X X X X X X X X X X X + $ 5 : q 3 3 q e 5 + X X # # % + + X X X X # + $ $ ; = 0 2 < B B >.>.b a 1 h w r = , = = = : : = @ @ @ + + @ X + + + + + + + + + @ @ @ @ = = - - - - = - 2 - 3 < x p a a x a u u x p s u 1 1 1 < 1 p 1 1 1 < h <.< 4 A j uXp u OX=.>.i d -.,.=.n V =.,.x p j ;.v < C 3 < < < - < h v a i u =.-.f L O.I oXP I 0.k.k.c.c.D S D K *.j h = @ @ : 3 V K O.z. .e.e.a.} o._ M W p p =._ / X. .%.` a b m N p a M ( ( o.{ } { u.#.#.S.#. .( X.H n G ( | | | ) ) { e.y.K.L.).(.R.Y.Y.n.Y.(.b.T.b.n.J.n.b.b.n.n.n.b.J.T.;XR.;XR.n.s.} G a                                                                                                                                                               ",
"                                                                                                                                                                . . X X X X X + + # $ + + # $ $ $ $ + + + + X X X o # # o X X X X X X o X X . . . . . . X X X X X X . . X X . . . X . . . X X X O . . . . . . . . . . X X X X X X X X X X X $ : 2 q 9 c C w 0 @ X X # # % + # + + X X # # $ $ > 5 : 4 3 1 j b >.>.B u z 2 , = ; @ @ @ X + + + + X + X & X % X + + + + + + + + X + + @ @ @ @ @ @ @ @ ; = - 2 < 3 < s 1 1 1 1 < 1 < < < 1 1 A Z s x u x u j uX< s N m uXb i pXH H D o.l.oXD f K -.d ,.i u B b ,.,.1 < < < < - < v N ,.=.d K f D x.F l.F 0.I #Xj.9.c.D S D K =.b c = = = : 1 A K -.u.z.} r.a.H l.-.M b p x V B ` G  .o.G n Q m j x B ` ( o.o.x. .u.%.{ #. .| ( ( H H G ) | @.%.:.X.G D { h.[.K.).).R.J.n.U.R.R.~.J.J.Y.J.b.n.b.d.b.Y.R.J.=X=X;X].Y.w.0.H n                                                                                                                                                                 ",
"                                                                                                                                                                . . X X X X X X X + # + + $ $ % $ $ @ + + + X X # # # # X X X . X . X o o X X . . . X X X X X X X X . . X X X . . . . . . . X X O O . . . . . . . . . O X X O X . . X X X X @ : 2 2 9 C C 8 = + . X # # & + + + + X + + # @ @ ; ; 2 - - 3 3 ,.~ =.p 3 < - @ @ + + X + X X X X X X X & X X X X + + + X @ % 7 # + + + @ @ ; ; = = ; @ = = = = = = - < - < < < < z 1 1 ~ j x u =.a uX,.i =.W HXN u B -.uXG ..oXl.0.x.O.l.N.x.uXF S M.M.g f -.G =.=.=.V p < < - - z A Z Z u d n f D O.O.S 0.I @XI c.S.f S -.K =.~ z = = @ : 4 A n H z. .r.y.a.8.( G M W p x N n M G H x.G b W m j b _ G $.{ ( o. .u.u.{ { #. .| X.` ( G ( |  .z.:./ n G ( e.f.[.(.R.R.R.R.J.R.R.T.J.b.J.n.n.n.d.n.n.].R.T.=X-X(.Y.j.0.O.b                                                                                                                                                                   ",
"                                                                                                                                                                  . . X X X X X X X X + + # $ $ + # + + + # # # X # # o o X X . . X O o X X X X X . X X X . . . . X X X X X . . . . X X X X X X X X . . . . . . . X . . O O O X X X X X X X @ = - c 9 ! ! c @ + X X + # # # # X + X & + % @ ; 7 = 0 4 < 4 < < 2 C w : = @ + + + X X X X X X X X # X + $ # + $ + + @ + + % @ @ @ @ @ = = = = - - - - - 2 - - - - - 2 - - < - p ,.p p *.*.OXOX*.-.OX*.d d i PXV i V D ..H f x.v.P P S 0.c.P S S M.S I U l.L o.oXD D =.b 1 3 - - = 4 < s 3 N a B D D H S P 6.N.7.9.l.f D J n =.x z 2 @ = - 2 p =.{  .D. .y.D. .H / ' m j j j n G X.z.{ ( M B j a j M $.( %.( u.a.a.p.{ { #.| | ) ] / { H  .| z.:.) b n n o.8.f.U.=X=X~.R.R.R.J.T.L.J.n.n.m.k.k.d.n.].R.T.R.].Y.w.0.K V                                                                                                                                                                     ",
"                                                                                                                                                                  . . X X X X X X X X + + # $ $ $ $ $ + + + + X X # o X X X X . . . X O X X X X O X X X X . . . . . X X X X . . . . X X . X X X X X . . . . . . . . . . X O O X . . . X X X + = : C ! ! e w = + X X + # # X o X # X % + @ @ > = = 2 2 - 4 < 4 0 : ; @ + + X X X X X X X o o X X + $ @ + + @ 7 ; @ @ ; $ @ > , @ @ : : - z q 1 1 s ;.;.E ~ ~ < - 8 2 3 q < 1 p =.p p ] ) S.o.x.-.g S ..f ` ..-.i g f { uX#XP c.v.N.0.P 6.P iXP l.l.I P S c.i.D.l.x.H ` a 1 z - = = - 4 q p N b i f f x.L 0.c.k.j.l.f K J b a x x 9 - = = < p B X.%. .e.e.e.e.| ( M B 1 N N b / ( { H G / N Z j b ` [ [ ( H | r.C.u.{  . .{ ( ( / [ | { e.e.p.&.] j a d H  .r.P.(.).;XR.J.].].J.R.b.b.n.n.w.w.w.n.b.n.R.Y.j.9.} ..x                                                                                                                                                                       ",
"                                                                                                                                                                    . X X X X X X X X X + + # # # # # + + + + X X X X X X X X . . . X X X o X X X X X X X . . . . . . . X X X . . X . . . . X X X X . . X X . . . . . . . O X . X X X X X X @ = : 2 9 ! e 0 @ X X X # # X X # X X X + + $ @ ; = = 8 : = : - , 7 @ + + + + X X X X X X X # + + + @ 6 0 0 : - 2 0 - , @ = = = @ : : 2 C C z v =.Z uXS.M OX,.j p OX,.p Z u u a =.,.,.J _ ) PXD ..uXL l.l.S L D S f F L oXHXx.F i.k.k.0.0.#X7.P I v.0.F P oXP 9.c.#Xl...) / m 3 - = = = : 2 3 h a i K K x.O.O.k.k.8.x.D D ` b b j N 9 - = = 4 x b X.x. .e.D.a.{ %.( _ m p j M M G |  .H X.m b u V M [ [ / / G  .D.h. .| %.{ { ( [ / ( ( (  .e.p.$./ j 1 a n X.e.A.U.L.R.J.Y.n.U.Y.b.b.b.n.s.j.7.k.d.d.b.n.s.9.} H b                                                                                                                                                                         ",
"                                                                                                                                                                    . . X X X X X X X X X X + + + + # + + + X X X X X X X X . . . . X X X o X X X X X X X X . . . . . . . X X X X X X . . . X X X X . . X X . . . . . . . X X . X X O X X X @ @ 0 = 2 ! ! : @ + X X # # + # # + X + + + t ; @ = = 5 : = ; ; ; @ + + X X X X X o X X X + $ @ @ ; : : 2 w C 3 C <.- <.q 2 3.3.= = - z C 3 p a N _ n pX%X+XS.b a u ;.b =.a u u n -.u M.X.f oXUXuXl.c.L P L F M.U g S L #X#XP S 6.iXN.v.I c.P @XS c.v.@XN.k.@XD.k.@XP O.x.G m W < - = @ ; = < 1 p Z V K n F L c.D.c.O.g n d B j V x h = @ @ 2 z a ` { z.i.h.a. .o./ _ j j p R G ( %. .o.>.*.j p a b / / ] ) D z.a.a.{ {  .{  .o.] / ( ( {  .u.p.$.Q x < p b `  .r.P.n.b.n.Y.d.n.Y.b.b.b.d.j.q.q.7.q.q.w.9.} H M b                                                                                                                                                                           ",
"                                                                                                                                                                    X X X X X X X X X X X X + + + # # + + X X X X X X X . . . . X X X X X X X X X X X X X X X . . . . . . . X X X X . . . . X X X X X X X . . . X . . . . O O . . X X X X X + @ : 8 8 0 5 ; + + X X # # X # # + + + + + > ; ; @ = : ; ; $ @ @ + X X X X X X X o X X + + ; = ; q < 3 p ~ =.x x x < z 3 < q C 4 = 3 z v p b B =.` z.%XD.p.oXb d i B J J J i f K -.D #Xo.D uXF S O.c.v.#Xi.P S 5.M.F #XpXg I I v.4.v.4.5.N.4.I S P c.9.9.'.9.6.P k.#Xc.D.| M *.x - @ @ = = - 3 1 x a i =.n -.x.} { S g n i a j j N ^ : @ @ = 3 a _ { } } i.r. .D :.G m u b _ G %.x.x.:.-.m p p j W / ( [ >.[ o.u.8.|  . . . .:.[ G ( {  . .e.x.>.M     < h b ( { r.r.s.s.q.d.q.d.n.g.d.g.s.s.7.7.7.7.0.{ G b h                                                                                                                                                                             ",
"                                                                                                                                                                      X X X X X X X X X X X X X X + + + X X X X X X X X X . . . X X X X X X X X X X X . X X O . . . . . . . X X X X . . . X X X X X X X X . . . X X . . . O O . . X X . X X + @ @ : : = ; $ + X X X # # X # + + + + + + + 7 y @ @ ; @ % + + X X X X o + # # # # X + + @ : = 2 ! 3 1 a ,.=.d B =.N x 1 1 ~ 3 - 3 3 1 j a i n -.{ u.e.+Xu.oXoXG d f K g f g S -.M.g P O.#XP } P P 6.v.@X0.4.c.N.I l.F O.S l.4.I 4.4.P I I l.I 0.c.@XiX4.4.k.4.v.F c.0.u.H n ,.j s = @ @ @ - - - < u s =.B >.:.H D g ..D n u m j ~ ,.8 = = = < j J H }  .a.e.i. .X.` M u W / ] %.S.:.` *.j N p a a [ G $.( [ o.#.{ |  .{  .o.x.( G / X.{ { { &.] l         p m G  .8.} 6.6.k.9.s.d.g.j.9.i.6.0.} 0.O.K n j                                                                                                                                                                                 ",
"                                                                                                                                                                      X X X o o X X X X X X X X X X X X X X X X X X X X X X X X X X X X X X X O X X . . . X O . . . . . . . X X X X . . . X X . O O X X . . . . X X X . . O O . . X . X X # + @ @ = = ; 6 % + X X X o X X # + + $ > @ @ @ 6 y : = ; + % X X X X X X X # & & & + + @ @ ; : - 2 ~ p u B uX=.i d =.B N V 1 ~ 1 < 1 p V b i n D H O.M.z.u.#XHX..` d n -.K K f g -.N.I I #XP P 6.0.P F S 4.4.4.N.4.c.I I S F k.iXk.'.7.4.l.5.I I c.'.P i.6.0.v.6.F 0.P #XO.D n ,.Z 1 - ; @ @ : @ = < q A 1 u d G H f D oX` n i a x v v : @ = = - p b X. .8.D.D.e.%.X.-.b a B / X.%.S.x.-.M j j x a M / ] [ G [ | z.{ | | {  .%.o.( [ ) %.{  .( $.) l           p M / X.H I O.0.0.i.9.s.9.9.8.8. .{ H n b s                                                                                                                                                                                   ",
"                                                                                                                                                                        X X o o X X X X X X X X X X X X X X X X X X X X X X X X X X X X X X X o X X . . . X O . X . . . . . X X X X . . X X X . X X X . . . . . X X . . . O O . . X . . X X + @ @ @ ; ; > + X X X X o X X # # + + 6 + + ; ; ; 7 ; @ + & X X X o # # + + $ & @ + @ > > , 4 - 1 =.u i d uXd d d B =.B i 1 OXN 1 p p a n D ..O.l.O.F O.l.O...K -.K ..` g K S F l.M.#XI S 6.#Xc.qX6.P v.#XN.v.N.4.c.4.I v.4.9.@Xm.P 7.v.I U S I c.'.6.0.S #X0.S F l.0.I S f g M.V x 3 <.: : @ = = = 2 4 x a i -.` D H uXX.-.a a j v 3 2 @ $ = : 3 b %. .a.r.D.a.{ X.` a a B *.G %.| ` G b p x p j / ] X.M / ( X.%.{ o.|  .{ u.{ / X.) %.{  .( ] / l             v b b J D D K { L } } } } { o.) / b j 3                                                                                                                                                                                     ",
"                                                                                                                                                                        o o o o X X o o X X X X X X X X X X X X X X X X X X X X X X X X X X X X X X X . X X X . . . . . . . . X X X . . . X . . O O . . X X X . . . . . . X O X . X O . X X + $ ; ; ; ; > % X X . o & # X # + + @ @ @ @ ; ; ; > $ @ + X X X X X + + + @ $ % $ @ $ = 6 : 2 3 p u V i uX,.g i d d B J d u OXZ u u a V J D M.l.F F I O.O.O.F -.M.D S oX-.f S S } F I 4.c.#Xc.c.c.N.P l.S l.5.#Xw.'.I c.I 7.j.tXj.P '.6.l.S I S @Xi.P oXP P l.O.S I I F F f f n d u N <.3 q - @ + @ @ 0 C x a d f L ..x.x./ i u s A q 2 @ $ ; - h m (  .D.h.h.C.{ { ` b p M =.` X.H G b j p x p m / $.$.M M ] X. .x.:.X.o.{ | { G -.` X.( { ( $.R 9               z x V V V B J H ( O.L H G / Q j h                                                                                                                                                                                         ",
"                                                                                                                                                                          X X X X X X o X X X X X X X X X X X X X X X X X X X X o X o X X X X X X X X . X X X . X X . . . . . X X X . . . . . . O . . . . . X X . . . . . X O X . X X . X X $ $ ; ; 5 ; $ $ X O X o & o X # + + $ $ @ @ + @ @ @ @ + + X X X + + X > @ , @ @ ; @ @ ; , r < p s a Z i M.i n i B i ,.D f d ,.V u i d i =.S O.I P S S M.I I I L uXU S F I S U S L i.I 6.0.l.6.oXS P P v.I I v.c.4.tX0.v.5.P m.q.s.7.9.'.0.I S P #XHXL oXuXl.N.S S S L l.F g f i V i n OXj <.C @ > + + ; 0 3 a d f ..{ %.:.n i j A 3 C 0 @ $ ; - h m ( a.e.r.Z.a.{ { G b a b B G ` ( d i x p x h R [ ] ) G n ( X.| S.:.X.( { :.%.( ( ] $.%.{ ( [ R                     3 s s x b m M J D B m m k                                                                                                                                                                                             ",
"                                                                                                                                                                          X X X o X X # # o X X X X X X X o X X X X X X X X X X X X X X X X X X X X X . X X . . X X X . . . . . X X X X . . . . X X X X X . . . . . . . . X O X X X X X X # & > ; ; 7 ; $ # X O X o & o X X + + @ + @ @ + @ $ @ + + + X X X + @ @ : , = @ 6 @ = = = : 4 < x s a i B V d d V d n *.-.-.i J d d d V d D U U S S I P F P i.I uX0.I L N.#Xv.S F L O.8.0.i.0.F S S 0.P l.v.v.I v.v.4.c.P I I 4.j.9.k.9.'.c.6.F S P l.0.P 0.O.S I S l.}  .O.K f d B u n -.M ^ q @ + + + @ = < a V n ` -.:.S.M a a x s z , @ @ = - h m | a.e.C.D.h.u.( M b p x b n G G n M N p h h R ] ] M M M $.x.{ | X.G ( | { { X.G -.X.{ G X.] W                           2 3 h x x s j                                                                                                                                                                                                   ",
"                                                                                                                                                                            O o o X X X o X X X X X X X X o o X # # # # o X X X X X X X X X X X . X X . X X . . . . . . . . . . . X X X . . . . . . X X X . . . X . . . . X O X . X X X X # $ $ ; ; 5 ; > + X X X o o X X X + + % $ $ $ + + $ + + X X X X + @ ; : 2 q 2 - 0 @ = 0 - < < 3 s Z a d V i B *.=.B B K g d i J i u i i J M.S U S S S I N.I c.v.P I i.S #Xc.l.I S S } F i.#XS 0.l.L I S F 0.4.S I c.4.I P I I 7.m.'.j.Z.{.[.f.} L I l.L L oXO.S F F } D.F.{ ..d d =.i x.X.G uXC - @ @ + + = - s V d D ` G X.M i a s p q - @ @ = - 3 m (  .e.C.h.h.#.H J b a j b b n n n M N p p j ' $.] G M M ] %.{ o./ ] ( { { G ( ] ` ] ) ( / _ E                                                                                                                                                                                                                                           ",
"                                                                                                                                                                              o o X X X X X X # X # X X X X # X # # # # o # X X o o o o X X X X . X X X . . . . . . . . . . . . . . X X X . . . . . . X X X . . X . . . . X O X X X X X X X + $ = ; ; ; > + X . X X o X X X + + % $ $ $ @ # # + X X X X + @ = : - c z C 4 = ; = - 4 - 3 p 1 =.a u i d d B i n J -.d n =.n V d d f g i g g U F S I F S } c.P 0.#Xi.pXoXS S S 0.S pXD.} #Xc.S #XL L 0.0.v.I I F 4.v.I v.v.6.j.wXU.W. X`.V.D.S P P x.x.O.F 0.H 8.D.F.$Xa.D n K i G  .S.>._ h : = $ + @ = = 2 x a d i d G _ a j p p z : @ @ = : h M ( u.8.e.a.a.{ ( _ b p j j b M M / *.~ p p j / / M G M _ $.%.{ ( ] / ) o.( ( $./ ` ] ) [ / Q l                                                                                                                                                                                                                                           ",
"                                                                                                                                                                              X o o o # X X # & # # X X X X # + # # # # + + X X X o o o o X X X . X X X . . . . X X X X X . . . . . X X X X . . . . . . X X . . . . . . X X O X X X X o X X + @ @ ; ; ; 7 + X X X O X o # # + $ + + + + $ % # # X X X X + @ : 2 z v x C 4 @ = = 2 2 < 3 3 ~ V j a i u d f J J f n PXd ,.d d d d J g f S U f U M.O.v.P S i.0.6.#XP HXiXS F S F L o.} o.F L i.h.+Xj.P 0.c.l.S S #XS I S c.j.I.I.ZXV.^.hXnXr.H F S F c.c.L c.F S.e.t.[.e.D G g i n { e.x.*.< = , ; $ @ @ = - 3 s a u B =.=.i a p h ~ 8 = @ = : 3 B X.z. .a.a.e.%.G ' j p h j j m _ / ' N p h T >.X.` J d n ) @. .{ ( ] ( ( | ) [ ` / / G [ [ ;.k                                                                                                                                                                                                                                           ",
"                                                                                                                                                                                o o # # # X # # X # X X X + # + # # + + + X + X X X X X X X X X . X X X . . . . X X X X X X . . . . . X X X X . . . . . X . X O . . . . X X O X X X X X X + + $ = : : 5 7 + X X X X X o # # + $ $ > $ + & # X X X . X X + ; 2 9 ~ p N h 2 = @ = 0 2 3 9 p ,.p x u i d d V f K d i J n d i d =.n f D f K K U f U S U S F l.P l.F %X%XL l.S O.f l.#XL F L h.D.f.Z.Z.i.F F l.M.F F l.I l.6.r.I.I.KXW.A.SXQ.+XO.S S P O.L H H x.D.[.$X+XD.( K n J ` D.C.+XM 1 < 2 r , @ @ @ = - 3 s i V d B V a a h ^ e = @ = - 1 b X. .} c.e.} o.n *.j p j j j m ] ) *.N p p m *.) M n B G { | { { / / ) ( ( ( ` _ M G G [ ' Q k                                                                                                                                                                                                                                           ",
"                                                                                                                                                                                  X o # # # + # X X X X X # # + X + + + + + X X + # # o o X X o . X X X . . . . . . . X X . . . X . . X X O X . . . . . . . X O . . . . X X O O o X X X X + @ ; ; 5 5 6 7 + X X X . X X X X + + + % # + & # X o X . X X @ ; 0 h h 1 N v 3 @ ; @ - z - 3 h c h p u a i d =.i K d n a J ,.i i =.B ,.K K K i f K K U g S F O.x.} F u.u.x.S O.S l.O.M.S H u.Z.[.I. X[.[.0.S S F M.F S P P 6.Z.[.eXAXr..XXXhXZ.u.f F S F H { G pX{ F.lXZXS.H J d B G B.+XS./ 1 < < q 0 @ + @ @ = - 3 a V V =._ u p j ;.9 = @ = , < a X.{  .u. .{ G ` >.j p x m m m / / ] m j j m ] G J d n G X.x.{ ( / / ( G ( X./ ] / M G / +.^ c                                                                                                                                                                                                                                           ",
"                                                                                                                                                                                    O o o o + + + + + + + X X X + X X + # # + X + + + # # X X X X . . . X X X X X X X X X X . . . . . . . X X . . . . . . . . . . . . . X . X O X X X X X X + $ ; ; ; 7 $ # X X . . X X X # $ + $ $ $ + + X X X X X X + @ , r z v j 1 Z - = @ @ : 2 4 < C 3 3 < 1 a b B G ` d d V V d =.u J B =.=._ d d D g f K F g S g U S D uXD.z.} S U S S M.S .. . .A.[.eXlXB.F.+XS S g -.-.U O.N.0.6.Z.$X XAX X6XlXI.e.D g H n X.d iXZX| ZX|.%XD.H G i J :.a.+XS.' 1 u j ^ 2 @ + X & = - p V d B _ B 1 a N ~ h = @ @ - 1 b ] ) | u.u.{ %.G *.N j p m m M _ X.] B p b b ] ` M M G [ X.%.{ G X./ ( X./ [ M R B B / R +.T e                                                                                                                                                                                                                                           ",
"                                                                                                                                                                                      X X X X + X + + + + + X X + + X # # # # # # + X # # X X X X . . . X X X X . X X X X X . . . . . . . X X . . . . . . . . . . . . . . . X O O O X X X X + $ @ ; > 7 % # X . . . X X X # + + $ $ + + + # X X X X X + + ; 4 q 3 p v C - = ; = : e 4 4 z z h 3 < p V -.:.-.d ,.n =.V V u i =.J B B i d ` :.o.{ x.oXO.f g K F o.KX{ u.S S l.I x.i x.{ y.Q.Q.AXzXG.lX[.8.F f g K l.O.S 0.Z.{.I.Q.eXmXjX.X[.[.f D -.X.M ) PX&X{ $X%X[.a.D >.a -.oXe.[.S.m 1 p / ;.l ; + O & = - p j b B B B u x x N 3 = @ @ 7 q N ] :.x.%.{ { ( [ *.W a p B M M _ ] ` M b *.*.*._ M M G X.%.%.X.) ( ( X.) ) ) / W b b M R ' Y                                                                                                                                                                                                                                             ",
"                                                                                                                                                                                        X X o # X X + # # + + + # + + # # + # # # # + + o X X o X   . . . . . . . X X X X X X . X X . . . X X X X . . . . . . . . . . . . . X O o X X X X + + + @ @ $ $ $ + X . . . X X X # # + $ + + X X o X X X X X + + @ , 4 2 < z 3 < - ; @ : 0 - < < 3 3 < < p _ >.oXx.OXM OXj i =.d u d V i i i G D z.z.u.a.z. .H S f D H  .{ z.F F -.F F K -.{ e.y.|.Q.zX.XhXI.[.D.} f g U K O.} h.{.[.hXK.AXXXeX[.C.{ d ..D G ] PXb %X$XG.%Xa.H G i :.D.[.$XOXa u *.[ OX~ : + + & @ - 3 a b n b d p a a ~ v - @ @ ; 3 m _ | o.( { u.G [ *.M p m m m G G ( X._ d ' _ ] _ b b n ) | ( ( ` H ` ) G ( / ' m b b M R ' Y                                                                                                                                                                                                                                             ",
"                                                                                                                                                                                          X o # X + + # # # # # # + + # # + + # # # + # o X X X       . . . . . . X . . X X X . X X X X . X X X . . . . . . . . . . . . . . . X o X X X + + + + $ @ $ $ # X X . . . X X X # # + + + X X X o X X X X X X + $ = : - < 3 4 = = = = , , - < < < < < < N *.S.oXz.{ b uXj _ =.u p =.a b u M :.oXa.e.D.D.C.%X{ D S D D H oXiXF O.M.U i -...x.e.[.|.hXFXXXeXQ.$X$Xh.D f G H L } h.[.A.FXzXlXhXSX X[.z.n D G M.i IXM [.[.eX$X+XD / i iXD.Z.C.OXb u *.:.>.^ : + @ & @ = < p a b B b u p j W Y - @ @ ; 3 N ] :.{ o.x.( %.( / _ u j m b M / ] >.` b _ / _ / M M / %.p.| { o.( -.) / [ / _ m b a M R Q 9                                                                                                                                                                                                                                             ",
"                                                                                                                                                                                              o X X # # # # # # + + # # # + + # # + # # # X X           . . . . . X X . . X X X X X . . . . X X . . . . . . . . . . . . . . . X X X X X + # + + $ $ $ $ $ + X X X . X X X # # + + + + # # X X X . X X X # $ @ = 4 9 - 4 4 , > @ , , - 4 3 < < - - p M :.S.#.| b PXm m j j a s u 1 a n S.e.+XA.[.G.F.%XD.G D D D ( o.%XD D K g f D o.x.8.D.[.KXGXhXhXkX}.eXC.x.i G ` H u.y.[. XeXhX.XjX6XQ.Z.p.f G D -./ PX/ B.[.lX[.a.%.*.n oX+XtX%X:.i n H x.| ;.2 + @ @ @ = < 3 a B =.V u p m W ! - @ @ = 3 x / ( %.o.{ H | X._ m p m j b ] / [ $.G b ' ] / M M M / | #.| ( ( G ` G ) ) [ M b j a m R T e                                                                                                                                                                                                                                             ",
"                                                                                                                                                                                                o X # # X # # # # # # # # + + + # + + # o X               . . . . X X . . X X X X X X . . . . X . . . . . . . . . . . . . . . X X X X X X # # + $ $ $ > % + X . . . X X X o # + + + # # X X X X . o . X # + @ = : c 3 z r = , > ; = < q z 2 2 - < j [ &.D.B.+Xn OXOXp p p 1 1 s u b / %.D.B.y.[.$X%XtXF.{ f D K G x.%.( ..D i f { oXc. .C.$XFXXXhXkXjX6X X[.z.f g f H { a.I.Q.Q.GXmXhXmXlX[.S.d o.o.o.$.G S.G.A.eXeX#.%.n >.iX[.tX+X{ i :.x.D.:.;.2 + + + @ = - 3 x =._ V u u j m ! : @ @ = < j -.:.%.%.{ { o.( G W j j j b G [ ( X.M d M / M M M G { %.#.| H G / ( G ) ( / b j j j R Q T 8                                                                                                                                                                                                                                             ",
"                                                                                                                                                                                                    o o X o # # & # # # # + + + # + X X o                   . X . X . . . X X X X X X . . . . X O X . . . . . . . . . . . . . X X X X X X # $ + $ $ $ $ $ X X . . . X X X X # + + X X X X X X X . o . X # + @ ; e ~ 9 9 z : : = ; - 4 C ! k h - - N $.p.B.B.| $.m HX< h x 3 Z u u d / p.[.|.|.Q.A.lX#.HXoXG f D K ` o.D D f n H | D.D.} $X[.AXQ.XXkX2X2X6XQ.a.x.n d ..u. .tX|.Q.eXmXmXmXXX[.D.d u.u. .&.&.%X#.$XeX|.t.| d OX| { +X( X.i f u.D.S.' - + @ + + @ = 3 x =.B j u u a x ~ : @ = = 3 N / G ( ( { S.u.o./ b b j p b / M $.:./ b n M R G G / X.u.%.( G G ] [ ) ) [ R m m a j R W l :                                                                                                                                                                                                                                             ",
"                                                                                                                                                                                                      o o o # # & # + # + + + + # X X                       . O X X X . . . X X X X X . . . X X o O . . . . . . . . . . . . X X X X X X X # & + $ $ $ # + X X X . . X X X X # X + X X X X X X X . o X . # + @ 5 w <.h h 2 8 = = = : q C Y Y c - < j ) p.B.t.D.S.p PX,.< s z 1 x a M / #.B.A.Q.Q.A.|.G.%X+X#XD -.d n D ` J J i -.| #.@Xr.[.A.hX.XhXdX}.jXQ.[.[.( ( d ( c.a.[.A.Q.zXXX}.6X.XQ.D.d o.oXF.+X( e.[.A.[.I.t.x.i >.S.{ +X .` i o.oXu.$.N = @ $ + + @ = 3 p ~ b j u p b W ;.8 = @ @ 3 m G :.| o.u.{ %.:./ m m p j M / M :.$.M b b M M b G ( %.z.u.( G / / M ] [ / M m m p j W ~ c :                                                                                                                                                                                                                                             ",
"                                                                                                                                                                                                            o o o o # # + X X X o X                           . . . . . . . X X X X X . . . . . O X . . . . . . . . . . . . . X X X X X o + + + + + $ $ # # X . . . . X X X X X X X X X X X X o . O O X # + @ ; w Y E l j l - - : : = c ^ ^ 9 - 3 p $.#.t.B.S.&.>.' uX3 z z < x a b OX#.C.[.[.A.B.tXhXB.HX) S.d J n n G n J d x.| B.y.y. XeX XzXGXXXmXjX}.4XI.#.G i ..{ 8.[.A.AX.XeX6X}. XA.D.n  .D.%X%X@.KXe.%X X$Xp.@.S.HX{ H oX| G n o.x.&.S.3 = @ @ + + & $ - v ~ W j 1 a W =.~ w = @ = 3 m _ ) %.x. .e.u.x.*.W j a j M M >.:.] n _ b B M b ` { x.x.| ( G ` / / ] X.M m m j j m ' ~ c                                                                                                                                                                                                                                               ",
"                                                                                                                                                                                                                  X X X X X X X                               . . X X . . . . X X X X . . . . . X X . . . . . . . . . . . . X X X X X o o X X + + + + + + o X . . . . X X X X X X X X X X X X X O O O o # + @ = 9 h ;.2.Q ;.T 2 @ : e 9 Y 2.Y - < j / @.#.S.@.@.1.T uX~ 3 3 z p _ M | #.e.[.A.A.y.[.F.B.ZXp.S.n B B =.B ,.i n x.| C.y.A.W.eXlXG.FXXXjX2X6XwX X[.( i o.S. .A.A..XeX.X}.4X X[.D.{ { +XHXtXt.B.+X[.$XF.D.M x.X.( o.x.) n n { x.#.$.3 = @ $ @ + + + - h v j p 1 p m W E e = @ = 2 j ' -.| { { u.z.( M b a p a M / $.) ( J M M b M M G X.S.z.{ { G G _ / ] / M b b p m E W E e                                                                                                                                                                                                                                               ",
"                                                                                                                                                                                                                                                              . X X X X . . X X X X X . X X . . X X . . . . . . . . . . . . . X . X X o o X X + + + X + + o X . . . . . X X X X X X X X X X X X X X o o # + + = 9 l ' 2.OX+.[ HX: = 8 h Y ;.Y 2 < p / S.F.| S.+X1.*.m uX3 2 3 N OX/ G | #.B.C.C.D.#.HX|.B.ZX&.:.i B =.=.B i M S.#.t.y.$X X[. XeXGXXX6X}.nX XQ.[.X.G :.z.} [.B.hXeXjX^.^.E.A.a.{  .%XtX( Q.[.C.y.[.D.p.b X.x.:.` ( ` d _ ( x.( / 2 @ @ $ $ + + + - 3 j p u 1 u x N N e = @ = 3 j b G G H e.a.z.o.n d a j a b M ) / X.J =.m B b G G -.z.u.( { M B ] _ ] G M j j p T W E v 2                                                                                                                                                                                                                                               ",
"                                                                                                                                                                                                                                                                . X X X X X X X X X X X X X . . . . . . . . . . . . . . . . . . . X O o o o X # + + X X X o O . . . . . . . X X X X X X X X O o X X X # & + + @ 2 ~ m +.1.OX1.h - : - 3 k ^ ^ 3 3 p ] @.%X#.D.S.$.>.p ;.1 1 p x >./ / p.B.t.C.t.e.B.|.%X( HX#.S.i d =.B B d b :.u.e.F.B.A. X X.XeXXXXX6X4XrXeXG.[ b x.u.e.[.eXB. X}.4X}.A.{.S.( { +X%X) |.%Xa.{ '.y.OXb G X.K H n M b ] %.%.[ _ - @ @ > > @ + @ = 3 N x p p p N =.~ c = @ = 2 p b ] u.e.S.D.S.X.` b b N j j M ) ( X.J n B b b M ..o.u.{ ( X.G M _ ' / / m b p j m T E c ,                                                                                                                                                                                                                                               ",
"                                                                                                                                                                                                                                                                X X X X X X X X X X X X X . . . . . X . . . . . . . . . . . . . . . o & & o o # + + + + X X X . . . . . . . X X X X X X X X X X X X X # & + + @ 2 Q T +.+.S.&.h : : - 2 k E E k < h $.) S.p.B.%XB.@./ 2.E 3 3 =.=./ G S.{ F.B.D.B.#.ZX%XF.B.F.) M.i _ =.V i / ) S.#. .[.[.Q.A.|.Q..XQ.}. XE.}.|.$.1 ` | { C.lX X`.`.^.^.V.y.%.D ( %.HXM eXI.8.H tXt.S.a M ( G -.n n / / %.( ` m - @ $ 7 7 @ + + = 3 v x 1 p u j N E q = @ = 2 a M ( x.z.D.D.a.u.G b j x j a M [ ( X.G a N b m G ..{ } L ( | M M b _ M M m m a j m T E z ,                                                                                                                                                                                                                                               ",
"                                                                                                                                                                                                                                                                X X X X . . X X X X . . X X . . . X X . . . . . . . . . . . . . . X X o & o o X + + + + X X X . . . . . . . X X X X X X X X X X X X X # % & @ @ : E R >.:.) OXR 8 = 4 4 l Y k Y - j $.@.@.S.&X&.ZXp.$.R j 1 s a M / H S.F.y.%Xt.D.A.|.G.F.G.ZX@.:./ d _ i i / X.%.a.y.y.V.y.I.[.G.Q. X^.4XmX^.eX$.a / uXD.( eXA.eXQ. XE.V.y.x.G G d +X| I.Z.{ } Z.B.>.b n G n K B J ] X.| X._ p - ; 7 t 6 ; + + : 2 h v u p u p p h 2 = @ ; 9 b *.( | p.a.e.}  .M M b a j m ] ) ( %./ B m m M ] :.o. . . .%./ ' b M R M B b b m T T v q                                                                                                                                                                                                                                                 ",
"                                                                                                                                                                                                                                                                X X X X . . . X . . X X X X . . X X X . . . . . . . . . . . . . X . X o & o o X + + + + # o X . . . . X X X X X X X X X X X X X X X X # % % $ @ - l ;.R &.1.+XT 9 = 4 < k ^ ~ c 3 3 R &.$.p.%XG.%X#.S.M j 1 p Z =.n { p.y.F.F.B.#.B..X[.+Xt.ZXB./ M M _ u d *.G x.{ a.[.y.'.F.G.y.[.}.}.jX}.Q.lX1.j ` X.D.y.$XA.Q.Q.^.K.W.y.x.G ) ) PXG [.y.x.D '.D.=.u ` n H -.D n / $.| S.-.j - 5 t 6 5 ; @ @ : 8 z ~ Z x a p p h 8 = @ = 2 x M X.{ #.e.a.C. .d d u u j j R / G { *.b W j R [ %.{  .8. .| M B m M M b B b N N T T l 3                                                                                                                                                                                                                                                 ",
"                                                                                                                                                                                                                                                                  . . . . . . X . . X X X X . . O O X . . . . . . . . . X X . . X . X o & & # X # + + X # o O . . . X X X X X X X X X X X X O o X X X X & % $ @ : l W R ) 1.&X[ ,.- @ 4 Y Y ! 9 3 3 ' ) ) #.1.%XB.F.p.M 2.1 j p B b D  .a.t.+XB.B.B.G.%XZX#.|.B.&.[ M d i V B ` x.u.e.r.r.y.y.F.I.A.K.E.}.6XQ.eXS.1 ' [ #.C.|.G.A.A.`.K.[.a.x.( ] :.[ | S.p.o.D e.z.W < *.( H ( ,.a _ M ] >.,.z - 0 6 ; ; @ + + = 2 h <.Z V a p p h 3 - @ = 4 N / %.( a.y.e.S.{ G b p j ~ b / ] | %.] M m b / X.%.{ e.h.a.x.[ R M M b b j b b m R T h 2                                                                                                                                                                                                                                                 ",
"                                                                                                                                                                                                                                                                  . . X X X . . X X X X X . . . . X X X . . . . . . . . . . . . . . X o o o # # + + + + # o X . . . . X X X X X X X X X X X & * o X X X & > @ @ = 9 l Q >.[ F.[ ;.: @ : c 9 Y v 2 < Q ] ( oX@.ZXF.B.B.S.M m 3 h x n H { i.a.F.B.B.t.A.G.lXB.B.F.S.>.i V u V =.>.( { +X .#.D.S.y.y.B.`.Q.}.hXQ.G.p.p m ' S.a.A.{.C.[.I.W.s.e.:./ ( S.z.%.@.B.{ o.{ M.N 3 ' ) G $.=.1 p N ;.2.~ 2 = ; ; $ + + X + = - p ~ ~ b p u b p 2 - = - 2 h _ $.p.S.f.C.e.( b a p p j M / ( #.%.*.b N b ] ( #.{  .i.p.x.$./ R b m j N N M G M m k 5                                                                                                                                                                                                                                                 ",
"                                                                                                                                                                                                                                                                  . . O X X X X X X X X X . . . . X X X . . . . . . . . . . X X X X X o o o # # + + + # & # o O . . . . X X X X o # X X . X # % & . + & 7 > @ ; = 9 Y ~ R &.&.) ' 8 + ; 0 c ~ k 2 h T _ o.{ &.B.G.F.B.OX-.p h 1 l W G .. . .%XB.B.B.I.A.AXt.t.B.&X) a d u i ,.=.X.H #.{ #.#.S.D.B.y.y.eX6XQ.Q. X%Xp p ;.[ { [.f.e.t.D.I.r. .-.M ) | x.{ @.OXu.u.H ,.< = =.` @.+.;.- = - ! <.r + + + + + X X X X @ 4 z =.B m u p V h 3 - = - 4 h m %.z.a.r.Z.D.%.G j p x b M ( o.| %./ b a B _ ( |  .a.z.u.%.] R b m a N N m M M M m c 5                                                                                                                                                                                                                                                 ",
"                                                                                                                                                                                                                                                                    X X X X X X X X X X X . . . . X X X . . . . . . . . . . . . X X . X o o # # + # + # # # o O . . . . X X X X # # o X . X # & # X # + % > $ = + e 2 E T @.&.) ;.9 + > : q v v 2 9 m / {  .F.F.B.D.#.>.*.< < - v B G G { #.B.@.B.a.$XA.B..X[.B.+X) j p p j >.] ) | %.x.%.oXz.D.y.y.$XQ.[.[. X%X+X3 - ,.>. .+Xr.a.a.y.C.a.{ =.N j [  . .S.p.z.o.n ~ = @ ;.' $.+.9 @ @ @ + + X + X X X X . X . X @ 2 z V W b p p V ~ h - @ = 4 h R $.z.S.r.r.u.%.G a j x j M [ :. .%./ b b B ` ( |  .i.z.u.:.] M b j N E m W b / M N c :                                                                                                                                                                                                                                                 ",
"                                                                                                                                                                                                                                                                    . X X X X X X X X X X . . . . X X X X . . . . . . . . . . . X . . X O o # # + + + + # X X O . . . . X X X X o # o X . X o # + # # + + > % @ @ = q l Q $.x.$.;.8 + 7 ; 0 q c 2 2 N M D u.B.F.F.B.p.[ =.1 < 3 h W -.( { e.t.t.a.a.C.%XA.[.ZXB.%XOXR 1 p j _ ] / ) ( :.:.G %.#.{ | Z.[.'.B.B.+XOX- = Y ' x.iXr.p.p.#.| { ] ^ = - >.( u.z.p.D X.,.c @ + ~ ,.[ T r + X X X + X X X X X X . X X X + - c N ,.B a 1 x ~ 9 = = ; q h M :.S.z.r.i.i.o.b a j h j M ( { | %./ b b B ] / |  .e.u.%.:.] m b M m W N m M M M N 9                                                                                                                                                                                                                                                   ",
"                                                                                                                                                                                                                                                                    . . O O X X X X . . . . . . . X X X X . . . . . . . . . . . . X X X X X # # + # # # # o o O . . . . X X X X X # # X X X X + $ + + + % & & @ @ + 0 c Q R :.[ ^ 5 + + ; r w 8 2 2 j / { L  .#.[.| #.M ' 3 < - c ~ n G H u.D.#.y.h.a.y.y.$XZXC.[.F.;.- h h R $.[ [ ) :.) ( G ( f | C.C.C.f.y.B.2.= + = ,./  .a.S.OXS.>.>.;.= @ = ,...x. .( x.M ~ @ X X : ,.;.^ + . . . . . . . X X X . . X X X + - < j b j u a N ;.! 0 ; + : v m ( o. .8.8.u.X.n a x h j _ / ( | %.n b a _ _ ( |  .u.u.o.` M j b M M N B m G M M N 9                                                                                                                                                                                                                                                   ",
"                                                                                                                                                                                                                                                                      . . . X X X X . . X X . . . . X X X . . . . . . . . . . . . X X X X X X # + # + # # # X X . . . X X X X X X # # X X X X X $ $ + + $ % % + @ @ = ! ^ l >.Q <.; X . + 7 0 : : 2 l *.X.} { D.G.@.) >.>.l 2 - ! ~ B ( (  .p.F.e. .e.D.A.eXlXG.[.B.;.- l h / $.[ ) ) [ >.n { G ( p.D.#.B.a.Z.OXY + X @ c ;.] $.' >.T ;.l @ + X @ ~ ,.( x.{ ` ;.r X . . + <.! : X . O O O o o . X X X X X X X X + = 3 Z =.B p 1 3 2.<.: + = 4 1 M G (  .8.8. .X.M p h j m ` ( | %.%.M d b _ *.] |  .%.x.-./ j p M m =.m W W M G R l e                                                                                                                                                                                                                                                   ",
"                                                                                                                                                                                                                                                                      . . . . O X X . . X X . . . . X X X X . . . . . . . . . . X X X . X X # + + + + + # # X . . . . . X X X X # # # X X X X X + $ + + + % 7 + @ + = 8 c E E ^ ! + . . X + $ > ; : E ;.D  .{ +XA.B.@.S.>.E 2 2 c x n G o.z.{ +XD. .#.S.F.|.ZX$X%XS.2.- h j _ / >.[ ) ) X.G G x.G oX#.p.e.#.e.>.y . . X + Y ;.;.^ ^ <.: @ $ . . X r B >.] ] ;.! X . . O X ; ; + . . O O . . X X X X X X + + + + @ @ 2 x =.B j 1 p h 2 = ; @ = 3 a ( %. .r.C.S.{ M p j j m ] {  .&.| / a M M -.] ) { | :.-.B j b M ' M W W M ] M R l e                                                                                                                                                                                                                                                   ",
"                                                                                                                                                                                                                                                                      . X . . . X X . . X X . . . . X X X X X X . . . . . . . . X X . . X o # # # + + # # # o . . . . . X X X X # # # X X X X X # + + $ $ $ 7 $ $ $ + @ w w c <.@ X X O . X + $ $ = ~ ' / | | B.B.A.D.[ ;.E k 2 2 ~ _ G n ( ( #.a.S.#.[ F.t.%X%X%X&X2.= 2 ~ =._ G / >./ _ M M ] ] >.&.) $.@.[ OXX O . . X + + @ @ + + + X . O . . $ ~ N *.~ 3.@ X . . . X + X X X O X O o X o X X X X + + + + X + ; 2 Z m W j p p h e = @ @ - 3 b ( o. .8.a.z.{ M a x a m >.|  . .X.G d b / ] / G ( X.:.` i a _ / / R m m _ / / m l 8                                                                                                                                                                                                                                                   ",
"                                                                                                                                                                                                                                                                        . . X . X . . . . X . . X . . X X X . X . . . . . . . . . . . . . X o # # + + # # # # O . . . . X X X # X # # X X . . O X X X X $ > > $ 7 $ + + $ 7 $ + X X . . . . X # + ; c ^ ' >.) &.D.y.| [ ,.h e : c l W / X.( &.|  .S.%.S.@.B.t.| B.S.2.@ 4 C W W ' Q W j j p m *.;.2.;.T Q 2.;.k X . . . . X X X X X X X . . . . . X ; <.<.3.7 X . . . . X X . . X X + # # # + + + + + + + + + + + @ q ~ W _ j p 1 h w ; @ @ : h b G o.i.h.a.u.( b j j j R $.| { &.) J i b / M / G G X.:.J a j R / R R b M M / R T k                                                                                                                                                                                                                                                     ",
"                                                                                                                                                                                                                                                                        . . X . X . . . . X . X X . . X X X . . . . . . . . . . . . . . . X o # # # # # # # o X . . . . X X X # + + o o X X . X . X X + $ 7 5 7 7 $ X X X X X . . . . . . . . X & % w Y E ' Q +.S.S.>.m ;.<.! @ - E Q M $.( [ &. . .:./ +.B.S.F.OXOX! @ @ 0 ! ! <.~ ! 3 3 3 C ^ ,.,.<.! Y e : + X . . . . . . . . . . . . . . . . . X + + $ X . . . . . . . O O X X + + + + + + + + + + + + + + + @ 4 ~ *.R j p 3 9 e = + @ - p m ( %.S.r.C.e.) b p j j ' $.u.e.p.( M i b / M G G G :.X.b i j M / R M m m M / R N k                                                                                                                                                                                                                                                     ",
"                                                                                                                                                                                                                                                                        . . X . X . . . . X . X X . . X X X . . . . . . . . . . . . . . . X X # # # # # # # o X . . . . . X X X + + + # X X X X O O o X + ; 6 t 7 # X . . . . . . . . O . . . . . + ! <.,.^ ~ Q 2.2.OX! 8 ; + + e v m / X.%.$.) X...-._ $.) $.[ +.^ @ + X + ; : @ + + @ y <.y ; + + + + + + X X X . . . . . . . O O . . . . . . . . & X X . . . . . . . . . O O X X X + + X X X # # X X o o X X X @ 2 N ;.M b u 3 9 w ; @ = - p m ( z.a.C.a.z.| b j m j ] %.S.e.z./ b i b _ / / M [ >.] d a m M ' / m m m M R R l 9                                                                                                                                                                                                                                                     ",
"                                                                                                                                                                                                                                                                          . X . X . . . . X . . X X X X X X X X . . . . . . . . . . . . . X X # + + + # # # # X . . . . . X X X X + # # X X . . O O O X X @ $ 7 * + . . . . . . . . . . . . . . O X $ @ ; @ @ @ ; ; ; + X X X X + c E ' X.X.[ ] _ b =.N W ;.=.,.9 = X X . X X X X X + X X X # X + X X . . . . . X X . . . . . . O O . . . . . . . . . . . . . . . . . . . . O O X X + X X X X X X X X X o o o o X @ 2 x =._ B p 3 h w 7 @ = - h b ( #.a.h.D.S.| a m m m ] x.D.e.x.M d d M ' ] ] M [ &./ a d M _ ' R b m M _ R Q l 8                                                                                                                                                                                                                                                     ",
"                                                                                                                                                                                                                                                                          . . . X . . . . X . . X X X X X X X X . . . . . . . . . . . . . X X + + + + + # # o X . . . . . X X + X + & # X . . . O . X X X + + + + X . . . . . . . . . . . . . . O . X + + + + + X X X X . . . . + 8 k E B ' Q W 2.<.- - 2 8 e @ @ X o . . . . . . . . . . O X . . . . . . . . . X X X . . . . . . . . . . . . . . . . . . . . . . . . . . . . . X X X X X X X X X X X X X X X X X @ 4 x M *.M j 3 9 q ; @ @ - p b ( %.a.a.Z.S.| b j j W $.%.a.a.&.M d b M / _ _ M [ $./ a b R ' _ M j m M _ R Q v 8                                                                                                                                                                                                                                                     ",
"                                                                                                                                                                                                                                                                            . . X . . . . X X . . . . X X X X . . . . . . . . . . . . . . . X X + + + + + X X X . . . . . X + + X # & # X . . . . . . X X X X X . . . . . . . . . . . . . . . . O . . . . . . . . O . . . . . . . X : c 3 ! <.! ; @ + + + + + X X . . O . . . . . . . . . . . . . . . . . . . . . X . . . . . . . . . . . . . . . . . O O . . . . . . . . . . . X X o o o X X X X X X X X X X X o + 2 v M *.n j p 3 2 @ @ @ - p n { z.a.a.e.S.) b j p M ] o.e.e.@.M d V M M G M M [ ) G i b R [ / b j m W _ R W v :                                                                                                                                                                                                                                                     ",
"                                                                                                                                                                                                                                                                            X . X . . . X X X X . X X . X X X . . . . . . . . . . . . . . . X X + + + + + + X X . . . . X X + + X # & # X . . . . . . X X X X X . O O O . . . X . . O . . . . . O O . X . . . . X . . . . . O O . o X $ r t + . . O . X X . X . . . . O . . . . . . . . . . . . X . . . . . . . . . . . . . . . . . . . . . . . X . . . O . . . . . . O . . . . X X # # # X o X + X X X + + + X X X - v / ] _ a p 9 0 ; @ = < h M o. .a.8.y.u.( b j j j _ o.e.e.| R a b M M M M / / ) M a n / / R b b B _ M R W k                                                                                                                                                                                                                                                       ",
"                                                                                                                                                                                                                                                                            . . X . . . X X X X . X X X X o O X . . . . . . . . . . . . . . X X X X + + # # + X . . . . X X X + + # # + X . . . X X X X X X X O O O . . . X X . . . . . . . . . O O . . . . . . . . O . . . O . . . . X X . . . . . . . . o . O . . O . . . . . . . . . . . . X . X X . . O . . . . . . . . . . . . . . . . . . . . . O . . . X . . O O . . . . X X # # # o # # + + + + + + + + X + - h / ] >.a 1 z C , @ @ - x _ { {  .e.e.p./ b u j b -.%.a.S.$._ a a b M M M ` ] ] M a B ' / M m N W _ m R ^ 9                                                                                                                                                                                                                                                       ",
"                                                                                                                                                                                                                                                                              . . . . . . . X X . . . . X X O X . . . . . . . . . . . . . . X X X + # # # $ + + X X X . X X X + + # $ # X X X X . X X . . X X X X . . . . . . . . . . . . . . . . . . . . . . . . . . . . . . . . . . . . . . . . . . . . . . . . . . . . . . . . . . . . . . . . . X X O X . . . . . . . . . . . . . . . . . . . . . . . . . . . . . . . . . . . X X o # # + X + + + X X X X X X + = h M / G B 1 3 w , @ = 2 h M { {  .e.e.%./ j p j a X.x.a.p.) G a a j m b / [ ] ' m j _ *.W m m R R m R m ~ 9                                                                                                                                                                                                                                                       ",
"                                                                                                                                                                                                                                                                              . . . . . . . . X X X . X X O o o . . . . . . . . . . . . . . . X # # # # # # @ + X X X . X X X + + $ $ # X X X O . X X X . X X X X X . . . . . . . . . . . . . . . . . . . . . . . . . . . . . . . . . . . . . . . . . . . . . . . . . . . . . . . . . . . . . . . . . . . . . . . . . . . . . . . . . . . . . . . . . . . . . . . . . . . . . . . . X X # # + + + X X X X X X X X + = 9 M G B b 1 2 q : @ @ - 3 _ {  .y.C.p.:._ j p b b X.#.t.p.:.G a j p m M G ` ` _ b j R _ m b m m R m M m E e                                                                                                                                                                                                                                                       ",
"                                                                                                                                                                                                                                                                                . . . . . . . X . . . . X X O O X . . . . . . . . . . . . . . X o # # # # $ $ # X . . X X X X + + $ $ # X X . O . X o X X X X X X X X X . . . . . . . . . . . . . . . . . . . . . . . . . . . . . . . . . . . . . . . . . . . . . . . . . . . . . . . . . . . . . . . . . . . . . . . . . . . . . . . . . . . . . . . . . . . . . . . . . . . . . . X X # # + X X X X X X X X X X + = 9 M ` _ B 3 3 q : @ = - 3 W X.u.S.C.p.:.M j p b n { #.t.e.{ ` a p m m b [ X.-._ b m W W b b m m m j m W E 8                                                                                                                                                                                                                                                       ",
"                                                                                                                                                                                                                                                                                . . . . . . X X . . . . X X X X O X . . . . . . . . . . . . . . X o # # # $ $ $ X . . X X . X + + $ $ # X . . . . X o X X X o o X X X X . . . . . . . . . . . . . . . . . . . . . . . . . . . . . . . . . . . . . . . . . . . . . . . . . . . . . . . . . . . . . . . . . . . . . . . . . . . . . . . . . . . . . . . . . . . . . . . . . . . . . . X X # # + + X X X X X X X X X + = h M ` *.=.p 3 q : @ = 2 h M X.z.D.a.S.>.M j p b b { u.B.t.| M a j j M M G ` ` M j b M b b m W m l j m W E                                                                                                                                                                                                                                                         ",
"                                                                                                                                                                                                                                                                                  . . . . . X . X X . . X O o o O X . . . . . . . . . . . . . X X X + # $ $ $ $ # X . . . . X # + $ $ $ X X . . X X X X X X X # X X X X . . . . . . . . . . . . . . . . . . . . . . . . . . . . . . . . . . . . . . . . . . . . . . . . . . . . . . . . . . . . . . . . . . . . . . . . . . . . . . . . . . . . . . . . . . . . . . . . . . . . . X X # # # + + + + X X X X X o + + = 9 b M G B p 3 q : @ = 4 k B ] u.a.p.z.>.M p p a b ( p.D.B.| / b b j m M M ` *.M j m M M M N W l j j l ^ !                                                                                                                                                                                                                                                         ",
"                                                                                                                                                                                                                                                                                  O X X . . . . X . . . X O O o X X . . . . . . . . X X . . . . X X # # # $ $ $ # X . . . . X + + $ > $ + X . . O X X X X X X o X X X X . . . . . . . . . . . . . . . . . . . . . . . . . . . . . . . . . . . . . . . . . . . . . . . . . . . . . . . . . . . . . . . . . . . . . . . . . . . . . . . . . . . . . . . . . . . . . . . . . . . . . X X o # # + + + + X X X X o o X X = 9 b n n b p 3 e : @ = 2 l =.` { #.#.| / j p j j b ( u.S.B.%.$.b a m B n ` ` J n j b m M M N N l h j l E v                                                                                                                                                                                                                                                         ",
"                                                                                                                                                                                                                                                                                  O X X X . . . . . . . . X X O . X . . . . . . . . . . . . . . X X # # # # $ $ + X . . . . X X + $ > $ + X . . X X X X X X X X X X X X . . . . . . . . . . . . . . . . . . . . . . . . . . . . . . . . . . . . . . . . . . . . . . . . . . . . . . . . . . . . . . . . . . . . X X . . . . . . X . . . . . . . X . . . . . . . . . . . . . . . . . X o # # + + + + + + + + X X X + = 2 b ( _ m 3 3 e : @ = 2 h =.` {  . .( M b p x b M { #.t.t.p.[ b b a B ` ` *.J M b m R _ W N j l p h l v c                                                                                                                                                                                                                                                         ",
"                                                                                                                                                                                                                                                                                    X X X X X X O . . . X X O o X X X . . . . . . . . . . . . . . X # # + # $ $ X X . . . O X X @ $ > $ + X . . X X o o X X X X o X X X . . . . . . . . . . . . . . . . . . . . . . . . . . . . . . . . . . . . . . . . . . . . . . . . . . . . . . . . . . . . . . X . X X X X O X . . . . . X O X . . . . . . O . . . . . . . . . . . . . . . . . . X X o # + + + + + + + X X X + @ 2 m $.>.W 1 2 q : @ = 2 h b G X.{ ( G M B a j a _ :.&.e.#.%.] b a j B M ` ` B b b b R W m E h j 3 h l v c                                                                                                                                                                                                                                                         ",
"                                                                                                                                                                                                                                                                                    X . . X X X . . . . X X X O X X X . . . . . . . . . . . . X . X X + + $ $ % # X . . . . X + + $ > $ + X . . O o o o X X X # o X X . . O . . . . . . . . . . . . . . . . . . . . . . . . . . . . . . . . . . . . . . . . . . . . . . . . . . . . . . . . . . . . . . . . . X X . X X X X X X . . . . . . . X . . X X . . . . . . . . . . . . . . . X o # # # $ # + + + + # X o + @ 8 m -.-.=.h 2 q = = = : 9 N _ ( H G H n _ x p b M :.&.p.e.x./ M a m W ' *.J n b b m R M m E h h h h v ! e                                                                                                                                                                                                                                                         ",
"                                                                                                                                                                                                                                                                                      . . . . X . X . . X X X X O X X . . . . . . . . . . . . . . X X # + # $ $ & X . . . . X + + @ ; $ + X . . X X o X X X X # X X . . . . . . . . . . . . . . . . . . . . . . . . . . . . . . . . . . . . . . . . . . . . . . . . . . . . . . . . . . . . . . . . . . . . . O X . X X X X X X . . . X X X X . O O O O O . . . . . . . . . . . . . . . X # # # $ # + + + + # X X X + 8 m -.*.W 3 < e - @ @ - h B _ G {  .o.X.M x j b M :.%.#.#.&.G b j N m / G J n b b m R R R E h p h j v !                                                                                                                                                                                                                                                           ",
"                                                                                                                                                                                                                                                                                      X . . X X X X . X X X X X O O O X . . . . . . . . . . . . . X X X + # $ $ $ + . . . . X + + @ : ; + X . . X X o X X X X # X X . . . . . . . . . . . . . . . . . . . . . . . . . . . . . . . . . . . . . . . . . . . . . . . . . . . . . . . . . . . . . . . . . . . X X O . . X X . X . X X X . X X X X . O O O O X . . . . . . . . . . . . . . . X o # + # # + + + + + X X + @ 8 M >.>.=.3 < e : = @ : h B / { { u.x.$.W a j b / X.#.| | | G a j N m / M B M M m m R R T E h p p x Y c                                                                                                                                                                                                                                                           ",
"                                                                                                                                                                                                                                                                                        X X X X X X X X . X X X X O O X . . . . . . . . . . . . . X X X # + + $ $ + X . . . X + @ ; , : + X . . X X o o X X X # X X X . . . . . . . . . . . . . . . . . . . . . . . . . . . . . . . . . . . . . . . . . . . . . . . . . . . . . . . . . . . . . . . . X X X X X . . X X . . . X X X X X X X X . . . X X . . . . . . . . . . . . . . . . X X o # # + + + + + + X X + + : j >.>.*.3 < e : = = 2 x m X.{ e.e.{ x.M a j b ` X.#.| { X.M a a m b / G M B M m T R R m v h p p l v w                                                                                                                                                                                                                                                           ",
"                                                                                                                                                                                                                                                                                        X X X X X X X X X . X X X O O O . . . . . . . . . . . . . X X X # + + + $ + X . . . X + ; : 0 5 @ X X . X X X X X X X X X X X X . X . . . . . . . . . . . . . . . . . . . . . . . . . . . . . . . . . . . . X X X . . . . . . . . . . . . . . . . . . . . . . . . . X X . . X X X X . X X X X X X X X . . X O O O X X X . . . . . . . . . . . . . X X # # # + + + + + X X X + - j ] -.' p < 4 = @ @ < x R ( %. .u.x.:.M b m m ] X.%.{ | X.M b p j m R / / M W m T W R N h h p j N v 8                                                                                                                                                                                                                                                           ",
"                                                                                                                                                                                                                                                                                        X X X X . X X X X . . . X O O O . . . . . . . . . . X X . . X X # # + # $ + X X . . X + ; : q 0 $ X . . X X O X X X X o X X X X . . . . . . . . . . . . . . . . . . . . . . . . . . . . . . . . . . . . . . . . . . . . . . . . . . . . . . . . . . . . . . . . . . X X . . X X X X . X X X X X X . X . X O O O O O X X X . . . . . . . . . . . . X X o # # + + X + + X X + + 2 j ] *.W h < 2 = = = 2 l R %.#.a.h.u.x.M j b b ` X.%.{ | [ d j p j W / ] / R M m m W T N h 3 p x N c                                                                                                                                                                                                                                                             ",
"                                                                                                                                                                                                                                                                                          X X X O O O O X X . . . X O O . . . . . . . . . . X . . . X X + # # $ $ $ + X . . X + ; : q e ; + . . X X X X X X o # X X X X . . . . . . . . . . . . . . . . . . . . . . . . . . . . . . . . . . . . . . . . . . . . . . . . . . . . . . . . . . . . . . . . . X X O . X X X X X X X X X X X X X . . X X O O X . . . X . . . . . . . . . . . . . X o # # # + X X X X X X + : j ] ] W h < 2 = = = 2 v / $.a.a.r.z.{ M j j b G X.%. .%.[ b a a N W $.$./ M m l T Q m j h 9 j N N h                                                                                                                                                                                                                                                             ",
"                                                                                                                                                                                                                                                                                            X X X O O O X X X . . X O O . . . . . . . . . . X . . . X X X + # $ % $ # X . . X + $ : e e ; + X X X X X X X X X # X X X X . . . . . . . . . . . . . . . . . . . . . . . . . . . . . . . . . . . . . . . X . . . . . . . . . . . . . . . . . . . . . . . . . X O O . X X X X X X X X X X X . . . . X X O O X X X X X . . . . . . . . . . . . . O o # # # X X X X X X X + : j ` *.*.h < 2 = @ @ 2 v R #.#.e.e.p.( n m b b G X.%.o.X.-.M p a N R $.+.M m m m T Q m h j h l E z 8                                                                                                                                                                                                                                                             ",
"                                                                                                                                                                                                                                                                                            . . O X X . X . . . X X X X X X . . . . . . . . . . . . . . X + + # % $ + X X X X X > 7 w w : + X X # X X X X X X X X X X . . . . . . . . . . . . . . . . . . . . . . . . . . . . . . . . . . . X X X X . . . . . . . . . . . . . . . . . . . . . . . X X X . . . X X X X . X X . . X X X X X X X X X X X X X X . X . . . . . . . . . . . . . . . X # # # # X X X X . + @ = p B _ W j < 4 , @ = 2 h _ | u.a.a.%.>.B p a n ) %.%.x.o.*.j u b M R $.[ / W m j m m j j j l N Y w                                                                                                                                                                                                                                                               ",
"                                                                                                                                                                                                                                                                                            . . X X X X X X . . . X X X X . . . . . . . . . . . . . . X X + # $ % $ + X X . X X $ : w c : + X X X X X X X X X # X X X . . . . . . . . . . . . . . . . . . . . . . . . . . . . . . . . . . . X X . X . . . . . . . . . . . . . . . . . . . . . . X X X X . . X X X . . . X X . . . . X X X X X X X X . X X . . . . . . . . . . . . . . . . . . . # o # # X X X X + + + ; x B J W l 3 4 0 @ @ - p M { u.a.a. .*.d a V n X. .u.o.X.] j p b _ [ >.[ m b b m m m j j m R E Y r                                                                                                                                                                                                                                                               ",
"                                                                                                                                                                                                                                                                                              . X X X X X X . . . . X X X . . . . . . . . . X X . . . X X + # $ % $ # X X . . X @ ; q w : + X X X X X X X X X + # X X . . . . . . . . . . . . . . . . . . . . . . . . . . . . . . . . . . . X X . . . . . . . . . . . . . . . . . . . . . . X O X X X X . . . X . . . . X X . . . . . . X X X X X X X X X . . . . . . . . . . . . . . . . . . . o o # # X X X X X X + : x b M B a < 2 , @ = 2 j m ] #.#.e. .] a a b J ) o.{  .X._ j a M _ [ $./ M j m m j m l j m R E w 5                                                                                                                                                                                                                                                               ",
"                                                                                                                                                                                                                                                                                              . . X X X X X X . . . X X X . . . . . . . . . X X . . . X X + # $ % $ # + X . . X + = 0 q : @ X X X X + X X X X X # o X . . . . . . . . . . . . . . . . . . . . . . . . . . . . . . . . . . . X X X . . . . . . . . . . . . . . . . . . . . . . O X X X . . . X X . . . . X . . . . . . X X X X X o X X X X X . X . . . . . . . . . . . . . . . . O o o X X X X X X X + ; p b B m a < 2 , = @ - p m [ { {  .| ] b u N b X.H  .( X.M j b B _ / [ M M b B m j j j j m R E e                                                                                                                                                                                                                                                                 ",
"                                                                                                                                                                                                                                                                                                X X X X X X X . . . X X X X X . . . . . . . . X . . . . X + + % % % $ # X X X X + ; , 0 5 @ X X X + + X X X X X # X X . . . . . . . . . . . . . . . . . . . . . . . . . . . . . . . . . X . . X X X X . . . . . . . . . . . . . . . . . . . . X . . . . . X X X X . . . . . . . X X X X X X X X X X X X X . . X . . . . . . . . . . . . . . . . X X o o X X X X X + + = h =.=.b a 1 2 , = = - p m / ( #.p.| ` m p b M ( { { { X.M b M W ] ] ] / b b m b j j j N m W Y e                                                                                                                                                                                                                                                                 ",
"                                                                                                                                                                                                                                                                                                X X X X X X X X . . X X X X X . . . . . . . . X . . . . X X + & % $ $ # X X X X + @ : 0 5 $ X X X X + X X X + + o X X . O . . . . . . . . . . . . . . . . . . . . . . . . . . . . . . . . . . X X X X X X X X . . . . . . . . . . . . . . . . . . . . . . X X X X X . . . . . . X X X X X X X X X X X X X X X X X . . . . . . . . . . . . . . . X X o o X X X X X X + : x =.*.B j 3 2 : ; ; - h b *.| #.p.x.*.b a b b X.H o.{ { M b m M *.$.] R b m B j m j j ~ W E c 5                                                                                                                                                                                                                                                                 ",
"                                                                                                                                                                                                                                                                                                  X X X . . X X . . . . X X X . . . . . . . . O O . . . X X + $ % $ $ # X X . X + $ ; 8 0 > X X X + # + X X # X o X . . . . . . . . . . . . . . . . . . . . . . . . . . . . . . . X X X . . X X X X X X X . . . . . . . . . . . . . . . . X X . X . . X X X X . X X X X X X . . X X X X X X X X X X X X X X X X . . . . . . . . . . . . . . . . X X X o X X X X X X + , h B *.' N h 2 : ; = - 3 j -.| | #.x.*.j j p M ) | | o.( M b M M ] $./ M m m W N b j j E W v 9                                                                                                                                                                                                                                                                   ",
"                                                                                                                                                                                                                                                                                                  X X X X X X O . . . . . . . . . . . . . . O . o . . . . X X $ $ $ $ + X X . X + @ ; : 0 > + X X # # + X X X X # X . . . . . . . . . . . . . . . . . . . . . . . . . . . . . . . X X X . . X X X X X X . . . . . . . . . . . . . . . . X X X . X . . . X X X . X X X X . . X X X X X X X X X X X X X X X X . . . . . . . . . . . . . . . . . . . X X o X X X X X X + : s B *.M m p < = ; = - 3 x ` ( &.p.%./ j p p b X.| %.x.( b b M M ] ] / M b b W W j j l N ~ v 8                                                                                                                                                                                                                                                                   ",
"                                                                                                                                                                                                                                                                                                    . O X X . O . X . . . . . . . . . . . . . . O . . . . X # # $ $ @ + X X X . X $ = 0 r ; + + X X X X X X X # # X . . . . . . . . . . . . . . . . . . . . . . . . . . . . . . . . . . . . . . X X X . . . . . X O O X . . . . . X X X . . . . X X X X X X . . . . X X X X X X . . X X X o o o X X X o o o X . . . . . . . . . . . . . . . . . . . X X X X # # X X + = p B =.` m v 4 = @ @ - 3 b M ( @.#.&./ j j p M ( X.{ x.G n b M G / / R M M R W W m h m E ~ c 2                                                                                                                                                                                                                                                                   ",
"                                                                                                                                                                                                                                                                                                    O . O O . O . . . . . . O . . . . . . . . . . . . . . X X + $ $ $ $ + X X . X $ ; r w : @ + X X X X X X X # # X . . . . . . . . . . . . . . . . . . . . . . . . . . . . . . . . . . X X . . X X X X . . . . . X X . . . . . . X O X . . . X . . . X X X X X X X X X X X X X X X X X X X X X X X X X X X X . . . . . . . . . . . . . . . . . . X X X X X o o o X + = p B _ G B v q : ; @ - 3 b G / | | %.M j p p M / | { x.H n b M / ] / M b m R W W m h l E E w                                                                                                                                                                                                                                                                     ",
"                                                                                                                                                                                                                                                                                                      . X O X X . X . . . . X . . . . . . . . . . . . . . X o + $ 7 7 $ + X X . X @ : 0 w 0 @ + + X X X X X + # # X . . . . . . . . . . . . . . . . . . . . . . . . . . . . . . . . . . . X X X . X X X X X . X . . . . . . O O X X X . . . X X . . . X X X X X X X X . X X X X X X X X X X X X X X X X X X . X . . . . . . . . . . . . . . . . X . X X X o X X o X X = p B G n m x 2 - = @ = 3 b M { ( &.$.*.b j j / ) #. .p.{ M M b / m _ m M R _ W W m j m E Y e                                                                                                                                                                                                                                                                     ",
"                                                                                                                                                                                                                                                                                                      X . X X X . X . . . . X . . . . . . . . . . . . . . . o # $ 7 7 7 + X X . X + : : e q = @ + X X X X X + # X X . . . . . . . . . . . . . . . . . . . . . . . . . . . . . . . . . . X X X X X X X X X X . X X . . . . X O O X X . . . . X X . . X X X X X X X X X X X X X X X X X X X X X X X X X X X . . X . . . . . . . . . . . . . . . . X . X X X o X X o X + = 3 b M n b h < = @ @ = 3 j / ( | | X._ b u p M [ #.#.p.X.n b / / ] _ M b R _ Q W b j m E c 5                                                                                                                                                                                                                                                                     ",
"                                                                                                                                                                                                                                                                                                        X X X X X . . . . . X . . . . . . . . . . . . . . . X # $ ; 7 ; + X X X X + : : 8 w : @ + X X X X X X # X X . . . . . . . . . . . . . . . . . . . . . . . . . . . . . . . . . X X X X X X X X X X . . . X X . . . . X X . . . . . . X X X X X X X X X X X X X X X X X X X X X X X X X X X X X X X . . . . . . . . . . . . . . . . . . . . . . X X o X X X X + = 3 b M M W v 2 - ; @ = 3 B ` x.| #.( _ a p a / ) #.#.#.| J M M / / ' M _ / ' R M b j m E w                                                                                                                                                                                                                                                                       ",
"                                                                                                                                                                                                                                                                                                          X X . . . . . . . X . . . . . . . . . . . . . . . X X $ ; ; $ @ + X X X + : 8 9 c 8 @ + X X X X X X # o X X . . . . . . . . . . . . . . . . . . . . . . . . . . . . X X X X X X X X X X X X X . . . . X X . . . . . . . . . . . . . . X X X X X X X X X X X X X X X X X X X X X X X X X X X X X X . . . . . . . . . . . . . . . . . . . . . X X X X X O X + ; 3 b B M _ N 4 - ; = - 3 B $.u.p.{ { B a j V ' $.&.p.#.( n a / / -./ B m / / R M b b M T e                                                                                                                                                                                                                                                                       ",
"                                                                                                                                                                                                                                                                                                          X X . X . . . . . . . . O . . . . . . . . . . . . X X $ ; ; > @ + X X X + ; 8 k c w = + X X X X X X # X X . . . . . . . . . . . . . . . . . . . . . . . . . . X X X X . X X X X X X . . X X X X X X X X X X X X X . . . . . . . X . . . X X X X X X X X X X X X X X X X X X X X X X o # # X X X X X . . . . . . . . . . . . . . . . . . . X X X X X X o X + ; p m G M m v 3 = = = - 3 m [ &. . .( B a u p M ) &.B.#.| n b M / / R M W R R m m b b M l e                                                                                                                                                                                                                                                                       ",
"                                                                                                                                                                                                                                                                                                            . . X X . . . . . . . X . . . . . . . . . . . . X + $ > 5 ; @ + X . X + @ 8 h c c = + X X X X X # # X X . . . . . O . . . . . . . . . . . . . . . . . . . . X X X X X X X X X X . . . X X X X X X X X X X X X X . . . . . . X X . . . . X X X X X X o X O X . X X X X X X X X X # # & # X X X X X X . . . . . . . . . . . . . . . . . X X X X X X X O X + ; h B G M j x 3 - @ @ - 3 B X.#.u.| X.M a a j / ] p.S.#.( b d M ] _ M m W ' ' R R W W Q T                                                                                                                                                                                                                                                                         ",
"                                                                                                                                                                                                                                                                                                            . . . . . . . . . . o O O . . . . . . . . . . . . X # 7 0 ; ; @ o . . X ; : q v h : + X X X X X X o o O X . . . . . . . . . . . . . . . . . . . . . . . . . . . X X X X X X X X X X X X X X X X o o O O O O O X . . . X X . . . X X X X X o # X X X X X X X X X X + X X + + + # $ $ * # + X X X X X . . . . . . . . . . . . X X X X X X X X X X O O X X + : p _ _ M j p q - = @ - 3 b X.p.a.&.) M j a j _ X.x.{ | ( b m M _ M b b M _ R m m M R R Y                                                                                                                                                                                                                                                                         ",
"                                                                                                                                                                                                                                                                                                              . . . . . . . . . O O O X . . . . . . . . . . . X # 7 0 : = @ o . . X @ : q c k 2 @ X X X o X X o X X . . . . . . . . . . . . . . . . . . . . . . . . . . . . X X X X X X X X X X X X X X X X X X O O O O O X . . . . . . . . X X X X X X X X X X # X X X X X X + + + + + + + $ $ $ $ + X X X X X X . . . . . . . . . . . X X X X X X X X X X . . . X + - p _ ] R j h z < : = - 1 b | p.B.%.[ M j a j B X.| | X.G M R ' *.' M m B W R m R R ' m k                                                                                                                                                                                                                                                                         ",
"                                                                                                                                                                                                                                                                                                              . . . . . . . . . . X X X . . . . . . . . . . X X # $ 0 , : @ o O . . + : z c k e @ + X X o X X o X X . . . . . . . . . . . . . . . . . . . . . . . . . . . . X X X X X X X X X X X X X X X X X X X o o O O X . . . . X X . . X X X X X X # # + X # X X X X X + + + + + + + @ $ $ $ # + X X X X X . . . . . . . . . . . X X o # # X X X X X X . . . X + = p G ] / j p 3 < : = - 3 M X.p.B.u.] J j p m M ) #. .) / b M R _ B b j m W R b M T Q l                                                                                                                                                                                                                                                                           ",
"                                                                                                                                                                                                                                                                                                                . . . . . . . . . . X X . . . . . . . . . . X X + $ 6 0 6 @ X . . . + = 4 c h 2 @ + X X o X X o X X X . . . . . . . . . . . . . . . . . . . . . X . . . . X X X X X X X X X X X X X X X X X X X X o o O O X . . . . . . . . X X o o X # # # + + X X X X X + + + + @ $ $ $ $ $ % $ # + X X X X X X . . . . . . . . . X o # # # # X X X X X X X . X X + - x _ $.' b p 3 - : = - 3 W X.#.#.%.] J a j a _ ) | { :.G b M M M M b b M / / M R W ^ l                                                                                                                                                                                                                                                                           ",
"                                                                                                                                                                                                                                                                                                                . . . . . . . . . . . . . . . . . . . . X X X X + $ 5 0 e ; + . . . + @ < z k 2 ; + X X o O X O X X . . . . . . . . . . . . . . . . . . . . . . X X . . . X X X X X X X X X X X X X X X X o o o X X o O O X . . . . . . . X X X X X X X + X X X X X X X + + @ @ @ @ ; ; ; ; ; > $ # + X X X X X . . . . . . . . . . X o & & & # X X X X X X X . X X + : N _ $.*.N p 3 < : = - 3 B ) | | { / B a p b B M &.| X.G n M B M m m m R M M _ _ ^ E                                                                                                                                                                                                                                                                             ",
"                                                                                                                                                                                                                                                                                                                  . . . . . . . . . X . . . . . . . . . X X . X # $ 5 e r 5 # . . X + @ - C ! c : @ + + o X X O X X X . . . . . . . . . . . . . . . . . . . . . . X . . . X X X X X X X X X X X X X X X X X X X X X O O O X . . . . . . X X X X X X X # + + + + X X X + + @ $ ; ; = = = ; ; 7 > $ # + + X X X X . . . . . . . . . . X o & & # # X X X X X X X X . . + : N _ $.*.m 3 3 2 8 = - 3 M X.#.#.( M n j j a b [ ( | o.n n M M m m m m / M M ` W ~ w                                                                                                                                                                                                                                                                             ",
"                                                                                                                                                                                                                                                                                                                  . . . . . . . . X . . . . . . . . . . X X X X # $ 6 e C 0 > X . X + @ : C ! ! : @ + + # X X O X X . . . . . . . . . . . . . . . . . . . . . . X . . . . X X X X X X X X X X X X X X X X X X X X X X X X X X . . . . X X X X X X X # + + + + + X X + + @ ; ; 7 : = = = ; : : : > $ + + + X X . . . . . . . . . . . X X # # # # X X X X X X X X X X + 2 m -.>.*.j 3 3 2 8 = - 3 B $.u.#.| G M j a b b / | #.X.G n B B M R R M / / / ` W E e                                                                                                                                                                                                                                                                             ",
"                                                                                                                                                                                                                                                                                                                    . . . . . . X X . . . . . . . . . . X . . . X @ , 0 w 0 > X X . X @ : 4 h 9 : @ + + + X X O . . . . . . . . . . . . . . . . . . . . . . . . X X . . . . X X X X X X X X o o X X X X X X X X X X X X X X X . . . X X X X X X X X + + + X X X # # + @ @ ; 7 5 : - = = : : : ; ; $ + + # X X . . . . . . . . . . X X X X X + + X X X X X X X X . + + - j *.>.] m 3 3 2 8 = = 3 W X.u.p.o./ M a j p n G %.{ o.G d n B W W R M R G G _ W c                                                                                                                                                                                                                                                                               ",
"                                                                                                                                                                                                                                                                                                                    . . . . . . X X X X . . . . . . . . . . X X X + 7 0 r 5 > + X X X + , 4 3 9 w ; @ + X X X O . . . . . . . . . . . O o O . . . . . . . . . . . . . . . . X X X X X X X X X X # X X X X X X X X X X X X X X X . . X X X X X X # + + + + + + + @ + @ @ @ = , 0 2 - = 2 8 8 8 : ; @ + + X X X X . . . . . . . . X X X X X X X X X X X X X o o X o X X - j ` $.] m 1 < 8 e = - 3 W ) #.#.( M B b p p M / #.| X.G b M W m R m R M G / =.E 8                                                                                                                                                                                                                                                                               ",
"                                                                                                                                                                                                                                                                                                                      . . . . . O O O X . . . . . . . . . . . X X + : 8 0 8 ; $ X X X + = 2 8 9 8 : @ + + # o . . . . . . X . . . . . X O o O . . . . . . . . . . . . . . . X X X X X X X X X X X X X X # X X X X X X X X X X X . . X . X X + + + + + + + + + + & @ @ @ ; : 2 2 2 2 2 h 9 8 2 : : @ @ + + X X . . . . . . . . . o X X X X X X X X X X X X X X X . X + - j / $.] m 3 < q e : - 3 _ X.#.p.( G b a a j n ] | #.) G b b m m Q Q R b M / W v                                                                                                                                                                                                                                                                                 ",
"                                                                                                                                                                                                                                                                                                                      . . . . . O O O O . . . . . . . . . . . . X @ ; : 2 8 ; @ X X X X @ : 8 9 8 : = @ + # o . . . . . X . . . . X . X X O O X . . . . . . . . . . . . . . X X X X X X . . X X X X X X # + X X X X X X X X X X . X . . X X # + + + @ + @ + + + + + @ @ - 0 w q 2 h ~ ,.,.~ 9 : : $ @ @ + + o . . . . . . . . X & # # + X X X X X X X X X X X X . X + - a G ] ] m 3 1 z w : - 3 B ) #.p.X.G b p a j M ] | #.{ G b b W R _ Q R m G W ~ c                                                                                                                                                                                                                                                                                 ",
"                                                                                                                                                                                                                                                                                                                        . . . . O O O O . . . . . . . . . . . . X @ @ : : 2 ; @ + X X X + : q 9 w : = @ + X X X . . . X o . . . X X X X X O X X . . . . . . . . . . . . . . X . X X X X . . X X X X X X + X X X X X X X X X X X X X . X X + + + @ @ @ @ @ + + + @ @ = = - 4 q h 9 h ^ ,.,.^ h 8 : @ @ + + # o X . . . . . . . X * % % # # + X X X X X X X X X X X X + - j ` $.' b 3 3 c w : - 3 M ( #.#.x.G M p j a M ) &.#.X.G b M _ _ _ R M M R Q E w                                                                                                                                                                                                                                                                                 ",
"                                                                                                                                                                                                                                                                                                                        . . . . O O O X . . . . . . . . . . . . X + @ : : e : @ + X X X + ; e 9 c : = @ + X . . . . . . X . o O X X X X X O O X . . . . . . . . . . . . . . . . X X X . . X X X X X o X # + X X X X X X X o X X X X X X X + + + @ @ @ @ @ + + + @ ; = - 4 9 3 3 h h ;.,.;.~ 9 2 : @ + + + # o X . . . . . . X o # $ $ $ # + X X X o o o X X X X . X + - b *.>.] b 3 3 c w : - 3 B ) &.p.x./ b p j j G X.p.#.| G M M R _ _ _ M m Q E Y                                                                                                                                                                                                                                                                                   ",
"                                                                                                                                                                                                                                                                                                                          . . . O O X X . . . . . . . . . X . . X + @ : 8 w 8 ; + X . X + = 8 9 8 : ; @ + + o . . . . . . . o o X X X X o o o O . . . . . . . . . . . . . . . . . X X . . X X X X X # # # # # X X X X X X X X X X X X X + + + @ $ % $ $ @ @ @ @ @ @ = 2 C c 3 3 3 3 N E v h 9 e : @ @ @ + + o X . . . . . . O o # # # + + + o X X X o o X X X X . X + - j ` X./ j 3 3 z w : - 1 M $.#.S.%.` b j j b G :.&.p.) M b M _ *.` / M m W Y c                                                                                                                                                                                                                                                                                   ",
"                                                                                                                                                                                                                                                                                                                          . . . X X X X . . . . . . . . X X X X X + $ ; 8 w 0 5 + X . . + @ : 9 8 : ; @ + # o . . . . . . . . . X X X X X o o o . . . . . . . . . . . . . . . . . . . . X X X X X X # # # # # # X X X X X o o X X X X X + + + @ $ > > ; @ @ @ @ = ; : e ! h 3 p p p j N v 9 9 2 = @ @ $ + # o X . . . . . . O o $ $ # + + + # # # # # # o X X X . X @ - a G ` M b 1 1 z w : = < M X.#.B.%./ b m V m G :.#.p.( n b R _ *./ G M M E k                                                                                                                                                                                                                                                                                     ",
"                                                                                                                                                                                                                                                                                                                            . . . X X X . . . . . . . . X X X X X + $ ; e e w 5 @ # . . X + - q c 2 = @ @ X X o . . . . . o o O X X X X X X O O . . . . . . . . . . X X . . . X . . . X X X X X X X X # # # # # X X X X X # # # X X X + + + + @ $ > , ; @ @ @ = @ - 2 w v h h W W b p p h 3 h 4 = @ @ $ # # # O . . . . . . O o # # # + + + + + + # & # # X X X . X @ - j _ ] M N 3 3 z w : - 1 M X.p.#.:.n b b N m _ X.p.#.) b M M M _ G G b j E k                                                                                                                                                                                                                                                                                     ",
"                                                                                                                                                                                                                                                                                                                              . . . . . . . . . . . . . . X X . . X $ ; : 8 e e ; + . . X + ; e q 9 : ; @ + X X . . . . X . . o X X X X X . . . . . . . . . . . . . . . O O X . . . . . X X X X X X X X # $ + + + + + + + + + # X X X + + @ @ ; @ > ; , ; @ = @ = - 3 v Y 3 m W =.M j x x z 9 : = @ + @ @ + X X . . . . . . . X # $ # $ + # + # + # # # # X X X . + = < j _ _ B N 1 3 c 8 = - 1 B o.u.#.{ G M j M M ` x.#.@.M b M =._ M M b b N v e                                                                                                                                                                                                                                                                                     ",
"                                                                                                                                                                                                                                                                                                                              . . . . . . . . . . . . . X O X . . X # ; 5 e w w ; + X . X X $ 8 c 9 2 ; $ + X X . . . . X . . O X X X X X X . . . . . . . . . . . . . . O O X X . . . . X X X X X X X o # + + + + + + + + + $ # X X + + + @ @ = = , ; , = = = = < 2 z z v j W *.*.M a p 3 3 4 , ; @ @ @ $ + X X . . . . . . . X # $ # # # # + # + + # # + X X X . + = 1 b ' _ N x < 3 c e - - 1 _ %.u.u.X.G B m B M ` x.#.| M M b R R _ _ M b l c                                                                                                                                                                                                                                                                                       ",
"                                                                                                                                                                                                                                                                                                                                . . . . . . . . . . . . X O O X X X + $ 5 w w w ; + X . X X @ : w 9 : ; $ + X . . . . . . . . . X X X X X X . . . . . . . . . . . . . . . X X X . . X X . . X X X X X X # + + + $ @ + + @ # $ + X X + + + @ @ = = , ; ; = = = = - 2 z h x j B _ =.M j a p 3 3 : ; @ @ $ # X X . . . . . . . . X # + # # # # # + + + + + + X X X O + = 1 m ' Q m z < 3 c 9 : - 1 J X.#.#.| M b m b b ( %.| | M M R _ / / M b m ~ w                                                                                                                                                                                                                                                                                       ",
"                                                                                                                                                                                                                                                                                                                                . . . . . . . . . . . . . X X . X X X @ : 8 8 8 ; + X . X X @ : 8 8 : ; $ + X . . . . . . . . . X X X X X . . . . . . . . . . . . . . . . . X X X X X X . X X X X X X X + # + + @ @ + @ $ $ + + + + + + + @ @ = = , , : = = = = - < z 3 p j b B _ m x j h 3 2 = @ + + + + X X . . . . . . . X X # + # + & o # + + + + + + X X . . + - p b R R m s < 3 c 9 - - 3 J X.u.p.%.M b M m n ( :.#.| M n M ' ] ] / b m ! e                                                                                                                                                                                                                                                                                       ",
"                                                                                                                                                                                                                                                                                                                                  . . . . . . . . . . . . . . . X X X + = : 2 2 ; @ X . X X @ ; 8 8 2 : > & o X . . . . . . O O X . . X X . . . . . . . . . . . O O X . . . . X X X . . . . . X X X X X X + + + + + @ $ > > $ + + + + + @ @ = ; ; : , : = = = - 2 2 q 3 3 j m =.=.N j h 3 3 2 = @ + + + X X . . . . . . . . X X + + # X # X # X + + + + X X . . . + - s B M m l p 1 3 z 9 - < p _ | u.z.:.M b W M M ( u.#.| M n / ] ] / M m W !                                                                                                                                                                                                                                                                                         ",
"                                                                                                                                                                                                                                                                                                                                  . . . . . . . . . . . X X X X X X X + = : 2 2 : @ X . X X @ = 8 8 5 : > $ + X . . . . . . . O X X . X . . . . . . . . . . . . O . . . . . . X X X . . . . X X X X X X X X + + + + $ > 6 6 > @ + + + + @ @ = = = : , : = = = - 4 3 3 3 3 j N =._ N j h q 4 : = @ # # + X X . . . . . . . . X X + X X X o o # # + X X X X X . . X + - h W _ m j h 3 3 9 8 - < s `  .e.a.o.n b _ B n H o. .{ G M / ] ] / / W E 3                                                                                                                                                                                                                                                                                         ",
"                                                                                                                                                                                                                                                                                                                                    . . . . . . . . . . . . X O X X X + = 0 e 8 : $ X . X X + @ ; : : ; ; @ + X X . . . X . . X X . . X . . . . . . . . . . . . . X X . . . . . X . . . . X X X X X X X X X + + @ + @ ; 6 7 > $ + + + + + @ = = : : 0 : - = = - < 3 3 p 1 p j b m j a z 4 2 ; @ # # + X X X . . . . . . . X + # + + X + X # # # + + + X X . . . X + - x W B b j h 3 3 8 2 - < x ` %.p.z.o.n n =.M n H %.#.| ( ` $.X.[ G n m E 8                                                                                                                                                                                                                                                                                         ",
"                                                                                                                                                                                                                                                                                                                                    . . . . . . . . . . . . . X . X X + ; r w 8 5 $ X . X X + @ = ; : ; ; $ @ X X X X X O X X X X . . . . . . . . . . . . . . . X . . . . . . . . . . . X X X X X X X X X + + + $ @ @ ; : : ; = @ @ @ @ @ = ; = : : q 2 - - = - 3 z 3 p 1 1 p p a p u 3 < - ; @ # X X X . . . . . . . . . X $ 7 $ $ + # X # X # # # + + X . . X . + 2 v B m j x h 3 3 3 2 - < x ` %.a.S.%.n n =.M n H o. .{ G G G ( ( [ M m v 8                                                                                                                                                                                                                                                                                         ",
"                                                                                                                                                                                                                                                                                                                                    . . . . . . . . . . . . . X X X X + $ 0 w ! 8 ; # O o X + + @ ; 7 7 > $ + X . o O X o o X X . . . X X X X X . . . . . . . . . . . . . . . . X X X X X X X X X X X X X + + @ $ ; = : ; = : = @ @ @ > > @ = - 2 4 z 2 - - - 2 4 q 3 3 p u p u p p 1 q 2 7 ; + X X . . . . . . . . . . X # $ ; 7 $ $ $ + + + + # $ # # X X X X X @ 2 V B =.j h 3 3 3 8 < - < x *.x.a.e.{ n b _ n n H u.u.%.G M ( ) ( M _ m h 8                                                                                                                                                                                                                                                                                         ",
"                                                                                                                                                                                                                                                                                                                                      . . . . . . . . . . . X X X . X + ; 6 w c 0 ; + X O . + + @ ; ; > > ; @ + X o o X o o X X X . . X X X X X X . . . . . . . . . . . . . . . X X X X X X X X X X X + + + + @ ; ; ; : : : 2 - = = @ ; ; = : 2 8 9 z 3 - < - 2 z p 3 1 p p a u a p 3 q : : @ + X X X . . . . . . . . X X $ > ; 7 > > $ $ # $ $ % $ & # # o O O X @ 3 x M B j h 3 3 3 4 - - 3 Z *.u.a.e.%.n M J b n ( %.u.{ G G / ) [ M W l 3 2                                                                                                                                                                                                                                                                                         ",
"                                                                                                                                                                                                                                                                                                                                      . . . . . . . . . . X X X X X X X $ 5 e w w ; + X O . X + + $ ; ; > > @ + X o o o o o X o X X X X X X X X X . . . . . . . . . X O X X . . X X X X X X X X X X X + + + + @ ; ; ; 2 4 2 2 - = = = @ = ; : 2 3 h h 3 < < - 2 3 z z p p p N N V a p q : ; @ + X X . . X . . . . . . X + $ ; ; ; ; ; + $ + + + % $ $ $ # X X X X @ 3 a b b p p 3 2 3 q 2 - 3 N ` o.e.e.| n M B n b ( o.a.| G n / ] ] / W l 3 8                                                                                                                                                                                                                                                                                         ",
"                                                                                                                                                                                                                                                                                                                                        . . . . . . . . . X X X o X . X @ : 0 w w ; # X X X X X + $ $ ; ; ; @ + X X O O o o o o X X X X X X X X X X . . . . . . . . . O O X X X X X X X X X X X X X X + + + @ @ ; : : 2 2 2 9 2 : - = = = = - 2 9 h x 3 < < < 2 q p p p N ~ =.~ Z x 3 4 , @ + X X X . . X X . . . . . X + > 5 : : : : @ ; $ $ @ $ @ + + + X X X X @ 3 a n d a p 3 3 q w 2 - < j ( u.a.S.{ G n ' b n X.x.u.( G G / ' _ M b p 2 :                                                                                                                                                                                                                                                                                         ",
"                                                                                                                                                                                                                                                                                                                                        . . . . . . . . . . X X X . . X + ; 0 e w : + X . . X X + + $ ; ; = @ $ X X . . X X X X X X X X X X X X X X X X . . . . . . . X X o o X X X X X X X + X X X + + + + @ @ = : : 2 2 9 c z 4 : = = = = - 3 x N N p 1 < < 3 3 3 1 p Z =.;.~ x p 3 < = + + X X X . X . X . . . . X X + ; : : : : : @ = @ @ @ > $ @ @ # X X X + = h b B a a p h 9 q q - - 3 b ( x.a.D.{ M n _ M n G %.u. .M b M / M m j p 3 2                                                                                                                                                                                                                                                                                         ",
"                                                                                                                                                                                                                                                                                                                                          . . . . . . . . . X X . . . X + ; : 8 e ; + # . X X X X + @ $ = = ; $ + X . . . X X X X . . X X X X X o o o O . . . . . . . . X X o o X o # X + + + + + X + + + @ @ @ = : 2 2 3 h ~ Z z 2 = = = = 2 z x N N j 3 < 3 q 3 p p p N N B V x 3 1 - = + X X X X X X . . . . . . X X + ; 5 8 8 8 : : = = ; ; ; ; $ $ # # X X + - h B B a p 3 3 3 8 0 - = < x G { t.p.| n G _ b n ( x. .( n J M R M b a p 9 w                                                                                                                                                                                                                                                                                         ",
"                                                                                                                                                                                                                                                                                                                                          . O . . . . . . . . . . X X X + @ : 8 8 ; + # . X X X X X + $ ; ; ; > + X . . . X X X X . X X X X X X o # & o X . . . . . . . X X X X X # & + + + + + + + + + + @ @ = = 2 4 3 3 h N x q 2 - = = = 2 h x N m j p 1 z z z p 1 p N b b p a 3 < - = + + X X X X X X X . . . . X X + ; 5 8 2 2 2 e = ; ; @ ; 7 > $ # # o X + , p _ B a p 3 3 2 8 q : - < j G { e.e.%.G ] =.M b H %.&.| M B M m b j p p h w                                                                                                                                                                                                                                                                                         ",
"                                                                                                                                                                                                                                                                                                                                          . o O . . . . . . . . X X X X X + : 8 8 : $ $ X X . X X X + $ ; : ; > + . . X . X o X X X X X X X X X # # & & o . . . . . . . . X X X o # & # + + @ + + + + + + @ = = = 4 3 9 p h j 1 3 2 - = = = < 3 N W B m p 3 s q p p p p j u p p p 3 < = @ + # X X X X X X X O . . . X X + ; 0 e 9 9 c ~ 8 e 5 ; : 6 6 > $ # # X @ 4 j =.J b a p 3 3 8 4 - - 3 m / { #.p.{ G / _ b b ) o.%.H M M _ B b b p h h z 0                                                                                                                                                                                                                                                                                       ",
"                                                                                                                                                                                                                                                                                                                                            . . . . . . . . X X X X X X + @ ; 5 8 8 ; + X X O . X X + @ = : ; = $ X . X X o # # X X o o X X X # # # + # X X . . . . . . . . . . X # # $ $ @ + + + + + @ @ $ = = : < 3 3 j p a p p 3 - = = = - 3 Z ;.=.B a 1 1 1 p p 1 1 p x x 3 3 : = @ + + X X X X X X X X X . . . . X + ; 0 2 9 Y 2.2.^ Y e e 5 0 6 7 % @ $ + @ 2 x B J n j p p 3 8 8 - - 3 j [ {  . .| G X.` n n { o.x.( M M ' M b j j h h c 3 8                                                                                                                                                                                                                                                                                     ",
"                                                                                                                                                                                                                                                                                                                                            . . X X X X . . . X O X X X X + ; 6 e 0 5 @ + X X . . X + @ = ; = = > + X X o & # # + o # # X X + # $ $ # $ + X . . . . . . . . . . X X + # $ $ $ + + + + & @ $ = = 2 2 3 h N N V j p 3 - = ; = - < x =._ N a 1 u u p s p u p h z 9 4 : @ @ @ + + X X X X X X X X X . . X X + ; 0 q k l ;.^ ^ Y 9 8 : 6 > > $ @ @ + @ 2 j M B n j p p p 9 4 - - 3 j [ x.e.p.D ( ` G n D { o.:.( / R ] R b j a h h l k 9 2                                                                                                                                                                                                                                                                                   ",
"                                                                                                                                                                                                                                                                                                                                            . . O O O O X . . . O X X X X + ; 6 8 8 5 $ + X X . . X + @ = ; : ; > + X X o # # # # + + X X X + # + $ $ $ + X X . . . . . . . . . X X X + $ % $ @ + # + @ @ @ = = - < z p x b b b j 3 - = = ; : < u x b j j p s s s s p p p 3 3 q 2 ; @ + + + + X X X X X X X X . . . . X + ; : 8 9 9 ~ l Y k 9 : = : = @ $ @ + + = 2 x B B B x p p h 8 2 - - 3 m [ u.S.{ ( G $./ b n ..%.o.G / / ' M j a a h j l v 9 8 , ;                                                                                                                                                                                                                                                                               ",
"                                                                                                                                                                                                                                                                                                                                              . O O O O X X . . X O X X X + $ 6 5 6 ; $ + X X . . X + + @ ; : , > @ X X X o # # # # + X X X + + @ $ $ $ + + X . . . . . . . . . X X X X # $ $ + # # + @ @ @ = - - 3 C j b b n b j 3 - = = - 2 3 1 p p p h h x A x s p p 3 3 2 4 : ; @ + + + X X X X X X X X . . . . X X + @ = : 2 2 k 3 9 2 8 2 = ; = @ @ $ # + ; 9 N B B B x p p h 8 : - - 3 N ] %.u.#.( G ] *.b n X.x.X.G / _ _ M j a a j x l v h 9 q : :                                                                                                                                                                                                                                                                             ",
"                                                                                                                                                                                                                                                                                                                                              . O O O O X X X . . X X X X + @ 7 6 6 5 $ + X . . . X X + @ ; 7 7 7 $ + X X + & $ $ # # + + + + + + $ $ $ + + X . . . . . . . . . . X X X # + + + # # + @ @ = = - < 3 s p a b n b a 1 < - = : 4 q p p u 1 3 p z A x s 3 3 3 < < 2 : ; @ @ + + X X X X X X X X X . . . X X + @ : 2 2 - 2 2 < < 2 8 2 2 7 ; $ $ + + ; q N b V b j p h h 8 : - - 3 N X. .p.%.X.G ] _ b n X.x.{ H ( ] / m j a a j l N N l h 9 e 8 : 5                                                                                                                                                                                                                                                                         ",
"                                                                                                                                                                                                                                                                                                                                              . X O O O X X X X . . X X X X + ; 7 7 > $ + X . . X X X + + = 7 7 7 7 @ X X + # * # $ # + + + + + @ $ $ $ $ + X . . . . . . . . . . . X X X + # + # + + @ @ = = - 3 z x j b B ` ` B p < - = : z z x p 3 1 < 3 s z z 3 3 3 1 < - - ; $ @ @ + + + X X X X X X X X . . . . + $ 8 c 3 C 4 < 2 2 3 9 9 8 8 0 ; @ $ + + - h N m b a a p h v q : = - 3 B )  .u.u.( / / M a n { %.( G G ] _ m a p p j l E m N x h z 8 2 e 8 5 ;                                                                                                                                                                                                                                                                   ",
"                                                                                                                                                                                                                                                                                                                                              . X X X X X X X . . . X X X X + $ ; ; $ $ + X . . X X X + + @ ; : ; 6 , + X + # # # # # # + # # + $ $ 7 7 7 X X . . . . . . . . . . . X X X X # # + + + @ @ = - - < p V j b n ` -.=.j < - = 2 z C x p p 3 1 3 p z q 3 3 < < - - = $ @ + + # + + + X X X X X X X X X . X $ 5 Y ^ k C q 3 3 h h x h h 8 0 ; @ @ + @ : h N B b a a h h v q : - - 3 W X.{ S.{ X.n _ b a M (  .H G G ] R m a p p j j m m m m l l h h k 9 9 8 :                                                                                                                                                                                                                                                                 ",
"                                                                                                                                                                                                                                                                                                                                              O X X X X X X . . . . . X X X + $ 7 7 $ $ + X . . . X X X + @ ; ; = 0 6 @ + # # # + # # # # # % $ $ $ 7 7 t + X . . . . . . . . . . . X . X X o # + + + @ @ = - - 3 p j a n J *.-.B p 1 < - 2 z 3 x 3 p 3 3 3 3 z 3 2 2 < < - = = $ @ @ + @ + + + + + + + X X o X . X X ; ; c 2.^ c z z h N j l p x h w : = $ + $ : h B B b a p x h v e : : - 3 _ X. .u. .G n M m j G )  .H G G -.M j p s a j j j R m B W m l N l k h 9 e 8 :                                                                                                                                                                                                                                                             ",
"                                                                                                                                                                                                                                                                                                                                              . X X X X X X . . . . X O X X # $ $ > $ # X X . . X X X X + @ = ; : : : = + + + # # # # # # # % * % % * * $ # X . . . . . . . . . . . X X X o X X # + + @ @ = - - 3 p j b b b n J b V p 2 - < < q 3 p h z h 3 3 3 z 4 < < - - = @ @ + @ + + + + @ $ + + + X X o o X + + ; 8 Y ;.^ l h j l T Q m j j v ! 2 = = + @ - h B B b a x 3 p 3 e : - - h M { #.e.o.( n b m b / X.| { G G / m j p p p j j m m m B m B b m l T l j k 9 e 0 :                                                                                                                                                                                                                                                         ",
"                                                                                                                                                                                                                                                                                                                                              . X X X . X X X . . . X . X X + $ $ > > $ + X . . X X X X + + @ ; : , 0 ; + X X # # + + X # # $ $ $ $ $ $ # # X . . . . . . . . . X X X X X o o o + + + @ $ = : 2 < 1 p a a a d n a a z 3 2 - < < 3 p h z q 3 3 3 4 4 2 2 2 - = @ @ @ @ + $ + @ @ = @ @ $ + # # X # X @ : 9 l Q Q T j m m R ' M j j E ~ q = @ @ @ < x b B =.a p p 3 3 e : = - p M ( { #.u.X.G R R a M ) | ( ( G G j j p p s j j m m m W B _ M R R R R T N l k 9 8 2 :                                                                                                                                                                                                                                                     ",
"                                                                                                                                                                                                                                                                                                                                            . . . . X . . . X X . X X . X X + + $ $ $ $ + X X . X X X X + + @ = - : 2 - @ + X X X X X X + # + # $ + @ + + + X X . . . . . . . X X X X X X X o X # # + @ $ = = - 2 3 3 p p a a j j a h < - - < < 3 3 2 4 2 < < < < 2 2 2 : = = @ + @ @ @ @ @ 5 r 5 ; @ @ # & # X X + ; : 3 E ' M m j m R / ) [ m j ~ ~ c - + @ = 2 j M ` B i p h 3 3 w : = - p M | e.p.x.-.G M m a / | #.{ X.G m j j h p p h j m m m W _ _ M / / R / R R E l l c 9 4 2 :                                                                                                                                                                                                                                                 ",
"                                                                                                                                                                                                                                                                                                                                        . . . . . X X . X X X X . X X X X X X + # $ $ # + X X . X X . X X + @ = - - 2 : = @ X . X X + + + + + + @ @ @ $ @ + X X X X X X X X X X X X X X X X X X # # # @ @ @ = = - < < 3 p j x V x x 3 2 - - < 4 2 < - - - - - - - - 2 2 : = = @ + @ @ @ @ 0 r <.! , = @ $ # # X + + ; 0 z N W / b j R ) ) ] ) M j ~ ~ c - @ @ = 3 j G ` n b j 3 3 9 w 8 - - p M | p.a.z.:.` / M b _ $.%.o.X.M b j h h p h h h l m m M M M M / [ / ] / R Q W N E l h 9 2 : :                                                                                                                                                                                                                                             ",
"                                                                                                                                                                                                                                                                                                                                  . . . . . . . . . . . . . . X . X X X X X + # $ $ $ # + X X X X X . X X X @ ; 2 3 q 4 = + X X X + + # + + + @ @ @ ; ; ; $ + + X X X X X o X X # X X X X X X X X X + + @ @ = : - - < < 3 p z x h z 8 0 : : : 2 4 : = = = - - - - - 2 2 , ; @ @ @ + @ ; ; <.! ~ <.0 = @ $ # X X + @ = 0 z j W R M [ >.S.>.$.) m j N Z q - = @ : 3 _ ` -.` B p 3 3 8 w 0 - 2 j / | t.a.S.:.` / M b G %.&.:.[ M j h h h z z x l E j j b M M _ / ) ) ] ] [ ] [ R M m j j h 9 2 2 :                                                                                                                                                                                                                                         ",
"                                                                                                                                                                                                                                                                                                                              . . . . . X X X . . . . . . . . X X X X X X X + # $ $ $ $ + X X X X X . . X X @ ; 2 2 q 2 = + + X + @ $ > $ $ $ @ = = ; 5 6 7 $ + X X X X X # # + o X X X X X X o X X X + @ $ ; ; : 2 2 < 3 3 q s 3 3 q : 5 ; : - : - = = = = - - - - : : : ; @ @ @ @ @ ; ; <.! <.! 8 = ; $ + X X X > ; 2 h j W M M X.x.OXS.] / j j h z 2 = = @ : 3 W :.M.*.d u 3 3 9 e 2 = < p M | p.S.z.-.H M b n G %.&.:.G b a h j h z z z l l j j b B B _ / [ [ ) ) ] $.] / R R m m l h 9 8 : : =                                                                                                                                                                                                                                     ",
"                                                                                                                                                                                                                                                                                                                          . . . X X X X X X X X . . . . . . . X X X X X X X X # $ $ $ $ + X X X X X X X X X @ ; : 3 z q ; @ + X + $ 7 7 7 > ; ; = ; : 8 r r 5 @ + X X X + + + + + + X X X X X X o X X # + @ @ = = = - - < 4 q z 3 2 8 ; : = ; = = = @ @ = = = - 2 2 2 2 : ; @ @ + @ @ ; = c c ! c 2 : ; $ X X X X @ @ 0 c h m R M ) ] >.>./ m j a 3 2 - = @ @ : 3 M x.x.G i p p 3 9 e : = < p M | e.p.u.X.G M n n ` %.&.X.M j p h h h h z z h j l m b M M R M / ( ( ) | ) ) ) [ / R M m v l h 8 8 : ; ;                                                                                                                                                                                                                                 ",
"                                                                                                                                                                                                                                                                                                                      . . . . . O O X X X X X X . . . . . . . X X X X X X X X + # + # $ + X X X . . X O X X @ = : z ~ ! 0 @ X X X @ 7 6 6 5 : ; ; : 8 w ! ! r ; + X X + # $ & & & + # # # X X X X X X X + + @ @ = = = = - - - 2 : 2 : : = ; @ @ = $ $ > > ; : : 4 8 0 0 , ; = @ @ ; @ ; : - 3 2 2 : : ; + X X X X @ , 2 8 h h j M / M M / M b h p 3 - - = @ = - p _ X.G J a p 3 h c q 2 = 2 a G | e.e. .H n n n b ` %.&.( M j p h h 3 h z z l l j l j m b M R _ X.X.$.| [ ) | ) [ [ / R m N v c c 8 8 5 : ;                                                                                                                                                                                                                             ",
"                                                                                                                                                                                                                                                                                                                  . . . . . . X . O O O X X X X . . X X . . . . X X X . . X X X + # $ % & # X . . . . X X X + = - w z C 0 @ + X X + 7 0 w 0 ; : ; : 8 8 9 k e = @ # X + + $ + % & & + # # + + + + X X X X + + @ $ @ @ = = = = ; = ; ; = = @ @ @ @ @ @ $ ; : 0 q 2 8 0 , , = @ = = ; : : - : 2 2 2 : ; $ + + X + + @ @ : q 3 < 3 9 h R b M / M p h 2 : : = = - 3 d K -._ j j h h h v 9 - - < p M ( {  .%.) n n M n X.%. .X.M 3 h 3 9 3 h x x j j j j x x m M M G ) ) ) $.| @.| #.| @.) [ / W W m l h k 9 2 : ; >                                                                                                                                                                                                                         ",
"                                                                                                                                                                                                                                                                                                              . . . . . X X X X O O O X . . X O . . . X . . X O X X X X X X X X # # $ % & # X . . . . X X + + = : q 3 q 4 : + X X + : 8 9 9 : : : : 2 9 9 h 9 : $ + + $ + + > + & & + # + + + + + + X X O O X X + + + @ @ @ $ > @ $ = @ @ @ @ + + + + $ ; : 2 2 : 2 : : = = = : : : : : : : , - : ; ; $ + + + @ + @ : - < h 3 < < 3 j M [ >./ j 9 2 2 : = = 4 x n G G _ a p 3 x j v z - - < p M { |  .( G G B b M %.u.{ [ M 3 2 2 q 9 h j j j m j x v x m M M M M / ) [ ) @.&.| | | ) ( [ / _ M M m N j h 9 : 5 ;                                                                                                                                                                                                                       ",
"                                                                                                                                                                                                                                                                                                            . . . . X X X X X X O O . . . . X X . . . . . . O O X O O O X X X X + + $ % & # X . . . . X X X + @ : q z 3 4 2 @ + X + ; : 2 e 8 = : : 8 9 h h 9 2 ; > @ @ @ $ @ @ + @ + + + + + + + + + X X X X X + + + + @ @ @ & @ @ @ @ @ @ @ + + + + @ $ = = = = = = = = = : , : : : : : : - - - = ; @ + # # @ @ @ - ! h h l 1 p h b / :.oXx.] h 9 0 : = - 3 N J ` -.M b p h h h v z 2 - < j M (  .u.u...n b n ] %.%.%.] b 3 2 2 8 9 h h h N j x l l x m m M M M R ) / ) | #.| | | ) [ ) / _ / R M m l j k 8 e : ; ;                                                                                                                                                                                                                   ",
"                                                                                                                                                                                                                                                                                                        . . . . X X X X X X X X O O . . . X X . X X . . . . . O X O O O X X X X + + $ % & # X X O . . X X X + + = 2 3 3 z 2 : + + + ; : : 8 2 = : 2 8 z c h 2 8 : ; ; = + : @ ; @ @ + + @ + # + & @ + # + + + + + + + + + + # + $ = = @ @ @ @ + + + + @ @ @ = = = = = = = : 4 : 4 2 < - : : : - - ; = @ + # + + @ = < 3 Q >.W j j j G ( S.D.D.$.j 3 4 2 - - h N G ( -.n b 1 3 1 j x z 4 - < x / %.u.p.%.( n b _ X.| | %.` a 1 2 2 c 3 3 v l j m l l l l m m M M M M / [ ) [ | | @.| ) ) ) [ / / _ R R R E Y k c e 8 : ; ;                                                                                                                                                                                                               ",
"                                                                                                                                                                                                                                                                                                    . . . . . . X X X X X X X X O X X X X . . . . . . . . . . . X X O O X . X X X + # & # # X X . . . X X X X + ; : < 3 v h 9 @ + + > 5 8 e 8 : 0 0 2 9 c 9 8 w : 2 = = : q c E 9 8 = @ @ @ + + & & + + + + + + + + + + + + o + ; = = = @ @ @ + + + + + @ $ @ = = @ = : 2 8 4 < 4 4 4 2 2 - - - - = ; @ + X + + + 0 < j PX+X>.M b b .. .C.Z.S.[ j 3 2 - - < x B ( o.( ` j p 1 h j x c 4 - < m _ { u.a. .( G n d [ | %.X.M j 3 2 8 2 3 h h j N j j l l m m m m m M M M / [ ) | &.@.@.| | ) [ [ / / / / R R R l v l k e 8 : ; $                                                                                                                                                                                                           ",
"                                                                                                                                                                                                                                                                                                  . . . . X X X . X X X X X X X X X X X X . . . . . . . . . . . X X O X X . X X X + # $ # # + X . . . X X X X + ; , 2 3 j h h - + X $ 6 e w 0 e q q 4 2 9 2 0 ! c - - , - 3 uX2.^ Y : = & @ + + & & + + + + + + + + @ + + + # + @ = = = @ @ @ + + + + + @ @ @ = = = : 2 8 3 3 < 1 3 3 3 2 2 - - - = ; @ + X + + @ - 9 R S.%XOXn n G  .a.C.Z.C.) M h 2 < - < x _ ( o.{ M u p 1 p x N C 4 - < b ` o.p.p. .( G n B X.| %.%.G p 3 4 - q 3 3 h h h l j l N m m m m m m R M R M ] | | @.%.| @.| ) ) [ / G / R M R m R m l h 9 8 8 : ; $                                                                                                                                                                                                       ",
"                                                                                                                                                                                                                                                                                              . . X X X X X X X X X X O O X X X X X X X . . . . . . X . . . . O X X X X X X X X X + $ $ $ # + X . . X O X X X + + ; 3 3 j W j 2 + X @ ; 0 e 8 0 0 e 2 - 2 2 4 c c 8 - - < p OXOX2.Q 2 = = @ + + + + + + + + @ @ @ @ @ @ @ + + @ @ = - = = @ @ @ @ @ @ @ @ @ = : : 2 4 q 9 3 3 j j j p 3 3 < < - - = = @ + + + + @ r j R +XF.D.H H { e.A.V.V.Z.| / j 3 < < 1 b _ X.z.:.d a p j p x ~ C 2 - < j ` { e.a.p.%.G n / X.| | X.M 1 - 8 : 2 2 9 9 h l j j l N m m m m m m W M M M [ ) ) | &.%.$.| | | ) ) [ [ [ [ / / _ M m m j h 9 8 : : ; ;                                                                                                                                                                                                   ",
"                                                                                                                                                                                                                                                                                            . X X X X X X X X X O o o O X X . . X X X . . . . O O O X . . . . O X X X X X X X X X + $ $ $ # + X . . O O X . X X @ @ 3 h ;.uX' h + + + $ 6 0 : 8 : 2 - = - - - e 8 2 4 < < z ~ 2.2.Q < - - @ @ + + + + + + @ $ ; = = - = = @ @ @ = : , , - = = = = = = = = - - 4 q c C z z p j R ] Q b h 3 < < - - = @ @ + + X + = 2 3 @.G.[.C.L { } Z.K.{.I.[.| R h 3 < < 1 N ] X.x.{ d a p p h j ~ C 2 - < j ]  .p.e.{ { ( G _ ) X.o.) M p 2 2 : 8 2 2 h c v l j l m m b b m m m m M m R M [ ) ) %.%.@.| ) | ) ) ( [ [ / [ / [ / / M m j h 9 8 8 : : ;                                                                                                                                                                                                 ",
"                                                                                                                                                                                                                                                                                        X X X X X X X X O O X X O X X X X X X X . . . . X . . . . X X . . . . O X X O X X . X X X + + $ % % + X . . . X O O X X + @ 4 h m OXOXh @ + + + $ ; ; : : = = - = : 4 2 2 3 - < < 3 l m Q Q p - 4 = = @ + # X + + @ @ ; 8 8 3 < - - - - < - 2 4 2 - - - - - - - 3 < z C h v s u V a a ) $.) b p 1 4 < < - = > @ + + + @ = 4 m @.[.B.r.}  .e. X`.`.A.Z.&.R h 3 - < u b / { x.X.b a x x p x ~ C < - 2 j /  . .e. .{ ) M ` ) ( x.` j p 2 0 2 : 2 2 2 9 h l l l m l W T R m m m m b R / / ) | | @.&.%.#.| | ( ( X./ [ G ) [ M / M M m N h 9 9 8 2 : ; $                                                                                                                                                                                             ",
"                                                                                                                                                                                                                                                                                      . X X X X X X X X O O X X X X X X X X X . . . . . X X . . . X X . . . . X X X O X X X X X X # # & % % $ X . . X X O O . X X + : 3 x ,.OXl @ + + + @ @ = = - : : 2 2 2 2 3 3 3 2 2 4 3 h T m Q j E z - : @ + + + + & @ @ : 8 v v l p x 3 < 1 < 2 q 2 - - < < < 3 v v p v Z N x p u i X.S.+XS.( d u s 4 4 2 : = > @ + + + @ , z ' S.B.$XD.8. .a.[.V.lXA.#.) m 3 < - < u d G H x.o.b a p p Z j N z < - 3 b / | u.C.p. .) G ` X.{ x.` a p : 8 2 : : 2 2 2 9 l j N N m m m l l W m m m M R / [ ) ) | $.#.| | | ) ) / [ [ ) ( / X.[ G R M N l v k k 9 e 8 5 ; $                                                                                                                                                                                         ",
"                                                                                                                                                                                                                                                                                  . . . X X X X X X X X X o o X X X X X X X . . O O X X X X . . . X X . . . . . X X X X X X X X X # + $ % % $ X X . X X X O . . X @ : 3 j =.;.l = @ @ + + @ = = 8 2 8 - <.l l j j 3 3 < < 3 3 j j j W ,.~ c 3 - @ @ + + @ @ @ - 2 v =.,.=.=.b u u 1 3 s 3 < < < 3 l B ,.W m N j u u u d _ +X%X+XD.( i u u 4 3 3 2 : ; @ + + + @ , z W :.#.[.+X .p.t.[.eXA.C.#.M T h 2 < 1 s b H { o.( n a u s x x Z z < - 3 j / %. .e.a.u.n n ` X.X.-./ b p 2 : 2 : - : 2 2 9 h h N m m l N l m W m m m b M / G [ ) | @.| |  .{ @.) ( / ) ) ) / X.[ / _ _ M m N N l k h e 8 : ; $ $                                                                                                                                                                                     ",
"                                                                                                                                                                                                                                                                                . . X X . X X X o o X X X X X X X X X X X X . . O O . . X . . . . X X X . . . . X X X X X X X X X + + # $ % $ + X . X X X X . . . + = 2 p j M h - @ @ @ & @ = : 9 k 9 l Q T m ' ' m j 3 3 3 3 p p j m ;.,.N ~ 2 : ; @ @ @ @ @ = - 9 E ,.,.;.n V a a x x 3 < 1 1 p W =.,._ M b u p a u u G S.S.S.%.n i s s s p 3 4 : ; @ + + + @ 4 C m n | e.oX . .a.A.I.A.t.( R N 9 2 < 1 s n H o...G n a p x p x N z < - 3 b ` %.u.y.e.#.G G ` X.X.X.G b h 2 8 8 : : : : 8 9 h h N m m m m N E N m m m b m R R / ) X.$.#.#.#.#.| | | ( | ( | ) ( [ ] / _ / _ m m m l j h 9 8 : : 5 >                                                                                                                                                                                   ",
"                                                                                                                                                                                                                                                                            . . X X X X X X X X # o X X X X X X X X X X X X X . X X . . . . . . . O X . . . . . X X X X X X X X X + + $ % $ $ + X . X X X X . . . + @ 2 3 j m l 2 = @ $ % $ = 2 h j l ^ R m m ) | $._ j 1 < 3 < s 1 x N ~ ~ x z 3 2 : : ; = = = - < p W _ _ B J n B B V p 1 1 1 a B B =.J a p p u u a b ] %.| ( n i i V s j h 3 3 - = @ + + @ = 4 ~ B b M x.%. .| | a. .S.e.%.b h 2 < < 1 b D H H :.K n b h h v p l h - - 3 m ] { z.S.S.| G G ` :.:.o.G j p 2 8 8 : : : : 2 8 h v N m j N l l l m M m m M M M / / [ X.$.@.#.&.&.| #.| @.[ ) [ ) ) ) ) G [ [ ] [ R R m m l h h 9 8 8 8 : ;                                                                                                                                                                               ",
"                                                                                                                                                                                                                                                                          . . . . X X X X X X X # o X X X X X X X X X X X X X . . . . . . . . . O O . . . . . . X X X o X . X X X + + @ $ $ $ + X X X X X . . . X + @ : q h N E h - @ $ % $ = 2 l 3 W ;.>.R | t.y.D.x.*.j 1 3 1 3 x 1 j b j j x p 3 3 4 : - - = - - < p j b M M B J =.=.a u u u b _ J b b u u s x < b _ ] ] ` b i g V V b j j p 3 : ; @ @ @ + = 4 C N B b X.) ( ( |  . . .%.$.b p < < < a M D F D ..K B j h x x p j 9 - - 2 j _ X.u.e.a.{ G n ] X.:...n a 3 2 0 2 : : - - : 4 9 v l m j N j x l m W M m R M m / / / ) | | #.%.&.u.#.| @.) ) [ ) X.) ( ( ) [ [ ) [ / Q R m m l l h 9 8 8 5 ; ;                                                                                                                                                                           ",
"                                                                                                                                                                                                                                                                      . . . . . . X X X X X X X X o X X o o X X X X X X X X X X . . . . . . . . O X . . . . . . X X X o X . X X X + + @ $ > $ # X O X X X . . . . X + = < 3 x j l 2 = @ $ ; : h h j R OX$.) #.+XI.D.S.>.B 1 < < 3 s a a a b a N a p 3 3 2 2 2 - - - < 3 p j j b n K -.=.V i i u B ` *.b a p p u p 1 N Q M a i u i V B B M b b h q : ; = @ @ + @ : z 3 N b b / G ( G H H { X.>.j 1 - - < j G K F H D D n p p N h j l h - - < j / X.x.a. .( ( / ( ) X.( b a 3 2 0 2 2 : = = = : 3 h j j j m j x v m M R M M M M M M / [ ) | #.&.#.p.e.#.@.@.| @.| | | | X.| ) ( [ [ [ / / M M M N x h z q e 5 : ; >                                                                                                                                                                       ",
"                                                                                                                                                                                                                                                                    . . . . . . . . X X X X X o X X X X o o o X X X X X X X X X . . . . . . . . O X . . . . . . . X X o X X X X X X + $ > 7 7 $ o O X X X . . . . X + ; : 3 h p x 3 - @ @ , q v E m m 1.>.@.#.+X$XA.a.:.=.s - < 1 3 x a b a b b a u u p 3 9 3 - - - - 3 1 p p b d D ..` B d i u B M -._ a p 1 u 1 p j j m j u u u V ` ] ] / b p 3 - = = @ @ @ = - z p u u G G | #.| ( H K ` -.B 1 - < 1 M X.o.0.L K n i p 3 x l E E h - = < j _ {  .S.e.{ G G X.X.o./ b p 3 8 8 8 8 : ; = = : 2 9 h j m j j h v b b R W m m M M R G [ ) | #.u.e.e.t.#.p.| @.| &.$.&.| { ( | | ) [ [ [ / / M M B m x x c c e 8 5 ; > $                                                                                                                                                                   ",
"                                                                                                                                                                                                                                                                . . . . . . X X X X X X X X X o X X X X X X X X X X X X . . . X . X . . . . X X . . . . . . . . . X X o X X X X X X + $ > > : ; + X . X X . . X o X X + = 2 p B B v - = @ @ 0 k N m j ' @.#. .h.wXA.t.S.>.h < < < 4 s a b b a a d i u a j b j 1 3 < < < 1 p p a d f H H -.f g i B ` :.) n a u u 1 p x p p 3 u u i J ` %.] ] m h 3 2 - = $ @ @ - q h b i G { B.t.t. . .f n =.>.*.2 - < 1 n u.h.k.i.H d u s 3 j W T E 3 : - < j [ {  .e.u.{ n n ` { ` M p 3 2 3 c 2 : : ; = = : : 3 h h x l x h j m m m Q R / M / G M _ / X.#.#.t.t.a.p.p.#.#.#.p.%.| @.@.&.| | | ) [ [ [ [ / R M M m E N l k k 9 8 8 : ;                                                                                                                                                                 ",
"                                                                                                                                                                                                                                                              . . . . . . X X X X X X X X X X X X X o o o X X X X X X X . . . . . X X . . . X X . . . . . . . . . . X X X X X X X X + + > 7 : ; @ X . . O . X X X . X X = 2 p B ,.=.h = @ = 8 Y l l j m ) ) o.e.Z.Z.A.t.+.' 1 < 4 4 p p a a i a i V u i b _ ,.W x p 1 < 1 p p p i H %.oXO.F f d B ` :...n i a 1 a a p 3 1 1 1 u a B ` $.) _ m x 2 : - @ @ @ @ 2 z =.d G ( +X%XA.B.a.u.n i V N h 3 2 z x G u.g.P.z.H i 1 s 3 j T Q v 2 : : 1 b (  .p.a.o.( G G ( :./ m h 2 2 h 3 2 8 : : = = ; : : 2 9 h x x h j j l m R R / M / M M / G ( ) | #.p.t.e.a. . .{ u.%. .#.#.#.| | | @.+.) [ ) ) / R R M W W N l j h 9 9 2 2 : ;                                                                                                                                                             ",
"                                                                                                                                                                                                                                                          . . . . . . . X X X X X X X o o o X X o X o o o o X X X X . . . . . . X . X X . . X X . . . . . . . . . . X X X X X X X X X + > 7 5 : $ X X . X X X X . . X X @ - p B *.>.h 2 = @ 8 Y Y E 1 b m ] X.u.C.$Xy.#.[ m < 4 4 1 1 p a i d d V u B u i >.,.OX=.b p < < 1 1 p i n D.D.D.D K i d K G D i i A u a V m x 1 < 1 s a B ] ] / m x z 2 - = @ @ @ @ 2 Z Z B D  .ZX$XG.t.a.z.H i d x h 2 - < x ..z.j.j.i.G a 1 s p j T m l 4 : - 1 b )  .e.u.o.( n G ` ..` m h 4 4 3 h e 8 8 : ; = = - : 4 9 h h h 3 p p j B R / / / / G M _ / X.| #.#.#.p.e.t. .u.#.#.#.#. .#.@.#.| @.#.@.@.| { ) ( / / / R R R T l h k h 9 8 8 : ; $                                                                                                                                                         ",
"                                                                                                                                                                                                                                                        . . . . . . . . X o X X X X X X o X X X X X X X o o X X X X . . . . . . . . . . . . X X . . . . . . . . . . X X X X X X X X + + > 7 5 5 $ + X . X . . . . . O X @ - 3 m ] -.' h = - = c Y c 1 p b M _ %.e.$XlXB.@.M 1 s 1 1 p p a V J J d V a b b n >.OX;.N p 1 < < < p d G #.+Xz.{ f g g D D D g i s s b b p p p p 1 u a V _ M b p p 2 2 = @ @ @ @ @ 2 C x B K u.C.B.#.C.t.z.o.B a 3 3 < - 1 V ` 0.9.9.} D a p 3 p j m l h 4 - - < b ]  . .8. .G n G X.( ` m 3 4 2 3 v 9 8 2 : = ; = = : 4 8 9 h 3 2 3 p j B m / / / / _ M G G ] $.%.#.#.t.t.e.#.p.p.#.| #. .#.@.&.#.#.#.#.@.@.| | ) ( ] [ / / R R R m v v h h 9 8 : ; ; $                                                                                                                                                     ",
"                                                                                                                                                                                                                                                    . . X X X X X X X X X o o X # X X X X X X X X X X X o X X X X X X . . . . . X . . . . . . . . . . . . . . . . . . . X X X X X X X + > 5 5 5 > # X . . . . . . . . X + = 2 m / >.] m < = : w w w 3 u a a b [ { $X$X%Xp.` a s 1 p h p a =.-.*.V b V B n b G *.=.N j p 1 < < 1 d D  .u.u.S d i d K -...D d i ,.OX,.W 1 1 1 p p u a b p p 3 4 4 , @ @ @ @ @ = q C Z d ..{  .A.$XD.e.u.o.=.p < 2 : < 1 V K 0.0.} H n a s 1 3 j m m h 2 - - 3 m )  .e.a. .G M / ( X.M l 9 - 4 z 3 z q 2 : = = = = = : 8 8 8 3 2 3 3 h N m Q / ] / ` M / M [ ) { | p.#.e.p.p. .#.#.| #. .#.#.p.&.#.#.#.#.#.#.#.| | | ) ) ) / / / R N l l l k h e e 0 5 7 $                                                                                                                                                 ",
"                                                                                                                                                                                                                                                  . . . X X X X X X X X X o o X # # # X X X X X o X X X X X X X X X . . . . . . X . . . . . . . . . . . . . . . . . . X X X X X X X X + ; 5 5 5 ; # X . . . X . . . . . + = 2 x b ( >.M 3 < = r 0 C < 1 1 a a M o. .Z.C.u.D i a p p p p a Z -.-.B B b J B n n a M j x p 1 < < 1 d -.l.x.{ D d g n :.oXM.o.H n OX>.>.=.a p 1 p p u p p 3 3 2 4 , = @ @ + + @ : C s d n L { y.A.[.D.8.u.o.` u 3 2 : < 1 d L l.i.} D b s s < p N W m l q - < p M X. .a.h. .D G ` ` ( M x 3 - : 3 3 z e 4 : ; = = = = : 2 8 8 4 2 2 3 h l l R / ) [ / / ` G / [ X.%.p.#.p.p.p.#.#.#.| #.#.#.#.&.&.#.#.e.e.#.#.#.#. .{ | { ] / / / R R m N N l k h h e e 5 ; ; $                                                                                                                                             ",
"                                                                                                                                                                                                                                              . . . X X X X X X X X X X X X # X X + X X X X X X X X X X X X X X X X X X . . . . . X . . . . . . . . . . . . . . . . . . X X X X X X X + $ 5 5 5 ; $ + X . . X X . . . . X @ - 3 b ] :.] M < = = 7 : < p b a a b (  .t.e.H f V V j 3 3 p u V J D n n a n n d b u a p h p 1 1 < u s =.-.x.L S g i D x.+X+Xx.{ d *.-.*.b u 1 p z s p s p 3 < < - = @ + @ + @ = 2 C p V f H r.Z.$X[.Z.e.i.0.` a 2 2 - 3 j D F L O.H n a p s 1 x W W j l c 2 - 3 n o.u.a.h.%.D G ` ` M / x 2 : : 2 z 9 8 0 8 : ; = = ; : : : 8 : : : 2 9 h l m Q / / / G [ M G G ) o.| p.p.p.#.p.p.#.#.|  .#.#.#.&.#.#.e.e.e.#.#.#.#.| | | { ) ( [ / / R M R m l j h h 9 8 8 5 ; ;                                                                                                                                           ",
"                                                                                                                                                                                                                                            X . . X X X X X X X X o o X X X # # X X X X X X X X . X X X X X X X X X X X . . . . . . . . . . . . . . . . . . . . . . . . . X X X X X X + $ 5 8 8 ; $ + X . . X X . . . . X + @ 2 j M x.) / 3 - = ; = < ,.>.[ b / :.| G { D G n =.N 3 3 s s s d g d i i i a i u p p 3 p 3 1 3 1 u V g D x...D f i d o.S.z.H H f d i d a a u p 3 3 3 p 1 2 - : - > @ + + + = : < s p d { { r.I.K.I.Z.} } x.>.~ 3 : - 3 b H P L ..D n a 3 p 1 v N j j h q - - p n X.i.D.D. .n G -._ _ M x 2 - , q 3 9 8 e 0 , ; ; ; = ; ; ; : : : : : 3 h l m R / ) ) [ [ M G G / ) | &.#.S. .p.#.#.#.| | | #.| #.#.t.t.t.e.e.e.e.#.#.| | | ) | ) [ [ / R / Q M m m l l c 9 e 8 : ; >                                                                                                                                       ",
"                                                                                                                                                                                                                                        . X X X X X X X X X X X o X X X X X # # # # o X X X X X X X X X X X X X X . . . . . . . . . . . . . . X . . . . . . . . . . . . . X X X X X X + $ ; 6 0 5 ; + X X . . X . . . . X X @ 2 p M ( { ( j 2 @ , - h >.HXiXx.( X.X...o.-.D ` B m h p < s s i d G -.-.B u u 1 1 1 3 3 3 3 u p a V d G { L f g V f K L H S f g g b i u u p s z A z 3 < - 2 - ; ; @ + $ @ = - < p b G { r.$XW.W.{.y.L 8.o.-.N 3 - < N H } L S -.-.d j s 3 z v m m j v z - - p G %.u.+Xa.u.H / ] ` M m h 2 - , 2 q 9 8 8 : : ; @ @ @ = ; : : : : : : 2 9 h l R / ] [ ) ] / / G / [ [ ( &.@.#.&.#.#.| #.| | &.| #.p.#.p.#.#.#.p.#.#.#.| &.%.@.X.( ) [ [ [ [ / ' R M N l l v c c 9 8 : = @                                                                                                                                   ",
"                                                                                                                                                                                                                                      . X X X X o o o o o X o o X X X X + + # # # # X X X X X X X X X X X X X X . . . . . . . . X X . . . . X X . . . . . . . . . . . . X X X X X X X + @ ; 5 8 6 7 + X X . X X X . . O X X @ : z m G x.$.Q - = ; = h R +X+XD.x.:.X.n -.-.-.G b a 3 1 1 u u i J M.>.-.=.B a p 3 < 2 3 3 1 u p a M n (  .oXf f i D K F S g g g d V i u u u 1 s z q 3 - : : = = @ @ $ > @ = 4 s b G H  .[.I.K.V.Z.Z.} H H ` N < - 3 a x.0.6.I D =.b x p 3 h v m m N N q - < j G o.e.D.z. .( G ` G M m 3 2 = : 2 8 9 8 8 : 7 ; ; @ @ @ = ; ; ; ; ; : 2 3 h l R / ] / [ ) / / / / ( / ( | | | &.#.#.&.#.#. .#.{ | | t.#.p.#.S.#.e.e.#.#.&.%.%.$.{ | ( ) ) ) / [ / _ R m m E Y l k 9 e : : ; $                                                                                                                               ",
"                                                                                                                                                                                                                                    X X X X X X X o # # o X o # X X X o # # X X X X X X X X X X X X X X X X X X X . . . . . . . X . . . X X X X . . . . . . . . . . . . X X X X X X X X + $ 5 6 e ; $ X . X X X X . . . X X + = 2 x _ $.$.>.8 = = 2 3 [ | B.e.#.( ` ..f G H G M j p < 1 1 u u b >.-.*.B V p s 3 < 2 3 3 1 1 a d =.( H ZX+Xo.D f f D S f f g V J V i u u 1 1 3 z 3 < - - = = : = @ @ > = - 4 s J G { @X[.W. XW.g.Z.r.H H J p < < u n c.i.l.I K B a a p p v N b b m N q 2 < j G o.u.a.a. ./ / _ M M m 9 2 = : 2 8 2 8 2 : 7 ; @ @ @ @ = ; ; ; ; ; ; : 2 h l m Q ' [ [ / R M G / / / [ ) ) | &.#.#.&. . .#.| | #.) | p.#.S.#.B.#.p.t.#.#.#.#.&.| | | | ) ) ( ( ( ] / R R Q W E E l c q 4 : : ;                                                                                                                             ",
"                                                                                                                                                                                                                                X X X X X X X X X X # # X X X o X X o # # + X X X X X X X X X X X X X X X X X . X . . . . . . . X . . . . X X X . . . . . . . . . . . . . X X X X X X X + $ ; 5 e ; $ + . X o X X . . . X X + @ : < b ] >.Q 3 : = - h $.&.e.#. .D G i n ( f G G n a p 1 1 p 1 p b b b a u p A z 3 3 3 3 1 1 p a d *.x.%X%Xo.D i g f S S S f n n B a u u u 1 3 3 9 2 - - = : r r r ; = = < u d ` ( C.D.Z.A.r.Z.A.r.e.H G _ 1 < 1 a H 0.0.l.L K u u p 3 z N W b b N N z 2 1 j G o.e.e.e. .G *.J B M m h 2 ; : 2 3 2 2 2 : ; ; $ @ @ @ = ; ; ; ; ; ; : 2 9 h m R / M / [ ) / / M b / / / [ ) @.#.#.#. . .#.| | &.| | #.S.@.p.#.B.t.t.#.#.#.#.#. .| #.| | | | | ) ) ) / _ ' _ Q Q T v c 9 8 2 : ; $                                                                                                                         ",
"                                                                                                                                                                                                                            . . X X X X X X X X X # # # # X + # X o o o o o X X X X X X X X . . . . X X X X . . . X . . . . . . . . . . . X . . . . . . . . . . . . . . . X X o O X X X + $ ; 5 8 : $ # . . o X X X . . O X + @ = 4 V M [ R z = = = h ' :.| {  .( H n ( ( ( n ` b i a 1 1 1 1 3 p p 1 p p A x A z 3 3 3 3 3 u p Z d { oXx.D D d g g f S K K D n B j 1 1 u s 3 < 9 2 - - = , ! ! r : = - 1 V n n  .D.D.Z.A.8.y.Z.h.p.G b ~ 3 1 1 i K c.k.P F f d p p 3 x m B n M _ N 3 < 3 j G { e.8. .| M *.B M M m 9 - ; ; 2 2 2 8 2 : : > $ $ @ @ = ; ; ; ; = ; : 2 9 h l m R _ [ [ / / / / / M / / / ) ) | #.#.u.#.#.#.| | | {  .| t.#.#.#.t.#.t.e.e.#.#.#.#.#.| | | @.@.| ) ) [ ) [ [ [ / R W N l h 9 e e : ; ;                                                                                                                     ",
"                                                                                                                                                                                                                          O . . X X X X o o o o o # # # # # # # o # o o o o + + X X X X X X . . . . . X X X . . . X . . . . . . . . . . X X . . . . . . . . . . . . . . . X X o O O X X + $ > 7 8 5 > & X . X X X X . . O X + + ; 2 1 B *.Q z 2 = : 2 N M ) ( #.u.+X+X|.B.B.G D J d d p p < < 3 3 h 3 p u A s x x h p 3 3 3 1 u a V H D H K D f g g g f K K K =.B b p u 1 1 1 2 3 2 - = = : q e - = - 1 a b n H  .} [.Z.f.C.r.C.[.D.M j 3 < < 1 n L 6.c.l.K d a p p 3 v N M b M _ N 3 < 3 j G } u. .u.| ` ' M m W m 9 - ; ; 2 2 2 8 : : ; > $ @ @ @ @ ; ; ; ; @ ; ; : 3 h x N W / / ) [ / / / M M M M / [ ( | #.{ p.#.#.%.| { {  .e.p.p.B.p.t.t.#.t.t.p.t.#.p.p. . .#.| @.| ) [ ) [ [ ) ) ) ) / R m m l j h 9 2 : : ; $                                                                                                                 ",
"                                                                                                                                                                                                                        . . O X X X X X # o # # # o + # # # # X # o # # o X X X X X X X X . . . . . . . . . . . . . . . . . . . . . . . X X . X . . . . . . . . . . . . . X X O o O X X X @ > 5 0 0 7 # O . . X X X . . . X X + @ - 1 j Q ' v - = = 4 h B _ &.p.u.%X|.GX%XB.X.g -.J J B x p 1 2 2 q z 3 1 u s j V j p 3 3 < < 4 s i f H F K J V V f f f D K D B b b x u 1 1 3 9 9 8 : - - - 2 : - - < h a f { D.D.} 8.'.r.e.e.C.C.S.M p - 2 1 A f L P i.O.f d u u p 3 E N M b n B N 3 < 3 j ` u.u.e.8.{ ( G M M M m h - : : 2 2 2 8 : ; ; ; @ @ @ @ @ = ; ; ; @ ; ; : 2 9 j m M _ ] ] / R / / / R W M / / ( | | { %.#.u.#.#.| | { #.e. .#.t.t.#.t.a.t.a.t.e.a.t. .#.&.| @.| @.[ ) [ [ ) ( [ ) [ / R M m m j h 3 2 2 : ; $ $                                                                                                             ",
"                                                                                                                                                                                                                    . . . X X X X X X o # # # # # # + + # # # X # # # # # X X X X X X X X . . . . . . . . . . . . . . . . . . . . . . . X X X X . . . . . . . . . . . . X X X O O . . X X + > 7 r e 7 + # X . X X X X . X O X + @ @ 3 1 W N h : = @ = z p W ] &. .C.Q..X|.t.o.K D G ` J a p 3 2 q 2 3 3 s u s V V j p 1 < < < 1 p d n D K K V f g f g f D D d V m j u 1 1 p 3 3 8 8 - = - - - - < 3 m _ ) %.a.D.D.L } } a. .u.u. .%.M 3 < < 1 u *.L i.} H D a p p p 3 N m M d M _ N 3 < p m ..u.e.u.{ { M M m W m j 9 - : : 2 2 2 8 : ; ; ; ; $ ; $ @ @ ; ; ; = ; ; ; : 3 p j m M ' $.] ) ) / / / R n G / / ) ) #.#. .p.| %.&.{  .#. .#.e.t.t.B.t.B.t.t.t.e.t.#.e.u.&.{ #.&.&.[ ) [ ) ) ( ( ) ( [ / R R M m N h 9 9 8 : ; ; $                                                                                                           ",
"                                                                                                                                                                                                                  X o X X X X X X + o + + + # # # # # # # # # # # # # # X X X X X X X X . . . . X . . . X X X . . . . . . . . . . . X X X X . . . . . . . . . . . . . . . X O O o X X X X + $ 6 5 e ; $ # X . X X X X X X X X X + @ - 3 j x h - @ = = 2 3 j R [ B.C.t.F.B.#.G n H G G M p p 3 < 2 < z 1 s s x Z V a p p 1 1 < < a a b n =.f f f f D g g d n d a j p u p 1 3 2 q 2 : - = 4 < - 1 j M ` |  .[.ZX[.#.G n -.X.{ { o.{ ` m 3 < < 1 a -.O.x.F n b s < 3 1 j b _ n M b W E 3 3 u B ( u. .u. .{ G M b W N h 2 - : : 2 : : : : : ; = @ @ $ $ $ $ ; ; ; ; $ ; ; : 2 9 h j m R R [ $.] [ ] / M M M M / ) X.| | #.p.| #.{ #.#.&. .#.#.#.p.#.t.y.B.C.y.e.e.a.t.#.u.a.p.#.| | %.&.| | ) | ( / ) ] R ' M m m N l k w e 8 : : ; $                                                                                                       ",
"                                                                                                                                                                                                              X X X X o X X + # X o # # # # # # # # # # # # # # + # # # o X X X X X X X . . X . . . . . X X X . . . . . . . . . . X X X X X . . . . . . . . . . . . . . X X O O X . X X X + $ ; 8 w 5 > # X X O . . X X X . X X # + - 1 p s 3 - = @ = - 2 h R ] p.B.t.t.p.( G u.z.H ..M m 3 - 3 3 3 3 2 3 3 v Z N j p p 1 1 < 1 p j b =.D f f D f S g g d V d a p 3 1 3 3 3 2 2 : 2 - 2 1 3 s b G  . .D.r.$XlX X#.G d J ` ( L -.*.J a 1 < 1 u B OXl.L H n b 3 q 3 3 p b _ J M M W l 1 3 u B ( e. .u. .( G M m W ! h 2 2 2 2 8 : : : : : ; = @ @ @ @ $ $ ; ; ; $ @ @ ; : : 8 h l W ' / / ) [ / [ [ / / / [ [ ) ) ) | $.@.#. .e.#.( | | |  .#.B.B.t.y.y.t.t.y.a.a.t.#.#.p.#.#.#. .#.%.| | ) ) [ [ ) [ / / R R R m E l k 9 8 8 8 8 ; @ +                                                                                                   ",
"                                                                                                                                                                                                            X X X X o o + # # # X + # # # # # # # # # # # # # # X X o # # o X X X X X . X X . . . . X X X . . . . . . . . . . . . X X X X X . . . . . . . . . . . . . . X O O O X X X X X + $ > e w 0 7 % X X O . . X X X X X X o + = < 3 3 3 2 = @ @ = < 3 j R G p.z.z.| ( | %XHX+X#.) / b 1 1 < q < < < 3 v l l h p 3 3 1 1 1 u i d B J f S S S S g f f V g i p 1 3 1 z 3 4 < - < < h Z Z a / | B.B.D.%XeX.X[. .n i d G D G { *.=.u u 1 1 a J oXl.{ D n 1 3 2 3 3 p M J J M _ Q h 3 p a B { e.u.z. .G M M m E v 3 - : : : : : : : : : ; ; @ @ @ @ @ @ $ $ $ $ $ @ ; : : 2 9 l h m R ] $.] [ ( ) / [ [ / ) [ [ ( $.( | | #.#.| #.%. .#.#.#.t.t.y.B.B.B.y.y.y.e.a.t.t.p.#.#.u.#.#.%.#.@.) ) ) ) ) [ [ / ) / R R m l l v c k e 2 : ; $ $                                                                                                 ",
"                                                                                                                                                                                                        . . X X X X o o X + # # + # # # # # # # # # # # # # # # X X o # o X X X X X X X X X . . . X X X . . . . . . . . . . . . X X X X X X X X . . . . . . . . . . . . X X O O . X X X X + $ > 8 e 8 5 $ X X O O X X X X X X X X + @ = < h z q - @ @ = - < p b X.X.( ) M | #.[.|.tX .p.x.b a 1 < < < 1 3 h h 3 h h 3 3 3 3 1 1 u u i d J f D f S S f f V V g s 1 < 1 1 1 < < - - < j j =.=.a %.B.[.A.[.tXeXA.B.#.G i i B n G ( ` B a 1 p u i G H H O.D n u q - 3 3 j _ n M M ' Q h 3 p V J o.e.i.p. .G n M m E v 3 - : : : : : 2 : : : ; ; @ @ @ @ @ @ $ $ $ $ > @ @ ; : 2 2 9 h N R / ] ) [ ) ) [ [ / [ / ( ( ) $.( $.| &. .| %.#.| #.#.e.p.p.t.t.y.B.B.y.y.y.t.t.t.t.#.e.u.#.#.%.#.| | | | $.) [ X.[ ) / R ' ' R N l j l v h 8 : : ; $ $                                                                                             ",
"                                                                                                                                                                                                      . X X X X o o o X X X + # # # # # # # # # # # # # # # # + + o o X X X X X X X . X . . . . . X X X . . . . . . . . . . . . . X X X X X X X . . . . . . . . . . . . X X X X X X X X X X + ; e e 8 5 ; + X X X X X X X . X X X X + @ - q C w : = @ @ = - h B _ _ -.G n ( F.ZX$XK.|.C.%.-.=.Z A < 3 s ~ c h h h 3 3 3 q q 3 1 u i u V n K D S S D f f V V s s < 3 < 4 < < < < p b M b n n n &.S.F.[.I.K.I.y.#.&./ a u b b n R ;.j V u i d f ..c.o.H f u u < 3 q 3 N =.b n ' _ W h p p B ` u.e.u.u. .G n M W ~ h 2 - : : : : : 2 : : : ; @ @ @ @ @ @ $ $ $ $ $ > $ @ ; : : 8 9 h l R Q / [ ) ) ) ) [ [ [ [ [ ) ] [ ) ( | | | | ( | |  . .#.t.B.y.y.t.t.y.a.a.a.e.e.t.t.t.p.p.e.#.#.#.| | | | @.X.) $.[ ) [ [ ) R R Q Q E E l h 9 e 8 5 ; ; $ $                                                                                         ",
"                                                                                                                                                                                                  . X X X X X X o o o o + # # # # # # # # # # # # + + + + + + X # o X X X X X X X X X X X . . . . X X . . . . . . . . . . . . . X X X X X X X X . . . . . . . . . . . . X X X X O X X X X X + @ 8 w 0 0 ; + X X X X X X X . X X . X + + = e c q : = @ + @ = q Z W _ B b m M t.%XK.A. X|.e.X.*.=.Z s x 3 Z Z c 3 3 3 3 q s q 3 1 u a i V V n D D n n d d a d u u < 4 < 1 < p b b J G G %.( d G ( a.F.I.V.y.y.e.#.%.M u 1 p j B W j u u i f D c.#Xu.H K d s A 1 3 z 3 N _ b M *.W R j p p J -.x.e.i.x.%.G n M B N 9 < - : : : : : : : : : ; ; = @ @ @ @ $ $ $ $ $ $ $ ; > ; = : 8 2 h N Q ] ] ) ) ) ) ) [ [ [ / [ [ M [ ) ) X.( $.| { o.|  .#.#.e.a.B.y.e.y.Z.B.e.B.t.t.t.t.t.t.e.t.#.#.| @.| | | &.| | ) | ) [ ) ] / R m m m T E k 9 9 8 5 : ; ; $ $                                                                                     ",
"                                                                                                                                                                                              . X X X X X X X # # # X + # # # # + # # # # # # # # + + + + + + X + X X X X X X X . . X X X . . . . . . . . . . . . . . . . . . . X X X X . . . . . . . . . . . . . . . . X X X X o O X X X X + @ : w e 0 5 @ + X X X X X O . X X X X X + @ : 0 4 - - @ + + = 2 z N E j j p m [ t.F.t.K.[.t.o.n d M m m p a x s < 1 1 1 3 3 3 u u u u a a V i V d d d a i p p 1 1 < < < 1 j m ] [ G ( a.D.oXD G ( o.oXy.Z.y.Z.e.B.$.M u 1 p x Z Z u x u f D u.#Xi.} H ..i s < 3 < 3 3 N m b M *.W W j p a _ X.u.e.z.x.o.G n m E h 3 2 : : : : 5 , : : : : ; ; ; $ @ @ @ @ $ $ $ $ @ $ $ ; @ = ; : 8 9 h m M [ ) ) [ ) [ [ [ [ / / / ) / X.[ $.) $.X.| { | #.z.u.#.e.t.t.y.B.C.C.t.B.t.e.t.e.e.e.e.p.#.#.#.#.| @.| @.@.) @.@.) [ [ / / / / R m m m l l k 9 9 8 5 5 ; > $                                                                                   ",
"                                                                                                                                                                                            . X X X X X X X # # # o X X + # # # + + # # # # # # # # + + + + + X X X X X X X X X . X X X X . . . . . . . . . . . . . . . . . . . X X . . . . . . . . . . . . . . . . . . X X . . X X X X X X + + ; e 0 e 5 @ + X X X X X O O X X X X X # $ = : 2 2 : @ + + $ 6 4 c l v < < j >.) t.B.A.A.F.( u n [ / M ' B p u 1 1 1 < 1 1 1 u u u p 1 V a V a a a a u a p p 1 1 1 1 u N ;.$.:.( { D.ZXS.#XG f ..H { 8.8.r.e.a.t.] b 1 3 1 x A s 1 u d f 8.ZXiX0.F H n b 1 < 3 3 < h N j b M _ _ _ b p j ` o. .e.u.o.X.n n B ~ v < - - : ; : : : : 2 , : : ; @ @ @ @ @ @ $ $ $ $ @ $ $ @ $ , > : : 2 h N R / ) / ) [ / / [ / [ [ M / / / / / ] [ ) { X.| | &.#.#.t.e.e.B.y.e.e.y.y.#.e.y.B.B.B.B.a.t.p.#.&.| @.@.) $.) &.| [ [ [ [ [ [ ' Q R R m W N l j h 9 9 e 5 : : > $                                                                               ",
"                                                                                                                                                                                        . . . X X X X X X X # # + # # # # + # # # $ # + $ $ # $ # # + + + + + # # o X X X X X X X X X X . . . . . . . . . . . . . . . . . . X X X . . . . X . . . . . . . . . . . . . O X X X X X X X X X X + + : 8 w r 5 @ + X X X X . . O O X X X X + $ = : , , = @ + X + $ , c 9 2 < < z ~ _ &.t.t.B.S.) b M | p.| / / M u u 1 u u j b b n i b d u a s u u u u 1 p u u a p j N B a _ / | ( (  .tXZXB.x.n n n ` D o.} h. .t.@.] a < 3 < 1 p s 1 p i f r.iX@XP H H M m 3 < < q 3 h x j j b ' >.=.j a R X.{ u.}  .{ ( M b N v 9 2 - = = : : : : : : : : : : ; ; @ $ @ @ $ $ $ $ @ $ $ $ $ $ $ ; : 0 9 l N m M / ] ) / / / / M / / / M [ / ] / / ] ) ) X.| #.&.&.e.p.t.t.B.t.B.y.t.t.y.t.t.t.B.t.a.p.#.#.p.#.| &.@.) @.| $.( $.[ M ] ) R [ / M / m m m N l k 9 9 8 2 : : ; $ @                                                                           ",
"                                                                                                                                                                                      . . . X X # # # o o o # # # # + + # # + + # $ # # $ $ # # # # # # + + + X X X X X X X X X X X X X . . . . . . . . . . . . . . . . . X X X X . . . . . . . . . . . . . . . . . . X . X X X X X X X X X X + ; 8 w r 5 = + X X X O . . O O X X X X X + @ ; , , ; $ # + X + @ r 5 : = = 4 A b ] &.#.p.S.) b / S.B.+X#.&.M n b b u a b M n H ..M _ b B =.a i u A u a a b a j M b G n / ( | oX .y.C.y.a.:.i 1 d i H o.S.u.a.#.:.=.a 1 < h N Z s a a n L @X@Xs.P o...M j < 1 3 z 3 h h p j M ' W _ a u / { x.i. .o.) G M M E v 3 2 - = ; : : : : : 2 : : : ; = @ @ @ @ @ @ $ $ $ @ $ $ $ $ $ $ ; = : 8 h l m M / R / / / / / / / / / M / / ] ] ] ] ) ) ) ) | | %.#.t.p.t.a.t.t.e.y.y.y.y.y.B.B.B.t.a.t.e.e.#.#.#.| $.| &.) | ) ) ) [ [ ) / R R / M R Q W N j k k 9 9 8 8 5 ; ; $                                                                         ",
"                                                                                                                                                                                  X X X X X X X o + + X X X + # # # + + # # + + # + # # + # # + # + + + X X X X X X X X X X X X X X . . . . . . . . . . . . . . . . . . X X X X X X . . . . . . . . . . . . . . . . . . . . X X X X X X X X X + @ : e w 0 ; @ + X X . . . O X X X X X X + + = : , : ; $ @ + + + > ; ; = = , z h R $.) ) >.m p W S.D.tX%XF.S.S.OX>.b b M / G { H | G ) G ` J n *.d d i b G / @.( %.M b X.x.&.S.oXS.e.{ { M b 1 p M M ..G { #.S.>.=.1 1 1 h OX,.b u b D D.iXP.9.I -...M p < 3 3 3 h x j j m ' *.W N a a / |  .u. .o.( G M B N z 2 - - = ; : ; : : : : : : : : ; @ @ @ @ @ @ $ $ $ @ $ @ @ @ @ @ $ @ ; 2 9 h j m R M / _ / / R / R / R R / R / / / / [ [ [ ( ) | &.| #.#.e.#.t.#.#.t.t.t.t.t.y.y.y.t.y.a.t.#.#.#.#.@.&.| &.@.@.) ) $.[ [ ] ) R R / M R R R m l l l h h 9 9 8 : : ; $ $                                                                     ",
"                                                                                                                                                                                X X X X X X X X X X X X X + + # # + + + # # # + # + + # + + # + + X X X X X X X X X X X X X X X X X . . . . . . . . . . . . . . . . X X X X X X X X . . . . . . . . . . . . . . . . . . . X X X X X X X X X X X @ ; 8 r 0 : $ + X X . . . O o X X X X X X + @ ; : : : ; ; @ + + + + @ @ @ : q h m ' / R Q h 1 N | #.S.F.#.t.B.+XiXS.) M ( %.oXi. . . .H ( H D n M G / x.oXD.ZXZXD.| n / $.x.%.S.z. .p.&.` j 1 1 b m M ( ( | $.] N 1 - h uXOX/ u d n H #XtXm.} x.K J b p 3 h 3 < h h j m W W _ _ b a n / %.{  .} ..G G M m h 3 : = = ; ; ; ; ; : : : : 8 5 : : ; @ @ @ @ @ $ @ + @ $ $ + + + + @ @ ; : 2 9 9 h l m _ _ R R R / R M M R / R / R M / / / [ ( ) | %.| | #.#.| t.#.e.e.y.t.t.y.y.y.B.y.t.y.t.#.#.#.#.@.&.@.@.&.| | @.) @.[ [ ] ] / / / M M M R R m m l j h h 9 8 8 5 : ; ; $                                                                 ",
"                                                                                                                                                                            . . X X X X X X X X + + + + + + # # + # # # # # # # # + # # + + # + + + # X X X o o X X X X X X X X X X . . . . . . . . . . . . . . . . . X . X X X X X . . . . . . . . . . . . . . . . . X . X X X X X X X X X X X + @ : 0 0 5 $ + X . . . . O X X X X X X X + + $ = ; : : ; = @ + + + @ + @ = : 9 j l m R l 3 < p R ) | #.t.| @.@.S.$./ M ( u.%XD.D. .tXZXp.G H x.x.S.z.S.%X%XZXiXD.%.n n n / x.o.u. .S.S.;.p - 1 3 j m >.] x.[ M p < 1 l uXOXb n G #X0.i.k.P I O.K n a 1 3 3 9 3 x x j m m m M B b a d ) | p. .{ ..G M B x 3 2 - = = ; : : ; : : : : : 8 5 : ; ; = ; ; $ @ @ @ @ $ $ # + + + + @ @ ; ; ; : 8 9 k l M R M R _ / R R M R M M / / R R / / / [ [ [ ) %.%.#.#.| p.#.e.#.t.t.t.y.y.y.C.B.t.t.y.t.e.e.#.#.p.#.#.#.| | &.| %.| ( ) ] [ [ / R R R Q Q R T m m N j h h 9 9 8 8 5 : ; @                                                             ",
"                                                                                                                                                                        . . . . X X X X X X o # + # # + + + + # # # # # # + + # + + # # + + # # # + X X X X X X X X X X X X . X . X . . . . . . . . . . . . . . . X X X X X X X X X . . . . . . . . . . . . . . . . . . . X X X . X X X X X X X + @ ; 5 0 5 ; + X X . . . X X X X . X X X X # $ $ ; : : : : = @ + & @ + + @ : 9 v j N ~ v 2 < < W $.( ( #.( | @.&.] M M G ( D.a.e.Z.D.+Xp.G G | S.z.p.t.t. .'.$XD.( f n ( [ :.%.{ %.&.$.W x < < 3 h m R *.>.>.m p < 1 OXOX/ i d x.iX@X6.I P L K K V u 1 1 < 3 h x x j j m M B b b a b ( { e.o.{ ..M n m x 3 : = ; ; ; : : : : : : : : : : : : : ; ; ; @ @ $ $ $ $ $ + + + + + @ @ $ ; ; : 8 e k j m M R _ _ R M R M / R R R / M R R R / / ) ) [ | | | | | &.#.#.#.e.e.e.t.t.y.B.B.t.t.B.B.t.t.t.t.#.#.#.p.#.#.| u.| | | ( ( ] [ / / / / Q R Q / R R m m j k k k 9 9 8 8 : ; ; $                                                         ",
"                                                                                                                                                                      . X X X X X X X X X X + # + + + + + + + # $ $ # # # # + + + # + + + X X + X X X X X X X X X X X X X X . X . . . . . . . . . . . . . . . . . . . . X X X X X X X . . . . . . . . . . . . . . . . . . X X X . X X X X X X X + @ ; 5 0 5 ; + X X . . . . X X O . . X X X X + $ ; - < 2 8 : @ @ $ $ + @ @ = 2 v k v ~ c 2 - - p =.` *.H H H ` _ b a M X.{ | e.u.D.#.{ ( d b X.) @.x.p.t.e.e.e.o.n f i ] >.) | { | | &.B s - - - h N R R ' _ m < 1 x ~ _ i g K } r.h.0.I S L K n a u 1 3 1 3 9 h j p a b m B b a u G ( | | o.{ ` M m m h 3 : = ; ; ; : : ; ; : ; : : : : : 5 5 ; ; ; @ @ ; ; $ @ # + + + + + @ @ $ $ @ ; : 8 e h m m m Q R M R M M / R / R R m R R R R / ) ) [ ( ) | | | | #.#.p.t.t.t.t.t.y.B.B.y.y.B.B.y.t.t.a.#.#.#.a.#.p.| p.| | $.( ( ) / / / [ / R R R / R R R m N l l l k h h e 2 : : ; $                                                       ",
"                                                                                                                                                                  X X O X X X X X X X X X + # # + + + # # # # $ $ # + # # $ # + + # # + # + X # X X X X X X X X X X X X X X X X . . . . . . . . . . . . . . . . . . . . . X X X X X X . . . . . . . . . . . . . . . . . . X o X . X X X X X X X + @ > 6 w 0 ; $ X X . . . X o X O . . . . X X + @ ; : 2 3 z 8 : $ 7 $ @ @ @ = : 2 3 9 h 9 - = - 3 v m b d J ` *.J p 1 p _ ] G %.| oXx.:.) a / / $./ [ ( | #.{ %.` d u d n / ) / &.@.) ] p < 4 - 4 3 h m m m j 3 3 p x Z u i n F P } 8.F I O.F D d u 1 < 3 3 h h x x x m m m B _ V i M $.#.S.x...G B N N h 2 : ; ; ; ; ; : ; = = : : : : : : : : : : ; = @ @ @ @ + + + + + + + # + @ @ @ = ; ; : h j l N m R R ' R R / R / / [ R R R R M R / / [ [ X.$.| | ( %.#.e. .#.e.e.t.B.y.y.B.B.y.a.t.e.t.e.t.#.a.| #.e.p.&.#.#.#.%.X.) [ ) / / R R R R R / / R R T T E v l x h h 9 8 8 : ; > $                                                   ",
"                                                                                                                                                                X X X X X X X X o o X X X X X X # # # # # + # $ + + # # + + + # + + + # # # # # X o X X X X X X X X X X X X . . . . . . . . . . . . . . . . . . . . X X X X X X . . . . . . . . . . . . . . . . . . . . . . X X X X o X X . . X X X $ 6 w w 6 ; + X . . . . . X X . . . . X X + $ ; 0 - 3 h h 3 e ; ; $ @ + @ ; 0 4 4 4 : = @ @ : 3 v j b J ` _ B p < 1 x m M ] / / $.>.M p a m _ _ *.] G M ( ) V p u a n / X.:.%.] _ j z < - - - q h k l h 9 2 3 h j a u d n { x.oXL F } O.x.J a 1 < < 3 9 p p N N j M G M =.B a d ( #.C.Z.u.{ n B N x 8 : ; ; = ; : : : : : ; = ; : 8 8 8 8 8 : : ; ; ; @ @ @ $ # + + + X X X + + + @ @ ; : 0 9 3 h N E R Q ' / / ] R ] M ' [ [ R R / / / / [ ) ) | ) | |  .| #.#.#.p.e.e.e.B.y.y.C.B.B.B.B.t.t.t.t.t.t.#.#.B.#.| #.| @.) | ( [ / / / [ / Q / R Q R R R T T W N l E h l 3 9 8 : : ; $ $                                               ",
"                                                                                                                                                            X X X X X X X X X X X X X + # # # # # # # # # + + # + $ # $ # + + # # # # + # + + + X X X X X X X X X X X X X X X . . . . . . . . . . . . . . . . . . . . X X . . . . . . . . . . . . . . . . . . . . . . . . . X X X X X X X . . X X X $ 5 e w 5 @ + X . . . . . X O . . . . . X X + @ : : 2 v x l 9 : $ $ $ + + $ , : 0 8 : = @ @ = 0 h l b b _ W N 3 - < 3 h x B _ _ *.*.a < 1 j ~ N B _ / / ( _ Z s 1 u b G ) $.$.*.N x 2 - = - < < 3 9 8 2 : = q 9 3 p i i oX#Xl.L S L i.0.-.B u < - < 3 3 3 h ~ W b n n M _ m a a { { C.y.e.( n B V 3 2 = = = : 5 5 : : : ; ; ; ; : 8 : 2 8 2 8 : : : ; = $ $ @ + + + + X X X X + + @ @ $ > 5 2 3 h l N m R / [ / R R / [ / R R R R R R M / ] ) ] ( $.) %.| | #.| #.&.u.#.e.t.t.a.a.S.e.y.t.t.t.B.t.#.t.#.t.#.S.#.&.p.( | &.) ) ) ] / / / / R R R R T T m m T W E N j j h k h 8 2 : ; ; > $                                           ",
"                                                                                                                                                          X O O X X X X X X X X X X + # # # # # + # # # # + + # # # $ $ $ $ + # # # + + X X X X X X X X X X X X X X X X X X X X . . . . . . . . . . . . . . . . X X X X X . . . . . . . . . . . . . . . . . . . . . . . . . X X X X X X . . . X X X @ 5 e w 0 : @ + X . . . . X . . X . . . X X + + = : 2 v x E k 8 = @ $ + + @ > : : : ; @ + + @ = q h l m b W v 3 - - < 3 j j _ _ ' W j < < h v x j m R / / _ A 1 < u a M _ ] _ W h h - - = 2 z 3 3 - - - - q 2 < 1 u i i #X#Xl.f F } c.x.` a 1 < < 2 3 3 p v ~ ~ b b b G _ b a B { a.y.C. .( M B x 3 2 = = ; : 5 : 5 5 5 : ; ; ; : : 2 8 e e 8 2 : : ; ; ; > @ + + + + + X X X + + @ @ @ ; ; : 2 9 h j l m R R R ] / / M / R / R R R R R / [ ] [ ] ( X.) X.| | ) @.| p.#.e.e.B.t.a.t.C.B.B.t.t.t.a.#.#.B.#.t.#.p.#.#.#.#.( | [ ) ) / / / / R R Q R R R m T W W W m N l l j k k 9 8 8 5 : ; $                                         ",
"                                                                                                                                                      . . . X O X X X X X X X X X X # # # # # X + # # # # + # # # # $ $ $ $ # # # + + + X X X X X X X X X X X X X X X X X X X X . . . . . . . . . . . . . . . X X X X X X X X . . . . . . . . . . . . . . . . . . . . . . . X X X X X X . . . . X X + ; 0 w w 0 $ + X . . . . O O . X X . . . X X + $ : 2 3 p x v c 2 = @ + + @ $ ; ; ; ; @ + + + : - h N j E ~ c 2 - = - 3 z h b m N N h < - 2 z z h x m m M W z - < 3 a m _ R m N 2 2 = = = r <.C ^ Y - - 4 4 q s s u i / %.{ D F x.x.o.D b a < < < 3 9 3 p ~ x N a M n / B b a G | a.y.r.{ G n N h 2 - = = ; : : : : 5 5 : ; : ; : : 8 0 w w 2 2 : : : ; ; > $ $ @ + + + X X X X + + @ @ @ ; = : 2 3 h j N m Q M _ M ] / / M / R M R / / / R ] ] [ ) [ { ) | | | | | #.#.#. .#.e.t.a.e.e.t.B.e.B.e.t.t.#.p.p.#.#.p.&.&.| #.| ) [ [ ) [ / / / M R R M m m m R m N m T N T l l l k w e e 8 : ; ; $                                     ",
"                                                                                                                                                  . . . . . X X X X X X X X X X X X # # # # # # + # # # # # # # # # # # # # # # # # # X X X o o X X X X X X X X X X X X X X . . . . . . . . . . . . . . . . X X X X X X X X X . . . . . . . . . . . . . . . . . . . . . . . X X X X X X X . . . X X + ; 8 w w 8 ; + X . . . . O O O X X . . . . X + $ : 8 2 p j E ^ c : @ + + + @ $ $ $ @ + # + + + : 2 c ~ v ~ q - = = = 2 8 3 3 h v v 9 = = - 4 q q 9 h j m N 4 = - < 3 l E E v c < - @ @ @ , ! ! ~ c 2 9 3 A 1 1 u i *.OX%.G S ..l.o.H n a 1 < < 2 9 h 3 h Z x j a B G / M a b [ u.h.C.a.o.H b v h 2 - = = ; : 5 8 8 : : ; = : ; : : 2 8 e 8 8 8 8 8 5 : : ; $ $ $ # + + X X + + + + + @ @ ; = : 2 2 8 h l N m R M / / ] / M / _ _ _ / / / / ' ] / ) / ) ) X.| X.| | | #.| | e.t.p.B.t.t.t.B.t.e.y.e.#.t.#.p.p.p.p.#.#.| #.#.$.) ) ) [ / / / M R R M m m m R m m m m T N N l j j k k h 9 9 e : : ; ;                                 ",
"                                                                                                                                                . . X O X X X X X X X X X X X X X X + + # # # # # # # # + # # # # # # # # # # # # # + X X X o o X X X X X X X X X X X X X X . . . . . . . . . . . . . . . . X X X X X X . . . . . . . . . . . . . . . . . . . . . . . . X X X X X X X X X X . . . X + ; 8 c c 8 ; $ X X . . . . X O X X . . . . X X @ ; 4 2 x N W =.~ 2 = @ + + + + + + + + # # X $ + ; e c ! c , ; @ @ @ = : 2 9 h c C 4 = @ @ , : , 2 3 z h z - @ = - 2 z c c c 8 - @ @ @ @ = 8 : e 4 - z c x s A a n M.S.{ f f ..` K G b a p < < 4 z h p j N j p a M / ` M b b ) e.h.f.e.{ n m v 9 2 : = = ; : 8 8 2 2 : : ; ; = : : 2 8 e 9 e 8 2 2 : : : : ; $ $ @ + + + X # # + # @ + @ $ @ ; : : 2 9 h j j m W _ R / / / _ _ / / / / / / _ / ] / ) / ] ) ( ) ( | ) #.| #.p.| #.| p.t.p.#.t.B.t.t.t.t.p.#.#.p.#.#.#.#.| #.| @.| [ ( [ [ M / / R R R m m m m m R m m m m N l l l l k k h 9 8 8 : : ; $                             ",
"                                                                                                                                            . . X X X X X X X X X X X X X X X o X + + # # # # # # # # # + # # # # # # # # # + + # # + + X X o o X X X X X X X X X X X X X . . . . . . . . . . . . . X X X X X X X X X . . . . . . . . . . . . . . . . . . . . . . . . . X X X X X X X X X X . . . . + @ : w c e : $ + X . . . . . X X X . . . . . X + = : < z N B W N 9 - = @ + + + X X X o o O o X @ @ = 8 5 5 7 > @ + @ @ = : q 2 4 q : = @ + @ @ ; : 2 q q : @ @ = : 2 4 4 2 4 2 = @ ; 6 ; = = 2 2 2 3 p 1 1 u d B _ -.H ( G G D n n _ m a < < 2 z C h p j j j p b n ` ] _ b G X.z.h.C. ...n j h 2 - = = = ; : : : : 2 2 : : = = : : 2 8 q q 9 8 8 8 : : : : ; > $ @ + + + + # # X + + + + @ @ $ ; ; : : 8 9 l j m m ' _ _ M ' _ M M / _ / M / ' / ] / ] / ) / / [ ) ) X.@.%.| #.#.p.#.B.t.t.a.t.y.t.t.a.#.e.t. .e.S.#.t.p.| | @.| ) ) ) [ / / / M m m m m m m m m R m m m T m N T l l j h h 9 e 8 8 : ; ; $                         ",
"                                                                                                                                          . . O X X X X X X X X X X X X X X o o # # # # # # # # # # # + + # # # # # # # # + + + # # # # # X X X X X X X X X X X X X X X X . . . . . . . . . . . X X X X X X X X X X X X X . . . . . . . . . . . . . . . . . . . . . . . X X X X X X X X X X X X . X X + ; e w e : $ + X X . . . . X X X . . . . . o X ; = - 3 j M b j h 2 - @ + + + X X X o O . O X X + + + = @ > % @ + @ + @ : 2 : 0 e ; @ @ + + + ; 7 ; : 2 = @ @ @ @ = - - - : : @ = 6 r 5 = - - < 3 3 1 p a a B ,.*.n d H >.n n J b b p 3 < 2 2 C C 3 3 j a j a M n X.X.` d n %.e.D.e.u.G b h 9 2 = = ; ; 7 0 2 2 : : : : = ; = : : : 2 8 8 8 8 8 e 8 2 : : 7 > ; $ @ + + + # X X # + + + + + + @ $ = ; : 9 3 h l W m R M R M / / / / / R M / / [ / ] / / / ] [ ] [ X.) | | | #.p.#.#.#.p.#.e.e.e.a.a.#.#.a.p.#.t.#.e.#.e.#.p.#.| @.@.| ( [ [ / M M M m m M j m m Q m W m m m m N N N l j j h 9 9 9 8 : : ; ;                       ",
"                                                                                                                                      X . . X X X X X X X X X X X X X X # # # # # # X X X # # # # # # # + + # # # # + + + + + + X o o o o o X X X X X X X X X X X X X X . X X . X . . . . . . . X X X X X X X X X X X X . . . . . . . . . . . . . . . . . . . . . . . . X . X X X X X X X X X . . . X + ; : e w 5 ; + X X . . . . X X X X . . . . . X + = : 4 z a b x x C : = + + + + X X X X O O X X X + + + @ + + + # @ + @ @ = : 0 5 ; @ + + + + @ ; > ; = = + + + @ @ @ = ; ; = = ; , , , 0 2 - < 3 p j *.M n n f H G G n B B b a j N p < 2 q 3 C C p p b j V b M ] ] X.J n G  .e.h.h. .n j 3 2 - = = = ; ; : 2 8 2 : : : : @ = ; : : 0 e 8 2 8 2 2 8 8 2 : : ; = @ @ + + + + + # # + + + + # + + @ @ ; : : 8 3 v l m m b W R R / / / / R R R / [ [ R [ / ' / / / G ] ) ] | ) ( @.#.#.p.t.S. .D.t.B.B. .D.#.e.p.t.t.e.#.t.t.#.#.&.@.&.@.| ) [ [ ] M R b M m W m m m W m E W N E m m m l m l h h k k 9 9 2 : ; ; >                   ",
"                                                                                                                                    . . . . X X X X X X X X X X X X X X # # # # # # # X # # # # + + # # # # # # + + + + + + + # X X X X X o + # X X X X X X X X X X X X . X X . X . . . . . . X X X X X X X X X X X X X . . . . . . . . . . . . . . . . . . . . . . . . X X X X X X X X X X . . . . X + @ : 8 0 8 ; $ + X . . . . X X X X . . . . . X + @ = - 3 p j N Z C q : @ @ + + X X X X X X X o # + + + + + # # o X + + @ @ ; ; $ @ + + + + + + $ > ; @ @ + + + + @ @ = ; 7 ; = ; ; = = - < < s p j ,.uXS.-.` n ` :.x.` b b b j x x 3 < 2 q q C c h j B B b b G ) X.X.G D H u.a.a.u.H b a 3 2 : = = ; ; : 2 8 8 2 2 : : ; = ; ; ; : 8 8 2 2 2 2 2 8 8 8 2 : ; ; ; $ @ @ @ + + + # + + + + + + + + $ $ ; : 2 2 9 h l m m M m R / Q R M R / / / / / R / R / _ / / / ] / / [ ] | @.&.#.#.#.#.#.#.#.t.#.p.#.e.t.t.#.#.e.e.t.#.#.#.#.#.@.@.| | $.) ) / ] / / m R m m m N m N m E E E m R m m N l j l h v 9 h 9 8 : ; ; >               ",
"                                                                                                                                . . . . . . X X X X X X X X X X X + + + X X X # # # # # X # # # + + + + # # # # # # + # # X X X X X X X X X o o X X X X X X X X X X X X . . X . . . . X X X . . X X X X X X X X X X X . . . . . . . . . . . . . . . . . . . . . . . . . X X X X X X X X X . . . . . . X + = : 5 6 5 $ + X X . . . . X X X X . . . . X X + @ = - < p h v z q 8 - : = @ + + + X X X X X # + + + + & + o X X X X + + + + + + $ $ $ # + + @ $ $ @ + + + + 7 t t 7 ; @ @ @ ; , : : 2 3 - s Z OXM / X.:.:.X.-.*._ b V j x z p 3 < < 2 9 z z p p a b m B M ( { o.X.D f H 8.r.r.o.G b h 2 : = @ @ @ ; ; 0 0 8 8 2 : ; = ; ; = ; : : 2 2 8 2 2 8 8 8 2 4 2 : : ; ; @ @ @ @ + + + + + + + + + + + + @ $ ; : 8 2 3 h l N m W R R R M M R R R R / R R R R Q R R R R _ M / / / ] ( $.&.@.p.#.p.| S.#.p.#.#.S.t.t.#.#.e.e.t.#.#.#.#.#.#.&.@.$.( ) ] [ / M R M R m m W m m N m m E m W m R m m m E l E j v h h 9 8 2 : : ; ;           ",
"                                                                                                                            . . . . . . . . X X X X X X X X X X X X + + X X X # # # # # X + + + # # # + + + + X # # # # # X X X o X X X X X X o X X X X X X X X . X X X . . X . . . . . . X . . X X X X X X X X X X . . . . . . . . . . . . . . . . . . . . . . . . . . . . X X X X X X X . . . . . . X + @ ; 5 5 5 $ + + X . X . . . X X X O . . . X X + + @ ; - 3 3 x 3 z c 3 2 : : = + + + X X X X + X + + $ % # X X X X X + + + + + # $ * * $ + + + $ $ + X X X + > t 6 ; @ @ @ = = = - - 3 x a a ;.,.M u n n $.-.b b J B j N v z 2 - - 2 9 h v v p p a j b n G { { x.X.D D { 8.e.e.| G b z 2 : ; @ @ = ; ; 0 8 8 8 2 : ; ; ; = = ; : : : 8 8 2 2 8 8 2 2 8 8 2 : : ; ; @ @ @ @ + + + + + + + + + + + + + @ ; : 2 8 z c c j E T m m R R M M R M R M R R R R M M M M R R R _ ] ] ) | | | #.@.p.#.| #.#.S.#.e.#.p.p.p.e.e.t.t.#.#.#.#.#.&.&.&.@.| ) ) ) ) [ G _ R M R m m m E m m W m W m m m W m E l E j j h h h w e : : ; ; $       ",
"                                                                                                                        . X X X . X X . X X X X X X X X X X X X X X X X X X + # + + + + + + # + + # # # # X X # + + o # o X o o X X X X X X X X X X X X X X X X . . . . . . . . . . . . . X X X X X X X X X X X . . . . . . . . . . . . . . . . . . . . . . . . . . . . X X X X X X X X . . . . . . . X + @ > 6 7 7 7 $ # X X X . . . X X X O O . . . X X + + @ = : 2 9 3 h N x p z q : = @ @ + + + + + + + + + & # X X X X X + + + + + + # $ $ $ + + + # + + + # + + + @ @ @ @ @ @ = = - 2 z Z p u b j b n J i n _ ' b a u p Z ! c 3 - - < 3 3 h E v p p x b b n G #.#.z...D D o.i.r.e.{ M x 8 : ; ; @ @ ; ; : 2 8 8 8 2 : ; ; ; = @ ; : : : 8 2 2 2 8 8 2 8 8 2 2 2 2 : : ; = @ @ @ + @ + + + + + + + + + + @ $ ; 5 : 8 c 9 h h l N E m m m R R M Q M R R R M R R m m M M M R M M [ [ | $.| | | #.&.| #.| p.u.#.p.p.p.e.#.e.t.e.#.#.#.&.#.&.%.%.$.| X.X.$.) / / _ R M b m m m m W m Q m Q m m m T m W l E j j h k c 9 8 : : : ; ; $   ",
"                                                                                                                      X X X X X . X X X X X X X X X X X o # # # X X X X X + + # X X + + X # # # + + # + X X # # + + X # o X X X X X X X X X X X X X X X X X X X . . . . . . X . X X . . X O O O X X X . X X X X . . . . . . . . . . . . . . . . . . . . . . . . . . . . X O X X X X X X . . . . . . . X X + $ > > 7 7 $ $ + X X . . . X X X O O X . . . X X + + ; ; - 2 < h ~ =.N v z 3 2 : = @ + + + + + + + + + X X X X X X X X X X X X + + + + + + + + X X + + + + @ @ @ @ = = = : 2 3 3 h x x a a B a b i d i a p u j x V v c 8 - - - 4 9 9 h N x p p b b b G ( #.t.u.{ S D o.x.a.#.( b h 8 ; ; @ @ @ @ = ; 2 8 8 8 2 : ; ; ; @ @ ; ; ; : : 2 2 2 8 8 3 9 9 3 9 9 2 2 : : = @ @ @ @ @ @ + + + + + + + + + + @ @ > = : e 2 c h h l E E T T m R M W M R M M M R R m m m M m M ' / ] [ ) @.) | &.&.@.#.#.S.#.#.#.#.#.p.t.#.e.#.p.#.#.@.&.@.&.@.| @.$.| | ) ) ( [ [ / R m M m j M m Q m Q m Q m R m R m R m m l l j h h 9 9 8 : : ; = @ ",
"                                                                                                                  . . . X X X X X X X X X X X X X X X o # # # # # + X + # # + + + X X X X X X + + + + X X X # # # o # # o X X X X X X X X X X X X X X X X X X X X X X X . . . . X X X X O O O O . X X X X X . . . . . . . . . . . . . . . . . . . . . . . . . . . . . . X O X X X X X X . . . . . . . . X + @ $ $ 7 7 $ # + X X X . . X X X o O o X X X O X X X % > : - 3 p =.;.B N x 3 2 2 , : @ @ + + + + + X + + + + + X X X X X X X X + + + + + + + + X X X X X + @ @ @ = = = = : 4 3 p p a b m M b V i u s a p p a x 1 3 h 2 : - = 2 4 9 h l E x p a N B M G H  .a.o.H D ..o.u.e. .G j 9 : ; ; = @ @ ; : : 2 2 8 8 : ; ; ; > $ @ @ ; ; ; : 2 8 8 8 2 2 9 9 9 9 9 8 8 4 : = ; ; @ $ $ $ # @ $ $ $ + + + + + + @ @ = ; : : e h h h l N N m m m m M M M R m M m m m m m m m R W / / [ ) $.%.&.@.| &.| #.@.@.&.&.&.#.u.p.#.e.#.#.#.#.#.#.@.@.#.%.@.@.| %.$.X.( ) / [ [ M M M m m M m R M R M R Q Q R R m M m m N l j h k k 9 8 2 : : ; ",
"                                                                                                                . . O O X X X X X X X X X X X X X X X X X X X X # # # # # # # + # + X X X X X X # + X X X X X X X X X # o X X X X X X X . X X X X X X X X X X X X X X X . . . . . . X O O O X . . X X X X X . . . . . . . . . . . . . . . . . . . . . . . . . . . . . . . X X . X X X . . . . X . . . X X X + $ $ 7 7 $ $ + X X X X . . X X X X O X O O X X X X X $ ; - 2 < p b V V x 3 < 2 4 q : ; = = = = @ @ @ + @ @ + + + + + + X + + @ @ @ @ @ @ @ @ @ + @ @ @ @ @ = = : : ! C 9 3 3 p p a b B *.W N V s V b j x p z z c 3 - : - = 2 2 3 h l l a u a Z _ _ { { #.a. .H D O.u.u. .| M h 2 = = @ @ @ @ @ = ; : 2 2 8 8 : ; ; ; ; @ @ ; ; ; = : 4 8 2 2 8 q h h h k h z q e 2 : ; ; @ $ $ $ @ @ @ $ @ + + + # + @ + @ ; = : 2 2 3 9 h h h j N l m m M m W m M m m m m m m b M M _ M / ) [ | ( $.@.| &.%.@.@.&.&.#.#.&.#.#.#.#.#.#.| #.@.#.| @.#.@.%.| &.) | ) ] [ [ / / m M R M m M m R R R R Q R R M R m R R R E N l j k h h 8 8 2 : ",
"                                                                                                            . . . . X X X X X X o X X X X X X X X X o o + + # # o o # # # # X X # o X X X X X X X X X + X X X X o # # # o X X X X X . X X X X X X X X X X X X . . . . . . . . . X X X X X X X X . . X X O O . . . . . . . . . . . . . . . . . . . . . . . X . . X . . . X X X X . X X X X . . X X . . . . X + $ $ ; 7 ; > + + X X X . . X X X X X X O O X X . X X + @ @ = - < 3 p p x s p 1 p h 3 9 9 < q - 2 - 4 - = = : - = ; ; @ ; $ @ ; = = : q <.<.<.<.8 w w 2 e ! c 3 ~ 2.HXuX;.m ~ j V ;.,.j j j b N N a j p p s z z 4 : ; = - : 2 c h v x j p u p N _ M H 8.e.{ X.H I l.i.i.%.G j 9 2 ; = @ @ @ @ @ ; ; : : 2 : : : ; ; ; = ; @ @ ; = = ; : 8 2 2 8 z h h j k h k c k 9 2 2 : ; ; ; ; ; ; ; ; $ $ @ + + + # @ @ @ @ ; ; : : 0 e 9 9 c l l l N m m m m m m m m m m m m m m R R / [ ] ) [ $.| ( | @.&.@.@.&.@.| | #.@.#.#.| @.@.@.| ) @.%.| ( @.) &.@.&.( ] / / R / M R m M m M m m R m m R R Q R R R M m m R m m E N j l c w 8 2 ",
"                                                                                                        . . . X O O X X X X X X X X X X X X X X X X o o + + # # o o o # # # X X X X X X X X X # X X X + X X o o X o X # o X X X X X X X X X X X X X X X X X X . . . . . . . . . X X X X X X X X O O O O X X . . . . . . . . . . . . . . . . . . . . . . . X . . X X . . . X X X . . X . . . . . X X X . . X X + $ ; ; > $ # X X X X . . . . X X X X X X X X . . X X + + @ = : 2 1 1 < p u b a V a N p p 3 Z v p h z z 3 z 2 3 2 q : : = = : : - 2 3 ~ ~ ~ ! c ~ <.c h c v l =.>.2.] j p j b b B =.B p p x p v h s p 3 3 3 2 - = = = - 2 2 h v N j p p p a B B n H  .u.( G f L 0.c.i.%.R h 4 : ; $ @ @ @ @ @ ; ; ; : : : : : : ; ; = ; @ = ; = ; ; : 8 2 2 4 9 h j l j h h k h 9 9 9 8 : : ; ; ; ; ; ; ; $ $ $ # + + # @ @ @ @ $ ; ; : 5 8 9 h h v l N l m m T T m m m l j j m m R R R R / / / / [ ) [ ) [ ) ) @.| @.@.&.| | | | ) ) | | | | | @.) ) | @.| ) | @.) [ / / _ / / M M m M m m R M R M M R M R R R M R m m m W m m N l k 9 9 ",
"                                                                                                      . . . X X O X X X X X X X X X X X X X X o X X o o + + # # # # X X # # X X X X X X X X X X X X X X X X X o X X X X X X X X X X X X X X X X X X X X X X X . . . . . . . X X X X X X X X X X O O O O X . . . . . . . . . . . . . . . . . . . . . . . . X X . X . . . . . X X X X X . . . . . X X . . . . X + @ @ @ > $ $ X X X X X X . . . X X X X X X X . X X X X + + @ = : 4 3 1 1 x a a j B *.B B a ,.=.j a ~ ~ j N p j h 3 - < - - : 2 2 3 < 3 3 < 3 3 3 9 < < 3 p 3 p u u j u u u b p p V b N 1 p z < x 3 1 < < - = = @ = - - e 9 l ! N h p p j B _ G G  .u.x.| D D O.i.h. .( m 3 - = ; $ @ @ @ @ @ $ ; = : : : : : : ; ; = ; = ; ; ; ; ; : : 2 2 4 8 9 h j l h k l k 9 9 e 8 2 : : : : : : ; ; ; ; $ @ + @ @ @ @ @ @ @ @ @ ; : : 8 9 9 k h j j N l N m N N N m m m m m m m m M M / ' ) [ [ [ ) [ [ [ ) ) | ) | ( ) ) ) ) ) ) ) ) ) | | | | | $.| ( ( $.( ] / ] / _ / R m M m R m ' R R R R R m R R R M Q m T T R m m m Y l k k ",
"                                                                                                  . . . . . X X X X X X X X X X X X X X X X X o X X o # + # # # # o X o # # X X X X X X X X X X X X X X X X # # o + X X X X X X X X X X X X X X X X X X X X X . X . . . . . X X X X X X X X X X X X X X X . . . . . . . . . . . . . . . . . . . . . . . X X X X . . . . . . . X X X . . . . . . X X . . . . X X @ @ @ ; $ $ X X X X o X X . X X X X X X X X X X X X X X + @ = - , 4 q 3 x p p a ,.n J u n b =._ b ,.;._ M M M b x 3 q 3 < 2 3 3 p p 3 3 p h h < < < 3 z h p u 1 a W W B b Z a u u a x p z 9 < 9 < < - - = = @ = - : - c Y ~ ~ l p p p b =._ J H u.z.x.{ G D o.z.e.{ M j < = = ; ; @ @ @ @ @ $ ; ; : : 2 8 : : ; ; = ; ; ; ; = ; ; : : : 2 4 8 3 h h l l l v v h 9 9 9 8 2 : : : : : : : : ; ; @ @ @ @ @ @ @ @ @ @ @ @ ; : 2 8 3 h h h j l l l j m m m m l l j l N R R m M M R / / [ / [ [ [ [ ( ) ) [ ( / ) ) ( | ) ) ) ) ) ) ) X.) X.) %.) ) | ) | ( [ / / / M M b R b Q M Q R Q Q R R m R M M Q R R Q m R R m T Y l l ",
"                                                                                                . . . . X X X X X X X X o X X X X X X X X X X o X X o o # # + + o X o # # o X X X X X X X X X X o o X o X o # o o X X X X X X X X X X X X X X X X X X X X X X X X X . . X X X X X X X X X X X X X X X . . . . . . . . . . . . . . . . . . . . . . . . . . X X X . . . . . X X X X X X . . . . . X X X . . . X X + $ > $ $ + # o X X o o X X X X X X X X X X X X X X X X + + @ = = 4 2 z z x p V J J J J d J n M n OX>.G n X.-._ N p 3 1 1 p p h p x j a N v x 3 3 3 1 1 1 1 p b N W =.~ Z x p 1 u p s z 9 2 2 4 : : : = = = @ ; : 2 h ! ~ ^ l j p p j N J M n H o.z.x.G G D O.z.u.{ / h < - = ; ; $ @ @ @ @ $ ; : : : 2 2 8 : : ; ; ; ; ; ; = ; : : : : 2 2 2 3 9 h h h k l h h h 9 9 9 8 8 4 4 2 2 8 2 : : : : = = @ @ @ @ @ @ @ + @ ; = : 2 2 9 9 h h l j l j j l l l l N N N m m m m m m M R R / / / / / [ [ / [ ] ( ( ( ) ( [ [ ) ] ) [ [ [ [ ) ) ( %.| | | | | | ( ( / [ M M M m M m M m R R R m R m Q m R R Q M Q m Q R M R T m m ",
"                                                                                            . . . . . . X X X X X X X X X X X X o X X X X X X # # o o o # + X X X X o o # X X X X X X X X X X X # # X o X o o # X X X X X X X X X X X X X X X X X X X X X X X X X X X . X X X X X X X X X X X X O X X . . . . . . . . . . . . . . . . . . . . . . . X X . . X O . . . . X X X X X X X X . . X X X X . . . . X X + @ > @ $ + # + X X o o X X . . X X X X X X X X X X X X X + + @ ; : - 2 q z p a b B =.i i i d i d ` / d D { x.>.d u a a p u u a Z Z j x ~ N p h p z z p 1 1 p Z ~ N ~ ~ ~ x p 1 Z 3 z z - 4 : 0 0 7 ; = @ @ $ ; 2 3 ! ~ E E h h 3 j b B M n G ( x.x.X.n ( { 0.z.u.( M h < - = @ > $ @ @ @ @ $ ; ; : : 2 2 8 2 : ; ; ; ; ; ; ; ; : : : : 2 2 2 8 3 9 h h h c h h h h 9 9 9 9 3 3 4 8 8 8 4 2 2 2 : ; = @ @ @ @ @ + + @ @ @ = : : 8 9 h 9 h h l j l l l l l l l l j j m m m m m R R Q / M / R / [ / / / M [ [ [ / / / / / / / / ] ( ] ( | ( | ) @.) | @.| $.( ) / _ _ b M j m m N R R m R m R m R m R m R m Q R R M R M M ",
"                                                                                          . . . X X X X X X X X X X X X X X X X X X X o # o X o # # o o + + X X X X X X X X X X X X X X X X X X # # # X X o X X X X X X X X X X X X . X . X . . . X X X X . . . X X X X X X X X X X X X X X X X X X X . . . . . . . . . . . . . . . . . . . . . . . X . . . . O . . . . X X X X . . . . . . X X X X . . . . X X X + $ $ $ $ # + X X X o o X X . . X X X X X X X X X X X X X + + > = ; = 4 2 q 1 x j x ~ Z p 1 u d b d i n G ` -.n V Z Z a 1 1 a ~ x u p x x h h 1 z z z 3 < 1 h h 3 h z z 2 < < z C - q : = 0 ; > > $ @ @ @ = : 2 h v ~ l h 3 3 p j N B n D ( { z.x.{ n ) %.z.z. .G b h 2 ; ; ; ; @ @ @ @ @ $ ; ; : : 2 8 8 2 : : ; ; ; ; : ; ; ; ; : : 2 2 4 9 3 9 9 h h h c c h h h 9 9 9 9 9 9 9 9 9 9 3 2 2 2 2 : ; ; @ @ + @ + @ @ @ = : : 2 2 9 9 h 9 h k h h h h h h h h l l N m N m m m R M R m R R / R _ R M M / / / M / / / M M / / ] ) ) ( $.( { ) @.| @.| @.%.| ) ) ] R _ b _ j W m W m m m m m m m m m M R R M R Q R R R R ",
"                                                                                      . . . . . X X X X X X X X X X X X X X X o X X X # # # o o o X X X # # + X o X X X X X X X X X X X X X X X # # o X X X X X o X X X X X X X X X . X . X . . . . . X X . . . . X X X X X X X o X X X X X X X . . . . . . . . . . . . . . . . . . . . . . . . . . X . . . . O . . . . X X X X . . . . . . X . X X . . . . . X X + + % $ * $ # X X o o # o X . . . . . X X X X X X X X X X X X + + @ = - 4 3 2 3 z 3 s z x p p u V j a i ;.=.B B d V V a p p x =.Z x s 1 h z z 3 q 2 < 3 3 < < - - - < - < 2 2 4 r - : ; ; > $ + @ @ @ @ @ = : 3 x h E h 3 3 < h x N B b G ( { u.u.o.G G { a.h. .G b h 4 ; = 7 ; @ @ @ @ @ @ $ : , 0 8 8 8 8 : : ; ; ; ; : ; : : : : 2 2 2 2 2 9 9 9 9 9 h h h h h h h h h h h h h h h h h 9 3 9 8 8 : : ; $ @ $ @ $ $ @ @ : : : 2 q e 9 9 h h h h h h l v v l l l l N N N N E j m Q m m m R R R / / _ / / M R M R / / / / G G ) G ( $.X.| | @.#.#.| &.@.| ) ) / / m ' R W M m R m R m W m m m W m W M =.m M / R R R R ",
"                                                                                    X X X X X X X X X X X X X o X X X X X X X # X + # # # # # # + + + + X X X X # # # X X X X X X X # X X X X # o o X X X o o X X X o o O X X X X . X . . . . X X X X X . . . . X X X X X X X X X X X X X X X X . . . . . . . . . . . . . . . . . . . . . . . . . . . . . . . . . . X X X . X X X . X . . . . X X X . X . . . X X X + $ % % $ + # X o # o o o X X X . X . . X o X X O X X . X X X + + @ = , 4 0 - 2 2 2 2 3 3 3 < s h p p x N a a a p a x h x x x p 1 1 < < 2 2 - - - : < : - - - - = = = = , , : ; = @ @ + + + + $ @ @ @ - , 4 z h h h h 3 h h 3 ~ ~ m b G ( { u. .{ G (  .a.a. .G m h 2 : : ; ; ; ; @ + + @ ; 7 ; : 0 8 2 2 e : : : ; ; : : = : : : 8 4 2 2 2 2 2 3 9 9 9 9 h h h v h h x p h h v v h h h h h h k 8 8 5 ; ; $ @ @ @ @ @ @ ; : : : 0 2 q 3 9 2 9 9 9 9 h h h j j h h l j j E j N N m m m m m m m M R R R / R M M Q M M R / R M [ ) [ ) X.[ %.@.p.#.#.@.@.$.) [ ) / ] R / M M R R m m m m m m N N T W m m m R / / / / / ",
"                                                                                X X X X X X X O X X X X X X X o X X X X X X X # X + + + X X X X # # + # # # X X X X X X X X X X X X # X X X X # X o X X X X X X X X X X X X X X . X . . . . . X . X X X X . X X X X X X X X X X X X X X X . X X . . . . . . . . . . . . . . . . . . . . . . . . . X O X X . . . . . X X X . X X . . . . . . . X X . . X . . . X X X X # $ & $ # X X X o o # o X X . . X . . . X X O O X . . X X X X + + @ = ; : = : : - : 0 q 4 4 q q < < 3 p p p 1 1 3 3 3 z C 3 3 < < - - - = - = = - : - = = : ; ; = = @ ; ; @ @ @ @ + + + + + + + @ = 2 q z h 3 p 3 h 3 3 h h N ~ b / / |  .u. .H G H  .a.S. .G m 9 2 : : ; ; ; ; @ @ @ @ @ ; ; : 8 8 8 8 e 8 5 : : : : : : : : 2 8 8 2 2 2 2 2 2 8 3 3 9 9 h h h h h h h h h h h h l l j h k l 9 9 e : : ; @ @ @ @ @ @ ; : ; : 8 2 8 8 8 8 9 2 9 h h h v h v h N j h l h j l N l m N m m m m m M / R _ R / m R / M R R / / / [ [ ) | @.$.&.#.#.#.@.@.&.| ) ) [ [ / / _ M M R m m m m m j m m m N m m m R R M T R R ",
"                                                                              O X X X X X X X X X X X X X X X X X X X X X X # # # # # # # X + X + + # # # # # # X X X X X X X X X X X X X X X # X o o X X X X X X X X X . . X X . . . . X . X X . X X X X X . X X X X X X X X X . . X . . . . . . . . . . . . . . . . . . . . . . . . . . . . . X O O O X . . . . . X X X . X X . . . . . . . . X . . X . . . . X X X X # # $ & X X X X o & # X X X X X X . . X X X O . . . . X X X X X + + @ @ @ ; = @ ; 0 0 : 4 2 2 < < < 1 3 3 < < < 2 2 4 0 2 - - - : = = = ; ; ; ; ; ; ; ; = ; ; @ @ @ @ @ + + + + + + # + + + @ = - 4 z c v h x x j p h v x l a M M {  .z.u.} { D {  .a.a.o.G j 3 2 : - : : ; ; @ @ @ @ @ @ = : 2 8 8 8 8 8 5 : : : : : : 2 8 8 e e 8 3 9 2 2 2 2 3 2 2 3 3 9 h h h h l l h k h j l l l j j Y k k w 8 : : = @ $ $ $ @ ; ; ; : : 8 2 8 8 8 2 8 2 2 c h h l h l h l v l E l j l j j l l m m m m m Q M M M R R Q M M / ' / M [ [ [ ) [ :.@.&.#.#.#.#.@.&.@.@.| [ [ [ / ] / / / M M m m m j m l N N m m m m m m T T R ",
"                                                                          . O O X X X X X X X X X X X X X X X X X X # + X # # # # # # # # # # # X X X o # # X X X X X X X X X X X X X X X X X # o # # o o o X X o o X X . . X X . . . . X X X X X X X X X X X . X X X X X X X X . . . . . . . . . . . . . . . . . . . . . . . . . . . . . . . . . . O O X X . . . . X X X X X . . . . . . . . X X . X X X . . . . X X X X + # & + X X X o # # X X X X X o X X X X X . . . . . . . X X X X X + + + + @ + @ : : = = = - : 2 2 2 4 : : : : : = = = ; = = = = = ; $ ; $ $ $ % > > > @ + + + + + + + + + + + + + + + + @ = ; - 3 x Z x h h p p 1 p j j p b b ( ( p.D.8. .D { ( a.y.a.o._ j 2 2 : : : : ; ; $ @ @ @ @ @ ; : 2 2 8 2 2 8 2 : : : : : : 8 8 8 e 8 9 9 9 3 2 2 2 2 2 3 3 2 h 9 h h h v k h h l j j j l l j l k k k 9 8 2 : ; ; ; @ @ = ; ; : : 5 : 2 : 8 0 : 2 8 2 9 v h v h l l l Y k h h x x j l l l m R R W R R m m M M _ _ R / / / / [ [ [ [ [ @.@.@.&.%.%.&.$.%.| @.) ) | ) ( ) ( ] / R R m m m l N l l l N N m N N m T E E ",
"                                                                      . . . X X X X X X X X X X X X X X o o X X + + + + + + # # # + + + + + # # X X X X X X X X X X X X X X X X X X X X X X X o X o o o o o o X X X X X X X X . X X X . . . X X X X X X X X . . X X X X X X X X . . . . . . . . . . . . . . . . . . . . . . . . . . . . . . . . . . . X . . . . . . X X X X . . X X . . . . . X X . X X O . . . . . X X X # + # + X X X o # # X X X X o o X X X . . X X X . . . . . X X X X X X X X + + + @ @ @ @ @ = = = = = = = = ; > $ @ @ @ @ @ @ + + @ @ @ $ $ $ $ & & & @ + + + + + + + + # + + + + @ @ + @ @ ; : 2 3 x Z v x x h j p b W m b d G G  .y.D.u.{ H H  .a.B.z.X.B p 2 2 : : : : ; ; $ @ + @ @ @ ; : 2 2 9 9 2 e 8 2 2 : : : 2 8 8 8 e 8 9 9 9 3 2 2 2 2 2 4 2 2 9 9 h h h v h c k h h h h j l l l v Y v k h 9 : : ; = = @ ; ; ; : : 5 : : : 8 5 0 : : 8 9 3 h l h l h j l h h h l l j l l l m m m ' M _ M W R M R _ Q _ / / [ / [ [ / ) ) $.@.$.X.&.$.| @.| @.| | %.| | | ) ) ) / / M m m l m j j j l l l l l k j l l ",
"                                                                    . . . . X X X X X X X X o X X X o o o o X X + # # # + + # # # # + + + + # # # X # # o X X X X X X X X X X X X X X X X X X X X X X X X X X X X X X X X . . . X X X X . . X X X . X X X X X X X X X X X X X . . . . . . . . . . . . . . . . . . . . . . . . . . . . . . . . . . . . . . . . . X . X X X X . . X X X . . . . X X . X X O . . . . . . X X X + + # X X X X o # o X X X X o X X X X X X X X X . . O X X X . . . X X X X X X X + + + + + + + + @ + @ @ + + + + + + + + + + + + + + + + + + # # + X + X X X X X X X X + + + + + @ @ @ @ = : 9 k m N h h h p j b B _ _ n M D  .t.D.Z.z.o.n { | S.t.x.` N 3 2 8 : 8 : ; ; ; $ @ + @ @ @ ; : 2 8 9 9 9 9 9 2 2 2 : : : 8 2 8 e 8 9 9 9 2 3 2 2 2 2 2 2 2 2 3 9 h h h h v h 9 9 h h h h l l l Y v k l h 8 : : ; = ; ; ; ; ; ; : : : : : 0 : 2 0 2 8 h 3 h v h k l h l h h h j j l l N E m m Q m W M _ M R R M R ' ' R M / / / ) $.[ $.[ ) ) X.| | | | @.@.@.#.| #.#.@.) X.] _ R M m j l j h h j j j j l h h l l ",
"                                                                . . . . . X X X X X X X X X X X X X o o o X X X + # # # # + + + # # # # + # # # # # # # o X X X X X X X X X X X X X X X X X X X X X X X X X X X . X X X X . . X X X X X . X X X X X . X X X X X X X X . X . . . . . . . . . . . . . . . . . . . . . . . . . . . . . . . X . X X X X . . . . . . . X . X X X X . X X . . . . X X X X X X O . . . . . . . X # + + + X X X X X # # # X X X X X X X X X X X X X . . o . . . . . . . . X X X X X X X X X X X X X X + # + X X X X X X + + + + + # + X X X + X X X X X X X X X X + # # + + @ @ @ @ @ @ @ = ; 8 c Y m j p p p p b W =.=.J n n (  .D.I.Z.z.{ H ( %.#.| | B a < 4 : : e : : ; ; $ @ @ @ @ @ ; : 2 8 9 h z 9 9 8 2 2 2 2 : 2 2 8 8 9 9 9 h 8 8 8 2 2 2 2 2 2 2 2 3 9 9 9 9 9 9 9 9 h h h h h h h v l j v h q 4 : : ; ; ; ; > ; ; ; : ; : ; ; 5 : : 8 2 3 9 v h v h h l 3 k 9 h h h l l l T m R M m m M M M M W _ _ W M M R _ / / ) ) / / [ ( / [ ( ) | | @.&.#.#.#.#.p.#.@.%.] ] / R M m j j h h h h h h h h k k k ",
"                                                              . . X O X O X X X X X X X X X X X X X o o o X X X # # # # # + + + # # + + + + # # + + # # o X X X X X X X X X X X X X X X X X X X X o X X X X X X . X X X X X X X X X X X . . X X o O X X X X . . X X . . . . . . . . . . . . . . . . . . . . . . . . . . . . . . . . . . X X X X X . . . . . . . . X . X X X . . X X . . . . . X X X X X O . . . . . . . X # # + + X X X X X & # & o X X o X X X X X . . X . . . O . . . . . . . . O O . . O O X O X . X X . . X X X X X X X X X X + + X X X X X X X X X X X X X X X + + + + + + & @ @ @ $ ; ; = @ = 2 9 l v l j p p p p M ] -.=.J n n H e.Z.I.C. .G H X.x.| ( M b 1 - , : : e : : ; = @ $ $ @ @ @ ; : 2 8 9 h c h h 9 2 2 8 2 : 2 2 8 8 9 9 9 h 9 9 9 9 2 2 2 2 8 2 2 2 2 9 2 3 2 9 9 9 3 2 9 c h h h v k j l h c 8 2 : : ; ; ; ; ; ; ; : ; ; ; ; ; : : : 2 8 9 3 k 9 h h 9 h k h h h k l l l N W R m W m R m W M R M R _ W M M / M R / M / M [ / G / / [ ( ( ) #.#.t.t.#.p.e.p.$.) ) / R R m j l h h h x h h h h h h h ",
"                                                          . X X X X X X X X X X X X X X X # X X X X X X o X X # # # # # # + + # # # # + + X X X # # o X X X X X X X X X X X X X X X X X X X X X X X X X X X X X . . X . X X X X X X X X X X X X X O O X X X X . . . . . . . . . . . . . . . . . . . . . . . . . . . . . . . . . . . . X X X . . . . . . . . . . . X X X X X . . . . . . . . . X X X X X X X X . . . . X X X X X # # o X X X # # # # # X X o X X X X X X X X o o O O . . . . X X X X X X O X . . . . . . X X X X X X X X X X X X X X X # # X X X . X X X X X X X + X + @ @ + + + + $ > > > ; = : : - 3 l E l h h p p p m ) ) ] =.n d G { a.y.'.e.{ ( D o.{ H d M h < : : : 8 8 : : : : ; @ @ @ @ @ ; ; : 2 3 9 h h h 9 3 2 8 2 : : : : 8 8 9 h h h z 3 2 2 2 8 2 2 2 2 2 2 2 4 4 9 2 2 3 3 3 3 q q 9 h v j h j l h 9 2 2 : : ; ; ; ; ; ; ; ; ; ; ; ; ; ; : : : 2 8 8 2 9 h h h 9 3 h h h l l j N N l m T R W W W m m m m m M Q _ m M R _ / M M R m M M M / [ ) @.#.#.#.p.a.t.e.t.#.$.[ ) R Q m T l j h h h h h h h h h h ",
"                                                        . . X X X X X X X X X X X # # X o # # X X X X o o X # # # # # # # # # # # # # # # # + + # # # X X X X X X X X X X X X X X X X X X X X X X X X X X X X X X X X X X X X X X X X X X X X X X O O X X X X . . . . . . . . . . . . . . . . . . . . . . . . . . . . . . . . X . . X X X X X X . . . . . . . . X X X X X X . . . . . . . . . X X X X X O X . . . . . X X X X X # o X X X X + + # # + X X X X X X X X X X X X o X X X X O O O X X X X X X X X X X . X X X X X X X X X X X X X X X X X X X X X X o o X # + X + + + + @ @ @ @ @ @ $ > > > ; = = : 3 h h j j j h 3 1 a j m / @./ n n G H { D.C.h.e.%.( ( X...G b b h 2 : : 2 4 8 2 2 : : ; = @ @ @ @ $ = ; : 2 9 h h h h h 9 3 2 : 2 : 2 8 8 9 9 9 h h 3 3 2 4 0 2 8 2 8 8 2 4 q q 8 2 2 2 2 2 4 q 8 9 h k k j l l k h 9 2 2 : : ; ; ; ; > ; ; ; ; ; ; ; ; : : : : 8 0 e e 9 9 h h 9 k k h k l l l N l N m m m m m m m m m m m m m M M R R R R M M m R / _ / ( | &.#.#.#.a.p.t.e.t.@.@.) +./ R m m l l j l j j j l j k h l ",
"                                                    . . X X X X X X X X X X X X X X X X X o X X X o X # o X # # + + # # # # # # X X # # # # # o X # o X X X X X X X X X X X X X X X X X X X X X X X X X X X X X X X X X X X X X X X X X X X X X X X X X X X . . . . . . . . . . . . . . . . . . . . . . . . . . . . . . . . X O . . X X X X X X . . . . . X X X X X X X X X . . . . . . . . . . X . X X O X . . . . . X X X X X X o X X X X + + # # # X X X X X X X X X X X X X X X X X X X X X X X X X X X X X X X X X X X X X # X X X X X X X X X + X + # # X # # + + + + @ + + @ ; = = ; > ; ; > ; ; ; = : 2 c c v x v v h 3 s x b [ ) $.M n n n ( p.y.y.h.} o.H { ( ..n M j 3 2 : : 2 4 8 2 : : : ; ; @ @ @ @ @ @ ; : 2 9 3 h h h h 9 3 2 4 8 2 : 2 8 9 9 9 9 h 9 9 9 8 q 2 2 2 2 2 2 2 4 2 8 2 2 : : : 2 q 3 9 z h h l N j l h 9 3 8 8 : ; ; ; ; ; ; ; ; ; ; ; ; ; ; : : : : 8 8 e 9 9 h h 9 k k h h j l k j j l N N m T m T m T W m m R m m M m m m M M m M M M R [ [ ) | #.#.#.p.p.a.e.e.#.@.@.$.[ / R R m l l N N m m l j h h h ",
"                                                  . . X X X X X X X X X X X X X X X X X X X X X X X X o o X + # + + # # # # + # X X + + + + o X X X o o X X X X X X X X X X X X X X X X X X X o X X X X X X X X X X X X X X X X X X X X X X X X X X X X . . . . . . . . . . . . . . . . . . . . . . . . . . . . . . . . . . X X X X X X X X X X . . . . . . X X X X X X X X . . . . . . . . . . X X X X O X . . . . . . X X X X X o # X X X X X + # # X X X X X X X X X X X X X X X X X X X X X X X X X X X X X X X X X X X X X X X X X X X + + X + + + + # # + + + + @ @ @ @ @ @ ; ; ; ; : 7 : = : ; ; ; : 4 z C x x x x h 3 3 x V M $.$.[ b n n ..%.a.y.y.r.e.| G ( ( ` G J j 3 2 : 2 8 8 8 2 : : : ; = @ @ + @ @ @ ; : 2 9 9 h h h h h 9 9 8 2 : : 2 8 9 9 9 9 h 9 h 9 9 9 9 9 9 9 9 3 3 3 2 8 8 : : : : 2 8 q 8 9 h h l l j l h h 9 8 8 : = ; ; ; ; ; = ; ; ; ; ; ; ; ; ; : : : 2 8 9 9 h 9 k 9 h h h h k h l l l N m m m m m m N m m m m m m m m m m m m m W m R M ] [ @.) @.#.#.p.t.p.#.#.#.%.$.) ) [ [ ' R m m T m m m m N j j l ",
"                                              . X X X X o o X X X X X X X X X X X # o X o # # X o X o # X X X # + + # # # # X # X + + X X X X X X X X X X X X X X X X X X X X X X X X X X X X X X X X X X X X X X X X X X X X X X X X X X X X X X X . . . . . . . . . . . . . . . . . . . . . . . . . . . . . . . . . . . . . . X X X X X X . . . . . . . . X X X X X X X . . . . . . . . . . . . . . X X . . . . . . . . X X X X o # o X X X X X # # # # + X X X X X X X X X X X X X X X X X X X X X X X X X X X X X X X X + + + + X X X + + + + + + + + $ $ $ @ $ $ ; > ; : ; : : : : : : = - = : ; ; : : 8 c C z j a p 3 p x j B *.] ] M n d J :.%.a.y.y.e.u.{ H { X.*.` B p 3 2 2 8 0 8 8 8 8 8 2 : ; ; $ @ @ @ @ ; ; 2 8 9 h h h h h h 9 9 8 2 : 2 8 8 8 9 9 9 9 9 h 9 h 9 k h h h h h h 3 2 : : : : : : 2 q 2 3 h h h x x h l c h 8 8 : ; ; ; ; ; $ $ ; ; ; $ $ ; ; ; ; ; ; : : 8 q 9 c 9 c 9 9 k h h h k j j j l l j N l N l l l j j m m N m m m m m m W m R _ / / [ ) $.@.#.#.p.#.#.#.#.&.%.| ) ) ) ] _ ' R R R R M M m m l j j ",
"                                            X X X X X o o o o X o # o o o X X X X # o X o # # X # # # # # X + # # # # # # + X + # # # + X X X X X X X X X X X X X X X X X X X X X X X X X X X X X X X X X X X X X X X . X X X X X X X X X X . . X . . . . . . . . . . . . . . . . . . . . . . . . . . . . . . . . . . . . . . . X X . . . . . . . . . . . X X X X X . . . . . . . . . . . . . . . X . . . . . X X . . . . . X X X o # o X X X X X # # # # # X X X X X X X X O O O X X X # # # # X X X X X X X X X X X X + + + + + # + + + + + + @ @ @ @ $ $ > > = ; ; : : : : : : : : 2 2 2 : 2 2 2 : : 2 2 2 9 3 p p p j x x j b B *.] *.b f n ` X. .p.#.e.8.H G H ..:.*.=.b 1 3 2 2 8 0 8 2 8 8 8 2 : : ; ; @ + @ @ @ ; : 2 8 h h h l l h h 9 8 8 8 2 2 2 2 8 8 9 8 9 h h l h h h h j h h h 3 2 8 2 : : : : 2 4 2 2 9 9 h h x h h c h 9 8 : : ; ; ; = ; ; ; ; $ $ $ $ $ $ = ; ; : : 8 8 2 z c k 9 9 h h h h l 9 h h j j j E l E N N l l l m m m l m m m m m W m R m ' M ] [ @.@.@.#.&.#.#.#.#.%.%.| ) ) ) [ / ' / / / / / / R R T m T ",
"                                        X X X X X X X o o o o o # # # # o o o o X # # X X o o X # + # # # X X # # # # # # + X # # # # o X X X X X X X X X X X X X X X X X X X X X X X X X X X X X X X X X X X X X X . . X X X X X X X X X . . . X . . . . . . . . . . . . . . . . . . . . . . . . . . . . . . . . . X . . . X X X X . . . . . . . . . . X X X X X X X . . . . . . . . . . . . . . X . X . . . . . . . . . . . . X X o o X X X X X o # # # # X X X X X X X X X X O X X X # # # # # o o X X X X X X X # # + + @ $ $ # $ # # + @ + @ + @ @ = @ = ; = ; = : : : 2 2 : 2 2 4 4 4 4 0 4 4 2 2 2 2 2 3 < 1 3 j N N j p b n ) ] ` d d D G :.|  .B.p.( G n G ` -._ B j 3 2 2 2 2 8 2 2 e 9 8 8 2 : : ; @ @ @ @ @ ; ; : 2 9 h l l j l h h 9 8 8 2 2 2 2 2 9 e 8 9 c k v l m l m N l j j h 9 9 8 2 2 2 2 2 2 2 4 3 2 3 h h h h h h 9 8 2 : ; ; ; = ; ; ; $ $ $ $ $ $ $ ; ; ; : : 2 2 2 e q 9 9 9 9 9 h h h k v h l k h l h l j j l j j l j l j j l m N m m Q Q M / / $.) ) X.@.%.@.&.| &.%.| X.) { ( ] [ [ ) [ / / / [ [ / R m m m ",
"                                      . X X X X X X o o o X o # # # # # # o o o # # # # # # # o + X # # X X X # # # # # # # # # X + # o X X X X X X X X X X X X X X X X X X X X o X X X X X X . X X X X X X X X X . . . . . X X X X X X X X X X . . . . . . . . . . . . . . . . . . . . . . . . . . . . . . . . . . X X X O O O X X . . . . . . X X X X X X X X X X . X . . . . . . . . . . . . X X X . . . . X . . . . . . . . . X X X X X X X X X X X # # + X X X X X X X X X O X X X X X X X # # o X X X X X + # # # # @ $ $ @ @ $ $ $ $ $ $ ; @ = : : = = : = - = - - : 4 2 2 4 3 2 < 2 4 2 2 2 < < < < < 3 p h N =.W j j M n | %.] G n f f G {  .#.e.%.{ n n / ] ' M j p 3 2 8 2 2 8 2 2 e e e 8 8 8 : ; @ $ @ + @ ; ; : : 2 h h h h j l l 9 9 8 2 2 : 2 8 2 8 9 9 k k v l T T T T m j j h h 9 3 2 2 4 2 2 2 2 8 4 2 2 8 3 h h k k h w 0 : ; ; ; @ ; > ; $ $ $ $ $ $ $ ; ; ; ; ; : : 2 2 2 2 w 9 2 9 k h 9 h v h l j h E j l j l l l l l j l l j j l E E m W M _ R ] / ) [ ) ) %.) $.( X.| | $.( { / ] ) ) [ [ ) ) [ [ [ [ [ R m T ",
"                                  X X X X X X X X X o o # # # # # # # # # # # + + + # # X + + + # # X X # # # X # # # # + X + # o o X X X X X X X X X X X X . . X X X X X X X X X X X X X X X X X X X X X X X X X X X X X X X X X X X . . . X X . . . . . . . . . . . . . . . . . . . . . . . . . . . . . . . . X X X . . . . . X X X X . . . . . . X X X o O X X X . X . . . . . . . . . . . . . X O O X X X X X X . . . . . . . X X o o O X X X X X X # # + X X X X X X o O X X X X X X X + X X X X X X X X X # + + # % 7 $ @ ; ; @ $ @ ; @ ; ; ; ; = = - - - - : : - 2 2 9 9 z q 3 3 3 2 - < 3 - < < 3 3 h h v W ^ *.R b j / @.#.&.{ ` n n G X.u.{ t.#.:.n n n G ' _ m j p 3 2 2 2 : : 2 2 2 8 9 9 2 8 : : ; @ @ @ @ @ ; : 8 9 9 h l N l j j v h 8 2 2 2 8 : 2 8 8 9 9 h j j m m T R T W m j h h h 3 2 3 2 2 : 2 4 2 2 2 4 q h h h h c 9 8 : : ; ; ; ; ; $ $ $ $ $ $ $ $ $ @ @ ; : : : : 2 8 : 2 2 8 9 9 9 9 c h h h l k l j l l j j l l l j h j N j m m W W M R _ R R M / [ ] [ ] ) ) ) [ ] $.( [ ) [ [ [ [ / [ ) @.[ ) ) [ / Q R R ",
"                                X . X X X X X X X o o o # # # # # # # # # # # # X # # # # + X X # # # # # # # + # # # # # # # # o o X X X X X X X X X X X X X X X X X X X X X X X X X X X X X X X X X X X . X X X X X X X X X X X X X . . . . . . . . . . . . . . . . . . . . . . . . . . . . . . . . . . . . . X X X X . . . . X X . . . . . . . X X X X O O X X X . . . . . . . . . . . . . . . . O O X X . X . . . . . . . . . X X o o O X X X X X X # # # + X X X X X o o X o X X X X X X X X X X X X X X X X + $ $ $ $ $ ; ; ; $ ; = ; ; : e 0 : 2 8 q 9 8 2 8 8 < 9 v ~ ~ C c 3 3 3 3 < 2 3 3 j l N m N W W W N m m m M | #.p.S.$./ n D ( { u.a.t. .H J J M M B b j p 3 2 2 2 2 : 2 2 2 2 z 9 9 8 8 : : ; @ @ @ @ @ ; ; : 8 9 h h j l l l l h h 9 - - q 2 2 8 8 9 9 h j j m m R m T R m N v N x h 3 9 9 3 2 2 2 2 : : 2 e h k h h h 9 2 : : ; ; ; ; ; ; $ $ $ $ $ $ $ $ @ @ @ ; ; : : : : : 2 8 2 8 9 8 9 9 9 h h v k j h h l j l h j j l j N m m l m m W R m M M R / / / / / ] ) ) ) / [ ) / ) [ ) / ) / [ / ) [ $.[ ) [ [ / R R ",
"                              . X X X X X X X X o o + + # # + + # + X X # # X X # # # # # + X X # # # # + + + # # # + + # # o o o X X X X X X X X X X X X X X X X X X X X X X X X X X X X X X X X X X X . . . . X X X X . . X X X X X X X . . . . . . . . . . . . . . . . . . . . . . . . . . . . . . . . . . . X X X X X X X X X X . . . . . . . X X X X X X X X X . . . . . . . . . . . . . . . . O O X X X X X X . . . . . . . . X X X X X X X X X X + # # + X X X X X X X X o X X X X X X X # # # X X X + # + + @ $ $ > ; ; ; : : : : : : : q 8 2 8 z z h h c c c h z h h h h h 3 3 3 9 3 h l N Q ' ' ' *.' N b j a b M / x.B.B.p.| G n G ( o.e.8.u.%.-.B a B m j p 3 3 2 2 2 2 2 2 2 2 4 2 2 3 9 9 q 2 - @ ; $ @ @ @ ; ; : 8 9 h k l N E E l v h 3 8 2 2 2 2 8 8 3 3 h x j l m Q T Q R R m m m x j h p 3 3 8 4 2 2 : : 8 e 9 l h h 9 9 2 2 : : = = = $ $ $ @ $ $ $ $ $ $ @ ; ; ; ; : : : : : 8 8 : 2 2 8 9 9 9 h h h k h j j j N j N j m j l N m m m m m R M R R R R R / / / / / M M / / / / R ] / [ M [ / $.+.[ ) [ @.) $.) [ / R ",
"                          . . . X X X X o X X X o X X + # # # + X X X X + X X X # # # X X + # # # # # # # + + # # # X X o # o X X X X X X X X X X X X X X X X X X X X X X X X X X X X X X X X X X X X . . . . X . . . . . . X X . X X X X . . . . . . . . . . . . . . . . . . . . . . . . . . . . . . . . . . . X X X X X X X X X X X . . . . . . . X X X X X X X X . . . . . . . . . . . . . . . . X O X X X X X X . . . . . . . . . X X X X X X X X X + # # # + + X X X X X o X X X X X X + + + + + + + + + + @ $ @ @ ; ; ; = : : 2 e 2 8 2 2 2 - < 2 9 h v ~ Z x h h x 3 3 3 3 h p z p h h v E Q ' ' *.*.' M j j x u b M G :.S.D.&.( b n H X.{ e.a.z.{ / n b B m j p 3 2 2 : 2 2 2 2 2 2 2 2 C z h 3 9 8 8 5 ; $ @ @ $ ; ; : : 8 h k l m m m W j h h 3 2 q - 2 2 2 2 3 9 h x j N W R ' Q Q R W m m m x h h h 9 8 2 2 2 2 2 8 9 h h h 9 9 3 8 : : = = ; ; ; ; @ $ $ $ $ $ $ @ ; $ @ = ; ; ; ; : : : : : : 2 2 8 9 h k h l j l l N j E l W l l N m m m m m R M m R R Q M R R _ M M / / _ ' R M R / / / M [ / [ [ ) $.$.:.@.) @.) [ / / ",
"                        X X X X X X X X X o o X # + + + # # # + # # # # # # # # # # # # # # # # # + + + # # X X # + X X o # o X X X X X X X X X X X X X X X . . X X X X X X X X X X X X X X X X X . . . . . . X . . . . X X X X . X X X X . . . . . . . . . . . . . . . . . . . . . . . . . . . . . . . . . . . X X X X X X X X . . . . . . . . . X X X X X X X . . . . . . . . . . . . . . . . . . X O X X X . . . . . . . . . . . . . X X X X X X X X + # # # $ $ + + X X X o # X X X X X + + + + @ $ @ @ @ @ @ $ ; ; = = ; : - 2 e w 8 8 2 2 2 < < 3 h l W =.N x p p j p j j j m j x p p p Z m T Q R / R M j a j b u b M G ( #.z.%.( d n { x.z.e.u.{ { G J j m v h 3 2 2 : : 2 : 2 2 2 2 2 4 3 3 z 9 c 8 2 = ; ; @ @ $ $ ; ; : 8 9 k l m m m j E l h h 3 2 8 2 2 2 2 2 3 9 h l E m R R Q _ ' R m m m N j h h h 9 3 2 2 2 2 2 3 9 h 3 h 9 9 8 2 : : ; ; ; ; ; @ @ @ $ $ $ $ $ ; ; ; ; ; ; ; ; ; ; : : : : 2 4 2 9 h v l l j j l m E l m j m m m m m m R m R R m m m R R _ R M _ R M M M R R _ R / M / M ) / ) [ $.@.[ @.| @.&.) ) [ [ ",
"                    X X X X X X X X X X o o o o # # # # + + + + # # # # # # # # X X # # # # # + # # + + # # X X # + X X # o X X X X X X X X X X X X X X X . . . X X X X X X X X X X X X X X X . . . . . . . X X X . X . . . X . . . . . . . . . . . . . . . . . . . . . . . . . . . . . . . . . . . . . . . . X X X X X X X X X . . . . . . . . X . X X X X X X . . . . . . . . . . . . . . . . . . . X X X X . X . . . . . . . . . . . X X X X X X X X X # # $ $ $ $ # + X X X # # # X X X + + $ @ @ @ $ $ ; ; = ; ; = = - : 2 2 9 c C 9 8 3 9 3 3 3 h N W B B m p p j N p a B b j j j p 3 3 h j j m b b b M b b b a a _ X.X.H ( | { G b G X.x.z.S.a. .H M b b x x h 3 2 : : : : : : : : 2 4 4 z h z 9 z 9 e 0 : ; ; ; $ @ = ; : 0 q k l m m M m m l v h 9 h 2 2 2 2 2 4 4 3 9 h l l W m Q / ' R T m m m j h h h 9 9 3 3 2 2 3 3 3 h 3 c 9 9 9 8 : : ; ; ; ; ; = = = ; ; $ $ $ ; > ; ; ; ; ; ; ; ; : : : : 2 4 2 9 9 k l j l l m T m T j T m m m M m R m R M M m T M R R R M M m m m R _ m m m M R R R _ / [ / [ X.) &.@.&.@.@.@.) [ [ ",
"                  . X X X X X X X X X X o o # # # # # # + + + + + # # # X X # # + # # # # # # # # + + + # # X X # # o # X o X X X X X X X X X X X X X X X . . . X X X X X X X X X X X X X X . . . . . X X X X X X X X X . . . . . . . . . . . . . . . . . . . . . . . . . . . . . . . . . . . . . . . . . X X X X X X X X X . . . . X X . . . . X X X X X X . X . . . . . . . . . . . . . . . . . . . . X X X X X . . . . . . . . . . . O O X X X X X X X + # # $ $ $ $ $ + X X # # # X X + + + @ @ @ @ @ = = ; ; ; = : : 8 2 : 3 h v ! h 9 3 9 z h h v N N j a a a m W _ b b M b b m j m p p p j a b j b b B n b b a B *.:.x. .( ( G b n / X.%.u.D.u.o.D G a j h h h 4 2 , , : : : : : : 2 4 4 2 3 h h c 9 q : : ; ; ; = @ = ; ; : 2 9 h j m R m Q l j E c 9 3 2 2 2 4 4 2 4 3 3 h j N R R M M Q R T T T T l l h h h h 3 3 3 3 3 9 9 9 c c 9 9 8 2 : : : ; ; ; ; ; ; ; ; $ $ ; $ $ ; ; ; $ ; ; ; ; ; : : : : 2 8 8 9 h h h l m T m m j R R R m M M M R M R M R R Q _ R R m M R M M m m m m W R M R / / _ / / [ $.) $.( @.| %.@.@.+.) [ ",
"              . . . X X X X X X X X X X X o # # + # # # + + # # # # # # # # # # # # # + + # # # # + # + + X o X # # # # X X X o X X X X X X X X X X X X X . . . X X X X X X X X X X X X X . . . . . X X X X . . X X X X X . . . . . . . . . . . . . . . . . . . . . . . . . . . . . . . . . . . . . . . . X X X X X X X X X . . . . . . . . . X O X X X X . . X . . . . . . . . . . . . . . . . . . . . X X X X X . . . . . . . . . . X O O X X X X X X X + # + $ $ > 7 7 $ + X + # # + + # + + ; ; 7 7 : : : : = : : 2 2 2 2 3 3 h v v h h h c v v x j j j j j j -.,./ M _ ' b R R ' M B a b N W b b b G G _ M n b a ] X.%.S.u.( K J d n G X.%.u.z. .G n M a p 3 9 9 0 , , , : : : : : : 2 2 4 h h z 3 z z w e : ; = ; = @ $ ; ; : 2 9 k l m Q m W T N l h h 3 9 2 2 4 4 2 2 4 9 9 h j m m R R T m l l m T N l l l l h h 3 3 p 3 9 3 z c v h h 9 9 2 : : : : ; : ; ; ; ; ; ; ; ; > ; ; ; ; ; ; 7 ; ; ; ; ; : : 2 2 k h l j l l m m m m m R R R R R _ / ' R _ _ R m M m / R _ R m W M M M m W m m R M ' / ` / X.| | @.:.| | @.@.$.+.) [ ",
"            . . X X X X X X X o X X + # + + X X # # + + + + # # # # # # # # # # + # # # # # + + # # # # X X X X # # # # + + X X # X X X X X X X X X X X X X X X . X X . X X X X . . . X X X . . . . . . . . . . . . . . . . . . . . . . . . . . . . . . . . . . . . . . . . . . . . . . . . . . X . . . X X X X . . . . . . . X X X X X . . X X . . . . . . . . . . . . . . . . . . . . . . . . . . . . X X X . X . . . . . . . . . . . X X X X X X X X X X # # $ $ > 7 7 @ @ @ + + + $ $ + + + $ $ 7 : 2 8 2 : : : : e 9 3 h p 3 h h l l l v v l l N m j m R m n [ $.] *.M M M ] R *._ G / d G / X./ M / / M n G n G X.( #.B.#.` J n n M / ) ( o.{ ..G B j z 3 < 2 2 8 2 : : : : : : : : : : 2 3 3 h h h 9 q 8 2 : : = @ @ @ @ @ ; 2 8 h l m m R R m m N N l h h 9 3 2 2 2 2 2 2 9 9 h h N l l m m m N E E E N l l j l l j p 3 h 3 h h k v E l l v h 9 2 : : 5 5 ; ; ; ; = 5 ; : : ; ; ; : : : ; ; ; = = : 5 8 2 8 9 h l l l N m R R m Q R R R M M [ M [ R [ / / / / / / M R _ _ _ R R R m M / R Q R _ ] / / ) | &.#.&.#.p.#.#.[ [ [ [ ",
"          . . . X . X X X X o # X # # # # # # # # # + + + + # # # # + # # # # # + # # # # # + + # # # # + + X X X X + + + + X X X X X X X X X X . X X X X X X X . . . . X X X X . . . . X X . . . . . . . . . . . . . . . . . . . . . . . . . . . . . . . . . . . . . . . . . . . . . . . . X . . . . . X X X X . . X . . . . . X X . X . . X X . . . . . . . . . . . . . . . . . . . . . . . . . X . X X X X X . . . . . . . . . . . . . X X X o X X X X X X # + $ > 6 6 ; ; @ @ + @ $ $ ; $ $ @ $ : : 2 9 2 2 : : 8 q v l j m p h h h l j l j l E W m m T R M M G [ G M / M / M G >.X.] ( G ( | x.&.$.$.) / M n G G x.{ &.#.| G n d b n ( $.X.| { G =.x h < - - 2 8 8 8 8 8 : : : : : : : : 2 3 3 h h 9 9 q 4 2 : ; = @ $ @ @ = ; : 2 9 k l N m R R R T N j h h h h 9 3 2 2 8 2 8 9 k h l l l l l l l N E E E T E E E l j h h h h h j j l N m j l l v 9 2 8 : 5 : ; 5 ; : : : : : : 5 5 5 : ; ; : ; ; ; : : : 0 2 9 h h j N m m m R m Q R R R [ / [ [ ) ) ) ) ] [ G / / / R / / / R R R M R / R R R M _ / G [ | | #.#.#.#.#.| ) [ ( [ ",
"      . . X X . X . X X o X o # X + # # # # # # # # # + + + + + # + + + # # # # # # # # # # # # # # # # + + X X X + + + + + X X X X X X X X X X . . . . . . . . . . X . X X X X X . . . X X . . X X . . . . . . . . . . . . . . . . . . . . . . . . . . . . . . . . . . . . . . . . . . X . . . . . . . X X X X X X X . . . . . . . . X . X X X . . . . . . . . . . . . . . . . . . . . . . . . . X . X X X X X . . . . . . . . . . . . . X X X o o X X X X X X + $ $ 7 6 7 > @ $ @ @ $ > 7 > = @ = : 8 9 k 9 9 e 2 e q ! N j W j h p p h h h j l ^ =.W m R R M ] :.[ ] n n M n G [ >.] ` G G G ( %.%.$.] [ G n n G ..:.z.u.&.( n n n n G X.%.%.{ G ` B N 1 < - : 2 8 8 8 8 8 8 : : : : : : : 2 3 3 h h 9 9 8 2 2 : ; ; @ @ @ $ @ ; : : 2 9 j l W R R R m m j j h h h 9 3 2 2 4 2 2 9 9 h h l j j j j j l N E E W m m m l j h h x x j j l m m W m W m l k 9 e 8 8 5 : 0 : : : ; : : : 5 5 5 5 : : : : : : : : : 2 8 3 3 h x j N R R Q R ' ' ' [ / ] ) $.[ ( [ $.] ) / [ [ / / / R ' M / M / / / [ [ / / / / ) { | #.#.#.p.#.@.@.) [ [ / ",
"  . . . X X X X X X X X o X X X X X X # + + # # # # + + + + # # # # + # # # # + # # # # # # # # # # # # + X X X X X + + + + X X X X X X X X X X . . . . . . . . X X X . . X X X X . . . X X . . . . . . . . . . . . . . . . . . . . . . . . . . . . . . . . . . . . . . . . . . . . . . X X X X X X X X X X X X X X X . . . . . . X X X . X X X . . . . . . . . . . . . . . . . . . . . . . . . . X X X X X X X . . . . . . . . . . . . . . X X o X X X X X X X + $ $ $ > 7 7 $ $ @ @ $ > 6 > ; = : e w l l h h k 9 9 9 v l h E N v h 3 3 3 h l x ~ E N m m m m >.&.S.>.M G n M M G [ / ) / ) ( | &.%.$.$.] ` / G ` ( o.:.x.X.G n n M G ) %.&.| ( H G R j 3 < 2 8 8 8 8 2 8 8 8 : : : : : : : 2 3 3 9 9 9 q e 2 8 : ; ; $ + + @ @ @ ; : 2 9 h j T R R R m m m l l k h h 9 3 2 2 2 2 9 9 h 3 h h h j j j j l N E W m l m N N l j j l j j T T R Q ' _ m m h h k 9 8 2 2 : 8 = : ; : : : 5 8 8 0 8 8 8 2 2 : 2 2 2 8 2 9 z h j N j m m R M / R / [ ] ) / ] ) $.( ) ) ) ) ) [ / / ] R / [ M ] / ] / / / / / / [ ) ) %.| p.p.t.#.p.@.| ) ) [ ",
"O X X . X X X X X X X o # X X X X X # # + + # # + + + + # # # # # # # # # # # # # # # # + + # # # + + X + + + X X X + + + + X X X X X X X X X X . . . . . . . . X . . . . . X . X X . X X X . . . . . X X X . . . . . . . . . . . . . . . . . . . . . . . . . . . . . . . . . . . . . . X . X X X X . . X X . . X X . . . . . . . . X X X X X X . . . . . . . . . . . . . . . . . . . . . . . . . X X X X X . . . . . . . . . . . . . . . . . . X X X X X X X X X # + $ $ > 7 $ $ $ @ $ ; 6 6 5 : : 9 k l N j l l k 3 9 v h l ^ E N l h 3 3 h v h x j j x x j b M ) ] ] M d _ M M G G [ X.) ..( | @.) ) ` G G B G ` G ( X.X.G n n d G ` :.x.%.#.( ( / M p 3 2 : q e e 8 8 2 8 : : : : : : : 2 8 2 3 9 9 q q q 8 2 : ; ; $ + + + + @ ; : 2 8 h h l m R Q R M m m N l h h h 9 9 9 9 2 9 9 h 3 h h h h h h h j l N l l N N l l l N j l j l T R R R R _ R R m j k 9 e 8 8 2 8 ; 5 : : 5 8 2 8 8 8 8 8 8 8 4 2 4 8 8 3 z 9 9 l x h l b M ' _ ] [ ) ) [ ) $.$.) ( ) $.[ | X.) [ / / ] M ) / [ ) ] ) [ [ / [ [ / [ ) ) @.&.#.#.B.t.#.&.| X.] ) ",
"X X X X X X X X X X X X # # o # # # # # # # # # + + + # # # # # # # + # # # # # # # # # + + + # X X X X + X X X X X + + + + X X X X X X X X X X . . . X X X X X X . . . . X X . X . . X X . . . . . . . . . . . . . . . . . . . . . . . . . . . . . . . . . . . . . . . . . . . . . . . X X X X . . . . X X X X . . . . X X . X X . X X X X X X . . . . . . . . . . . . . . . . . . . . . . . . . X X X X X . . . . . . . . . . . . . . . . . . . X X X X X X X X # + $ $ $ > $ $ $ $ @ @ : 6 0 8 8 9 k l m N E l v 9 h h 3 l E N N v h 3 3 p h v x p h j j j j m m ] M M n n M ` _ G [ ( ( ) ) $.| ( ` _ M B M G G H G X.n G G J b G ] :.x.%.&.| ( ] b h 2 4 - 8 8 e e 8 8 : : : : : : : 2 2 2 2 3 9 9 9 q q 8 : : ; ; $ @ + + @ @ = ; : 2 9 k j l T R R M m m N l l h h h 9 9 9 9 9 9 h 3 9 h h h h h h h j j l j j l l l j j j m l m m R M R M / R R R m l h 9 z 2 8 2 : : 8 5 8 8 8 8 9 9 9 z 9 9 9 9 9 9 9 h 3 h h h j N l m M R M / R [ ) ] ) ) ) $.$.$.) | | ) [ [ [ [ ) R ] / ] [ $.) ) $.] ] ) [ [ | | &.@.t.p.t.#.p.#.| ) [ [ ",
"X X X X X X X X X X X o o o o # # # # # # # # # # + + # # # # # + # # # # # # # + # # # + + # # # X + + + X X X X X X + + X X X X X X X X X X X X X X X X X X X . . . X . X . . X X . X X . . . . . X . . . . . . . . . . . . . . . . . . . . . . . . . . . . . . . . . . . . . . . . . . . X . . . X X X X . X . . . . . . X X X X X X X X X X . . . . . . . . . . . . . . . . . . . . . . . . . X X X X . . . X . . . . . . . . . . . . . . . . . X X X X X X X X X # $ @ $ @ $ > > @ @ = : 8 e 8 9 h l N m W N l x j j h j m N l j p p p p p x h j h p p x m R [ ' ' _ b M M _ G G M G / ] X.( ) / G n n J M n G G { ) ( K _ G n / [ X.x.%.%.| ] M m 3 9 2 4 4 8 8 8 8 8 : : : : : : 2 : : 2 2 2 8 8 8 9 e 8 : : : ; $ $ @ + @ @ $ ; ; : 8 h j l l m M R R R m l l l h h h 9 9 9 9 9 3 h h h h h h h h h j j N l j l N N l j l l N m m m R R / _ R M m m m j h c 3 9 8 8 : e 8 8 8 9 9 9 h h h h h c h h h h h h h h j l m m R R R M / [ ] $.[ ) $.) ) ) X.| ) { [ ( ) ) [ [ / [ +./ $./ $.) ] [ ) ) / / | | #.#.#.t.p.t.#.&.| X.) ) ",
"X X X X X X X X X X X X X X X # # # # # + # # # + # # # # # # # # # # # # # + X + + # # + + + + # # # + + X X X X X X X X X X X o X X X X X X X X X X X X X X X . . . X . . . . X X . . X . . . . . X . X . . . . . . . . . . . . . . . . . . . . . . . . . . . . . . . . . . . . . . . . . . . X X X X X X X X . . . . . . X X X X X X X X X X . . . . . . . . . . . . . . . . . . . . . . . . . X X X X . . . X X . . . . . . . . . . . . . . . . X X X X . . X X X + # + + + + $ 7 ; = = : 2 8 8 9 k l N m N N j N N l m j m E m h p p h h h 3 p h p 1 p Z W m Q Q _ b b b =._ M _ n / / / M / ) / n a b J M G ( ( G | ] -.B b b G G ( %.| | X./ M h 3 2 e w 8 8 8 2 : 2 : : : : : : 2 2 2 2 8 2 8 8 3 8 8 8 2 8 : ; @ $ $ + @ @ $ ; ; ; 2 9 9 k l T W W R m E E N l h h h h 9 h h h 9 h h h c k h h l l j j j j j j j j l l l l N N l m R Q _ ' _ R T m m j x c h 9 q 2 8 8 8 8 8 8 9 h v v j j l v v h h h l j l l l m m m m m M M ' _ / / ) ) ) ( [ $.| ( ) | ) [ ) [ [ / / ] / ] [ ) ) $.) [ ] $.) ( | #.| #.#.p.#.p.#.#.| ) ) ( ",
"X X X X X X X X X X X o X o # # + + + + # # + + # # # # # # # # + + # # # # # # # # # # # + X X # # # X X X X o X X X X X X X X X X X X X X X X X X X X X X . . X . . . . . . X . . . . X . . . . . . . . . . . . . . . . . . . . . . . . . . . . . . . . . . . . . . . . . . . . . . . . . X X . . . . . . . . . . . . . . X X X . . . X X X . . . . . . . . . . . . . . . . . . . . . . . . . . X X X . . X X . . . . . . . . . . . . . . . . . . . X X . . X . X # # # + + + + $ ; ; = = - 2 8 0 8 q v x j N N j =.j m Q j j m m E h l p h x j p p p p p x N W m Q *.m m b _ M M / / b M n M n ( M J b b B / ( G | | ( $.[ G n d M ` G ( | ( ] R m h 3 4 q w e 8 8 8 2 : : : 2 : : : 0 8 0 2 2 8 2 8 9 8 e 8 2 2 : ; $ @ @ $ $ $ @ $ ; ; : 9 9 k E N m m M m N l l j j j k h v h h 9 k h h h h h h h h l l h l l l j l l v l j j l j j l T Q m m R Q W m l l l x h h 9 9 9 e e 9 9 9 h h x N N m l j l m j E N N m m m m Q m M m M M R / R R M [ [ ) ) ) [ X.( ) ] / ) ) G / / M / [ ] $./ [ ) ) ) ) ) ( ( | #.#.p.#.t.p.#.#.&.X.) ( ",
"X X X X X o X X X X # # o o + X # # # # # # # + # # # # # # # $ # # # # # + + + + X + + # # # # # # o X X X X X o X X X X X X X X X X X X X X X X X X X X X . . . . . . . . . X X . . . . . . . . . . . . . . . . . . . . . . . . . . . . . . . . . . . . . . . . . . . . . . . . . . . . . X X . . . . X X . . X X . X . X X X O X . . X X X . . . . . . . . . . . . . . . . . . . . . . . . X . X X X . . X X . . . . . . . . . . . . . . . . . . . X X . . X X X X X + + + $ @ $ ; 5 : - - - : 0 0 8 q h p p N N ~ b j m M W m j N j m j l j j h j h j p p a m j m j m j b M b b M M _ M b M ` ] _ B n b B / ( | | p.) %.X.G d b n b ( / / G M b p 3 2 0 0 q 8 8 8 2 2 2 : : : : : : : : 2 : 2 8 2 8 9 9 9 e 8 8 : : ; @ @ $ $ + @ @ @ = ; 8 8 9 h j l m m j m N N N N l j h h k 3 h h k 9 k l l v l l l l j j l j h h j l l j l l j k j l E T m m T m m l l l l v k h 9 9 9 9 9 9 h j j l N m m R m W W m R m m R R M R ' R _ R R M M / / [ / ) [ ) [ [ ( ) ( ) [ [ ) [ / / / / / / / ] ] ) ] [ [ [ | | | @.#.#.p.#.t.p.#.&.| | { { ",
"X X X X X X X X + + # # # # + + # # # # # # # # # # # # # # # $ $ # # # # # + + + + + # # + X + # # # o X X X X o o o X X X X X X X X X X X X X X X X X X X X . . . X X X . . . X . X . . . . . . . . . . . . . . . . . . . . . . . . . . . . . . . . . . . . . . . . . . . . . . . . . . . X X . . X X X X X X X X X X X X X o O X X X X X X X . . . . . . . . . . . . . . . . . . . . . . . X . X X X . . . X X . . . . . . . . . . . . . . . . . . X X . X X X X X X X + # $ $ @ ; 6 0 : - - = 7 , : 4 z 9 3 3 x N W B B B m W R W T j j N j N m N m N j j a j m m j _ W m m M m b b _ M b M ] _ ' b b b G [ X.%.@.&.| %.) n n b b G n ` / b m j h 2 q 2 q 4 8 8 8 2 : 2 : : : : : : : : : 2 8 8 2 3 9 3 9 9 9 8 8 : ; ; $ $ @ + @ $ @ @ ; : 8 9 9 k l N N m N N N N E E N l l l h h h h h k l l v v x l l j l l j h h h l l h h k k k k k j l N N N l l l l l l l k k h 9 9 9 h h k l l m m M m Q Q Q ' Q R R R / / / [ / / R R _ / / [ / / [ [ ) ) [ [ [ [ [ ] / / / M / M R / / / / ] ) ) [ [ ) ) ( ( | &.#.#.t.#.&.p.&.&.) ) ) ) ",
"o X X X X o # # X + + # # # # # # # + # # # # + # # $ # # # # $ $ # + # # # # + # # # # # # + X # # o X X X X X o X X X X X X X X X X X X X X X X X X X X X X X . . X . X . . . X . X . . . . . . . . . . . . . . . . . . . . . . . . . . . . . . . . . . . . . . . . . . . . . . . . . . . X X . . . X X X X X X X X X X X X X X X X X X X X X . . . . . . . . . . . . . . . . . . . . . . . X . X X X X . . X X X . . . . . . . . . . . . . . . . . . X . X X X X X X X + + + $ @ ; 5 r e 2 - @ ; : - : q q 9 3 h j j j N N W m m m m h j j m E B W W ' M M j p b j m W ' m M M [ / M M / M / ` M _ b M / ] $.:.@.x.( $.:.[ b n B _ n ] ` _ M j l 3 w 4 q 2 2 8 8 8 2 : : : : : : : : : 2 2 8 4 8 2 3 9 3 9 9 9 9 8 2 : ; ; ; $ @ $ $ $ @ ; ; : 2 e k l j N E N N l l N E E E N l N h v h k l h x v l j l l l j j j h h h h h h h h h k k h h h j l l l j l l l l k h h h h h h k k j l N m m R R Q / / ] ] R / / ] [ [ ) [ [ ] ] ] / [ ) [ ) [ [ [ ) [ $.| [ ] ] [ [ / M / M M M R / / ] / [ ] ) [ ) ) ) | | #.#.p.&.&.&.@.| ) ) ) ( ",
"# # X X X # # # # # X + # # # # # + + + + # + + # $ $ $ # # # $ $ + + # # $ # # + + # # # # # # X X X X X X X X X X X X X X X X X X X X X X X X X X X X X X X X X X . . . . X X X X X . . . . . . . . . . . . . . . . . . . . . . . . . . . . . . . . . . . . . . . . . . . . . . . . . . . . . X . . X . . X X X X X X X X X X X X X X X X . . . . . . . . . . . . . . . . . . . . . . . . . X X X . X X . . X X X . . . . . . . . . . . . . . . . . . . X X X X . X X X X + + $ $ ; 5 e c e 2 = = ; : : 2 4 3 < 3 h x j N j m m W m W W W j j W B W _ *.' W b b j a b b / ' / $.[ / ) $.>.` b n d b b M / [ X.x.$.x.( X.$.[ M b _ M _ _ $.R m h 2 8 2 w 2 8 2 8 e 8 2 : 2 : : : : = : : 2 : 2 2 2 2 3 9 h z h 9 9 8 8 : : ; ; $ $ $ @ @ @ @ ; ; : 4 9 h h l N N N N N N m m m m E j l h l h v l l l N l N N l l l j j h h h p h h 9 9 9 h h 9 h h x l l j k k j j h h j k k k k j l l N N m R Q R / / / ) ] / ) ) ) [ [ ) ( ) $.] ] ) ) ) ) | ) ) ) @.| &.@.) ) [ ) [ G [ / / M R R R / / / / ) ) [ ) ) ) ) ) #.#.&.&.&.$.| { ) ) ) ( ",
"# # X o # # # # # # # + + # # # # # # # # # # # # $ $ $ # $ # # $ $ # # # # + + # # # + + # o X X X X X X X X X X X X X X X X X X X X X X X X X X X X X X X X X X X . . . . . X X . . . . . . . . . . . . . . . . . . . . . . . . . . . . . . . . . . . . . . . . . . . . . . . . . . . . . . . X . . . . X X X X X X X X X X X X X X X . . . . . . . . . . . . . . . . . . . . . . . . . . . X X X X X X . X X X X . . . . . . . . . . . . . . . . . . X X X X X . X X X X + + + $ ; ; 0 c c q : = = : : : 2 2 3 3 h 3 1 p 3 v m W m W W N p j m B W *.;.>.*._ *.n M M / / :.$.&.@.&.&.>.] ] G b d b M ] $.>.:.{ X.X.` G G ` M M b *.] ] / =.j 3 2 : q 2 q 9 9 8 8 2 2 : : : : : : - : : : : 2 4 2 2 3 9 9 h h h 9 e 8 2 : ; ; ; $ $ @ @ @ @ = : : : 2 9 h h j l N N N m m m m m m l j j j h l l l l N N N N l E N l j h h h h h 9 3 9 9 9 9 9 9 h h h h h k h h h j l l l j h j l l l T T m R Q / / [ [ ) ) [ ) ) | ) ) | | | [ [ $.$.@.@.) ) @.@.| &.@.#.| | ) / ) / M / R R R / / / / M / [ / / ) ) [ [ ) | | @.#.&.%.@.$.| | ) ) ( ",
"o o X X # o o X # # # # + # # # # # # # # # # # # # # $ $ # # # # # # # # # + + # # # + X X o X X X o X X X X X X X X X X X X X X X X X X X X X X X X X X X X X X X X . . . . X . . . . . . . . . . . . . . . . . . . . . . . . . . . . . . . . . . . . . . . . . . . . . . . . . . X . X X . . . . . . . X . X . . X X X X X . . . X X . . . . . . . . . . . . . . . . . . . . . . . . X . . X X X X X X X X X X X . . . . . . . . . . . . . . . . . . . X X X X . O O X X + + X + $ ; 8 w c c 2 = = : : : 8 2 : 2 h h h 3 3 3 p b m m m B B W b m m _ *.>.*.` *.M _ ` [ ( :.@.S.&.&.| X.[ / _ b d b M $.+.$.) ( / G ` n n G M M _ / ] ] ' l h 3 2 0 8 e 8 9 9 9 2 2 2 2 : : : : : : : : : 2 4 8 8 2 3 h 9 h h h h 9 8 4 : : : ; ; $ $ @ @ @ = 7 : : 2 3 9 h h l l N N m N m m m m N h l h j h l l N m m m N m m l j h h h 9 9 h 9 9 9 9 9 9 9 9 h h h h h k h h k l l l j j j j N N m N T T T Q [ R [ ] [ ) [ ) ) | @.| | &.#.$.@.$.@.@.&.#.&.#.&.#.&.#.#.| &.) ) ) [ [ [ / / R ' / / R M [ [ ) [ / [ ) $.$.| | @.| #.$.| | { X.) ( ( ",
"X o + + # # o X # # # # # # # # # # + + # # # # + # # # # # # # # $ $ $ # # # # + + # + # # # # + X o X X X X X X X X X X X X o X X X X X X X X X X X X X X X X . . X X . . . . . . X X . . . . . . . . . . . . . . . . . . . . . . . . . . . . . . . . . . . . . . . . . . . . . . X X X X X . . . . . . X . X . X X X X X X X . X X X . . . . . . . . . . . . . . . . . . . . . . . . X . . X X X X X X X X X . X . . . . . . . . . . . . . . . . . . . X X X . . o o # X X X + + @ $ ; : e c w : = = = : 0 2 e 9 2 3 9 < z 9 3 p j j h N ~ j p a u j a W M m _ _ M _ / ] %.| ) &.) / / [ M / M n M M $.[ ] M ] b _ J J _ B M M b _ *.R m l < 2 2 4 8 8 8 2 2 9 8 8 e 8 : : : : : : : 2 : 8 8 2 2 2 9 h h h h h h h 9 8 2 2 : ; ; $ @ @ @ @ @ = : : 2 2 2 9 h k j l l N N m m j m j j j N j j j l m m m m E N m m N v x h h h h h 9 9 9 9 3 3 9 h h h h l k h j l l l l j l l j m m m m m m T / [ / [ ) [ [ | | | | &.| { u. .| | #.#.#.#.#.#.#.p.#.p.#.#.| z.) $.[ [ ) / / [ / [ / / [ / / M R / / / / / [ ) | @.| $.| ( ) ( ) ) ( [ ",
"# # # # X X X X o # # + # # # # # $ # $ # $ # # # # # # # $ $ $ # + # $ + + # + + # X # # X # + + # # # # + + # # + X X X X X X X X o X o X X X X X X X X X X X . . . X X . X X . . . . . . . . . . . . . . . . . . . . . . . . . . . . . . . . . . . . . . . . . . . X X X . . X . . . X X X . X . X X X X X X X . . X X X . . . . X X X . . . . . . . . . . . . . . . . . . . . . . X X X X . X X . X X . X X X X X . . O X . . . . . . . . . . . . . . . . X . O o o # + X X X X + + @ : 0 C e 8 2 : ; ; : e w w 9 2 2 8 2 9 2 < 3 3 3 3 h p h p p p p p h p a j W R ] ] ) ] ] ) G [ [ / ] / M m W _ *._ ' ' b b W B N b W m m W N W l h 3 3 2 8 8 8 8 2 8 8 8 8 8 8 2 : : : : : 8 : 2 : 8 2 8 9 9 9 h h h j h l x h h 9 3 2 : ; ; ; ; = = ; ; , : 4 2 9 3 h h j l E E N l l m m m m m N l m l N l j j m R m m l j l l h h h 9 9 v 3 h 2 9 3 h 3 9 h k h h h j l j l l l m m m m m R M R R R M R ) [ [ | ) | | | #.#.#.#.| #.#.t.t.t.t.#.t.#.t.t.a.#.t.t.#.#.#.@.| ) ) [ / R ] ) ) / ) / ] / ' m M M ] / / / ) [ ) ) ) ] [ [ / / / / ",
"# # # # X X + + o # # + # # # # # $ # $ + $ # # # # # # # # $ $ # + # $ + + # + + # X # # + # + + + # # + X X X # + X X X X X X X X o X o X X X X X X X X X X X . . . X X . . X . . . . . . . . . . . . . . . . . . . . . . . . . . . . . . . . . . . . . . . . . . . X X X . . X . . . X X X X X . X X X X X X X . . X X X . X . . X . X . . . . . . . . . . . . . . . . . . . . . . X X X X X . X X X X . X X X X X . . O X . . . . . . . . . . . . . . . . . . . X X X # o X X X + + @ : , e c 9 2 = = = : w Y Y z 2 2 8 2 8 9 2 3 3 9 3 h 3 p 3 3 p 3 h z p x m W M _ R R / / _ / *.*.` ] M R m m B ~ B W R j j N m x j N j m m l N h 3 3 2 2 8 9 9 8 2 8 8 8 8 8 2 : : : : : : 8 : : : 2 2 2 2 3 3 3 h h h j j x k v h 3 3 : : ; ; ; ; ; ; ; : : 2 2 8 3 h h j j l l l m T N m m m m N m m l N l m m m R m m m m l l j h k h h h 3 h 3 9 9 9 9 9 h k k j l l T l T m l T T m m m m M M M R / / [ [ ( | | | | | #.#.#.#.#.#.#.#.t.t.t.e.B.t.y.t.B.t.p.p.t.t.t.#.@.| ) ( [ [ ) ) [ / [ / ] / / M G M ' / / / / / ) ) ) ) [ [ / / / / ",
"# o X # + + + + o # # + # # # # # $ # # + # + # $ $ # # # # # # # + # # + + # + # # + # + + # + X + + X X X X X # + X X X X X X X X o X o X X X X X X X X X X X . . . X X . . X . . . . . . . . . . . . . . . . . . . . . . . . . . . . . . . . . . . . . . . . . . . X . . . . X . . . X X X X . . . X X X X X X . . X X X . X . X . . . . . . . . . . . . . . . . . . . . . . . . . X X X X X . X X O X . X . X X X . . O X . . . . . . . . . . . . . . . . . . . . . X X # o X X X X + = : 8 c e 2 : = = : 8 w c z 3 3 8 e 9 e 9 9 3 3 3 h 3 3 3 p h h z z p h p m m M M R / / / M _ _ / _ M M b b j j b m m m j m b j j x j b m j v 3 3 3 3 3 8 e 9 2 2 8 8 2 2 8 2 : : : : : : 8 : : : 8 2 8 8 9 h h l l j l j x l v c h 9 8 : : : ; ; ; ; ; : : 2 2 8 3 h h j j j l l m T m m T m T T m m l l l m m m R m m T m l l l l k h h h h h h h 9 h h h h h k l T l T l T m l m m m m m M R M M M / / ) [ ( | | | | | #.#.#.#.#.#.#.#.t.t.a.t.B.t.t.e.t.e.t.t.t.t.p.#.@.| ) ) ) ] [ ) [ [ [ / ] / / R _ G / / / / M R ) [ [ [ / / / R R R ",
"+ + X # + + + # # # + + # # # # # $ + # + # + # $ $ $ # # # # # # + # # + + # + # # + + + + # + X + + X X X X X + + X X X X X X X X o X o X X X X X X X X X X X . . . . X X X X . . . . . . . . . . . . . . . . . . . . . . . . . . . . . . . . . . . . . . . . . . . X . . . . X . . X X X X X . . . X X X X X X . . X X X X X . . . . . . . . . . . . . . . . . . . . . . . . . . . . X X X X . X X O X . X . X X X . . X X . . . . . . . . . . . . . . . . . . . X . X X X X X X X X + = - 8 9 8 4 0 , ; ; : 8 w 9 3 3 9 w c e 9 z 3 3 h h 3 3 3 p h h z z p x j m j m m m M M M b M M n / M m j j p p j m m m m m m x j x j b m h h 3 3 3 3 8 9 e 9 2 2 2 8 8 2 8 : 5 : : : : : 8 : 2 : 8 8 2 9 9 h h l l j l j l l v c h 9 8 5 : : ; ; ; ; ; : : 2 2 8 3 h l j l N l l m T m T T m E W m T m l l T R m R R m W W N l l v h k k h h 9 h 9 9 c h h h h k l l E E T E T T R R W R R R / M R R / / ] ) ) $.#.| #.#.#.#.#.#.#.#.#.t.a.t.B.t.y.t.B.t.y.t.t.t.p.t.t.#.@.| | ) ) ) ) ) [ ) ) / ] [ / / _ M M / R R / / ) / [ / M M / / R R "
};
